Zhangzhongqiu/robot-calibration/1.25kg/20161216_run2_1.25kg.csv
number, theta_1, theta_2, theta_3, theta_4, theta_5, theta_6, theta_7, tau_1, tau_2, tau_3, tau_4, tau_5, tau_6, tau_7, m_00, m_01, m_02, m_03, m_10, m_11, m_12, m_13, m_20, m_21, m_22, m_23, m_30, m_31, m_32, m_33
0, -1.570803275882821, 0.092400710862861, 0.000006052038257, 0.000012223958818, -0.000045060648777, 0.000025406594268, -0.000018485654751, 0.108212102890015, 8.829704320907593, 0.082315053939819, -3.369634962081909, 0.038736495971680, 0.441887222290039, -0.084606050491333, 0.597512208195926, 0.801846762040518, 0.004575069613185, 2.518656616369269, -0.798448994889672, 0.595486617894955, -0.088740579599754, -90.435128286427101, -0.073880739144251, 0.049370619939038, 0.996044265216328, 1320.304717409350360, 0.000000000000000, 0.000000000000000, 0.000000000000000, 1.000000000000000
1, -1.570805013576256, 0.277207165899972, 0.000007250479495, -0.000028852037832, -0.000044916833647, 0.000037750271764, -0.000018515652598, 0.207014457702637, 26.733766412734987, 0.273796596527100, -10.078091764450074, 0.169912357330322, 1.414773365020752, -0.087109188079834, 0.596847264247149, 0.802348061359380, 0.003306296045134, 1.612254166170275, -0.771366681425262, 0.574925374478271, -0.272863072928526, -270.419646334326671, -0.220832031072651, 0.160307211983317, 0.962047198342401, 1286.601206930244189, 0.000000000000000, 0.000000000000000, 0.000000000000000, 1.000000000000000
2, -1.570802796462693, 0.461983959993687, 0.000008508807343, -0.000074601808047, -0.000044773105783, 0.000065314038443, -0.000018485654751, 0.282964567184448, 43.667952327728273, 0.442828578948975, -16.415030355453489, 0.292284469604492, 2.278022081375122, -0.092115463256836, 0.598278140111945, 0.801281904366114, 0.003252199195260, 0.660075403463634, -0.716235792930085, 0.536589292609315, -0.446181823904613, -440.792759891569460, -0.359262516817443, 0.264611490288024, 0.894936424120478, 1220.326579355700460, 0.000000000000000, 0.000000000000000, 0.000000000000000, 1.000000000000000
3, -1.570797463500087, 0.646750747242146, 0.000009827076342, -0.000093297229557, -0.000044725109229, 0.000145188867944, -0.000018216001382, 0.431504161834717, 59.183954782485962, 0.585009126663208, -22.149352321624754, 0.401891145706177, 3.046318445205689, -0.094952352523804, 0.596966838749859, 0.802265653438825, 0.000644007278854, -0.101827569066215, -0.639498229171561, 0.476335809432118, -0.603445284627436, -595.748535736086410, -0.484430189314661, 0.359824982408148, 0.797404147039340, 1123.645112852203511, 0.000000000000000, 0.000000000000000, 0.000000000000000, 1.000000000000000
4, -1.570790992037394, 0.831600824929450, 0.000011115402036, 0.000088323750235, -0.000044629203387, -0.000149143729483, -0.000018275942534, 0.465782529830933, 72.469174818038937, 0.707381238937378, -27.166168737411496, 0.500933322906494, 3.915407815933228, -0.098122993469238, 0.599289903464010, 0.800531929428390, 0.000491499498126, -0.799689259333248, -0.537736788561095, 0.403012294910793, -0.740554006388958, -730.114723218975314, -0.593035207921163, 0.443542241637023, 0.671996668183338, 1000.297003635638362, 0.000000000000000, 0.000000000000000, 0.000000000000000, 1.000000000000000
5, -1.570802616693780, 1.016354399544613, 0.000012463614340, -0.000054678056535, -0.000044389482414, -0.000167749211996, -0.000018156114772, 0.516191894531250, 83.453711448669424, 0.808624353408813, -31.214572753906246, 0.580167064666748, 4.404520900726318, -0.101293634414673, 0.598837419276880, 0.800870590056984, 0.000207979769830, -1.664710792441034, -0.419642358642792, 0.314001632245993, -0.851647383474855, -839.348288376245705, -0.682124648511194, 0.509911044132828, 0.524115150482076, 854.394915578467931, 0.000000000000000, 0.000000000000000, 0.000000000000000, 1.000000000000000
6, -1.570803036172757, 1.201223052716582, 0.000013931654406, -0.000058333212317, -0.000044341573126, -0.000162895560435, -0.000018186058077, 0.549798137664795, 91.464095561981196, 0.880815095901489, -34.230737190246586, 0.646635370254517, 4.793508481979370, -0.101794261932373, 0.601272430098875, 0.799043743179440, 0.000749192086100, -2.190666595785387, -0.285131342422299, 0.215434179734614, -0.933963720799974, -919.844939438073538, -0.746439269044341, 0.561353017884346, 0.357367047922282, 690.823732261316422, 0.000000000000000, 0.000000000000000, 0.000000000000000, 1.000000000000000
7, -1.570793568634240, 1.385950591655366, 0.000015519576774, -0.000069178906442, -0.000044389569680, -0.000157652427743, -0.000018156114772, 0.589453504562378, 96.431770421981810, 0.929675903320312, -36.050472126007080, 0.681410179138184, 5.112074459075927, -0.102962392807007, 0.600467959808102, 0.799648092631690, -0.001075729703848, -2.600865842793110, -0.144496780172139, 0.107181534293595, -0.983683281969535, -968.447247630874472, -0.786485161820476, 0.590825732900126, 0.179905651882449, 515.799950596100075, 0.000000000000000, 0.000000000000000, 0.000000000000000, 1.000000000000000
8, -1.385986933828216, 0.092423121326763, 0.000009827076342, 0.000034185000438, -0.000045396275592, -0.000198099233198, -0.000018455711446, -0.111572727203369, 9.021932031631469, 0.074391679763794, -3.476160326004028, 0.041817808151245, 0.521987625122070, -0.086608560562134, 0.732965879740152, 0.679923236813984, 0.021573390487836, 19.451187752171805, -0.676213213057358, 0.731689598684896, -0.085825530368182, -88.793623173187001, -0.074139797837528, 0.048318973672159, 0.996076586995136, 1320.312781815243852, 0.000000000000000, 0.000000000000000, 0.000000000000000, 1.000000000000000
9, -1.385986993769367, 0.277241770324846, 0.000010995519733, -0.000052820480797, -0.000045156554619, -0.000171614079996, -0.000018395770295, 0.118293975830078, 26.737127037048339, 0.279078845977783, -10.108464698791504, 0.169031982421875, 1.446980401992798, -0.091781711578369, 0.728908787664020, 0.682492501062522, 0.053814173408054, 51.641473070696563, -0.648120849151899, 0.713242751282844, -0.266878516627136, -266.010226011158693, -0.220525155392282, 0.159652008242622, 0.962226528476173, 1286.510464445583921, 0.000000000000000, 0.000000000000000, 0.000000000000000, 1.000000000000000
10, -1.385989780078432, 0.461985577859360, 0.000012253902123, -0.000001048615630, -0.000045108645331, -0.000123078000716, -0.000018455656905, 0.214407831192017, 43.664591703414914, 0.450311765670776, -16.451565914154052, 0.290523719787598, 2.305389719009399, -0.093617345809937, 0.718362835819319, 0.690667090250611, 0.083269481554649, 82.085648018142948, -0.596399580383319, 0.673048978973889, -0.437392972532489, -433.389329380120216, -0.358137371175122, 0.264544972257951, 0.895406935991013, 1220.160610923350987, 0.000000000000000, 0.000000000000000, 0.000000000000000, 1.000000000000000
11, -1.385991068349584, 0.646751646086710, 0.000013362404363, -0.000094915095230, -0.000044964742935, -0.000059082231273, -0.000018305885839, 0.362947425842285, 59.162446786880494, 0.593812875747681, -22.178844881057742, 0.403651895523071, 3.086869274139405, -0.098623620986938, 0.705174092799528, 0.699940755408540, 0.113192039307033, 109.505029862070458, -0.516813603772974, 0.616702732789816, -0.593785683832782, -586.180257776154690, -0.485420640063394, 0.360223095161449, 0.796621694352313, 1123.577337321343975, 0.000000000000000, 0.000000000000000, 0.000000000000000, 1.000000000000000
12, -1.385996820791168, 0.831548363931936, 0.000014740614513, -0.000045899541281, -0.000044677112674, 0.000011265173103, -0.000018305885839, 0.308505311965942, 72.506141685485844, 0.725428924560547, -27.188618297576902, 0.498732385635376, 3.799929735183716, -0.099958627700806, 0.686611967955956, 0.713809207544543, 0.137987030855371, 133.388572497482244, -0.418365224443129, 0.543151532644191, -0.727981422539694, -718.362028653356674, -0.594587709624324, 0.442111782031308, 0.671567292051066, 1000.233845943125175, 0.000000000000000, 0.000000000000000, 0.000000000000000, 1.000000000000000
13, -1.385995981887756, 1.016405781928650, 0.000015579463384, 0.000003775038085, -0.000044677112674, 0.000074841463569, -0.000018186058077, 0.415373165130615, 83.487317691802986, 0.824911289215088, -31.265634498596192, 0.584568939208984, 4.359464424133300, -0.103296144485474, 0.664838439636359, 0.729976824615146, 0.158504525823965, 152.750855267979517, -0.301068326692490, 0.456050695951251, -0.837481716448164, -825.900086043142096, -0.683628343359515, 0.509069345224369, 0.522972934202485, 854.294497766977997, 0.000000000000000, 0.000000000000000, 0.000000000000000, 1.000000000000000
14, -1.385996041774366, 1.201208372043221, 0.000016538194558, -0.000028342728940, -0.000044389482414, 0.000127422288844, -0.000018096173621, 0.430832036972046, 91.501734554290778, 0.898422594070435, -34.263751249313351, 0.640912933349609, 4.714743085861206, -0.104631151199341, 0.643214569370727, 0.746307621789055, 0.171172285749755, 166.954470574159103, -0.170253865997341, 0.357359778707291, -0.918317815179056, -904.935310334087944, -0.746517674849156, 0.561532654635366, 0.356920774004497, 690.585997013226120, 0.000000000000000, 0.000000000000000, 0.000000000000000, 1.000000000000000
15, -1.385994334078777, 1.385948853907390, 0.000017556866883, -0.000053209961928, -0.000044437478968, 0.000176228076034, -0.000018096173621, 0.404619167327881, 96.476130662918081, 0.952125463485718, -36.090529184341428, 0.680969991683960, 5.049662895202637, -0.105799282073975, 0.616289630251856, 0.766327380147975, 0.181464702021002, 175.380818473152800, -0.030332139587060, 0.253352931805068, -0.966898264169425, -952.998221948352125, -0.786935227926734, 0.590385161044312, 0.179383133729403, 515.569636549082475, 0.000000000000000, 0.000000000000000, 0.000000000000000, 1.000000000000000
16, -1.201187938928275, 0.092404156306425, 0.000011744538689, -0.000092817809429, -0.000045156554619, -0.000020133518271, -0.000018575539208, -0.040327491760254, 9.057554649353028, 0.082315053939819, -3.490246324539185, 0.041817808151245, 0.522154500961304, -0.086775436401367, 0.846098750906487, 0.531778545814496, 0.036448345996784, 36.056121647711024, -0.527840255694665, 0.845421061663686, -0.081534612059148, -84.306404710564181, -0.074172556802849, 0.049747429148300, 0.996003827859343, 1320.187963713513000, 0.000000000000000, 0.000000000000000, 0.000000000000000, 1.000000000000000
17, -1.201188448237167, 0.277240901478129, 0.000012613385407, -0.000013062807689, -0.000045204463907, -0.000018635480359, -0.000018425713600, 0.138457721710205, 26.801651023864746, 0.278638658523560, -10.161287193298339, 0.173433856964111, 1.425286542892456, -0.092115463256836, 0.836535932459124, 0.538445509440968, 0.101410389347449, 99.407360604826195, -0.501802456876741, 0.827217862454993, -0.252794189624405, -252.367436672308429, -0.220004381722754, 0.160583440610324, 0.962190745447356, 1286.410181446490469, 0.000000000000000, 0.000000000000000, 0.000000000000000, 1.000000000000000
18, -1.201193002292054, 0.461981563111211, 0.000013901656559, -0.000004913538171, -0.000045156554619, 0.000002486766932, -0.000018395770295, 0.212391456604004, 43.785574178695683, 0.450751953125000, -16.501307096481323, 0.290523719787598, 2.304889091491699, -0.096787986755371, 0.817135794035488, 0.552932292509108, 0.162956969800663, 159.972607675259326, -0.451727596392583, 0.789835773003680, -0.414851335228729, -411.379020299827175, -0.358093944047330, 0.265377714935338, 0.895177856993975, 1220.105947748332255, 0.000000000000000, 0.000000000000000, 0.000000000000000, 1.000000000000000
19, -1.201206844007462, 0.646751526258949, 0.000015040156646, -0.000092548210601, -0.000045012739489, 0.000033975288221, -0.000018335883685, 0.297751314163208, 59.239741146087646, 0.598214750289917, -22.236069250106809, 0.405852832794189, 3.084866764068604, -0.098790496826172, 0.788408134064351, 0.574573267772736, 0.219722948510458, 215.837552707913432, -0.378858728301362, 0.734937152650765, -0.562435281293288, -556.468911923040309, -0.484642835633669, 0.360184593805102, 0.797112526720293, 1123.347934755418237, 0.000000000000000, 0.000000000000000, 0.000000000000000, 1.000000000000000
20, -1.201204417236223, 0.831549172892044, 0.000016238597884, -0.000004134575910, -0.000044677112674, 0.000085777042151, -0.000018216055924, 0.344127929687500, 72.546469177246081, 0.721907424926758, -27.233957605361937, 0.498732385635376, 3.794255956649780, -0.103463020324707, 0.751873204524933, 0.601912833522422, 0.269049484590506, 263.533955992595622, -0.284857911113354, 0.664596513926477, -0.690773077177238, -681.924874343495276, -0.594594529737320, 0.442732892970223, 0.671151943071517, 1000.056731428447392, 0.000000000000000, 0.000000000000000, 0.000000000000000, 1.000000000000000
21, -1.201199893179183, 1.016365514892108, 0.000017077501296, 0.000009108000691, -0.000044485475523, 0.000146956559225, -0.000018216055924, 0.334046056747437, 83.502776563644403, 0.824471101760864, -31.268275623321532, 0.587210063934326, 4.341108081817627, -0.101126758575439, 0.710003116431117, 0.633137581140007, 0.308273219735810, 302.177804591406073, -0.173466237119745, 0.581522464851820, -0.794821418591736, -784.090861365544242, -0.682499112994016, 0.510850688773975, 0.522710756098951, 853.964969914299672, 0.000000000000000, 0.000000000000000, 0.000000000000000, 1.000000000000000
22, -1.201205166255179, 1.201163640890789, 0.000017976345860, 0.000019743982599, -0.000044485475523, 0.000177246693818, -0.000018156114772, 0.403274917602539, 91.499718179702768, 0.901503906250000, -34.278717622756957, 0.646635370254517, 4.757963928222656, -0.104631151199341, 0.662557122215268, 0.668413810120237, 0.337995618673336, 330.649410125056590, -0.048943684908126, 0.488926891125907, -0.870950636282889, -859.205976692172612, -0.747410580276622, 0.560511796106473, 0.356656628868803, 690.516540426357892, 0.000000000000000, 0.000000000000000, 0.000000000000000, 1.000000000000000
23, -1.201193122119816, 1.385948074945129, 0.000018635425818, -0.000091199943756, -0.000044485475523, -0.000073762850093, -0.000018096173621, 0.384455421447754, 96.482179786682124, 0.955646963119507, -36.070720748901365, 0.682290554046631, 5.174486022949219, -0.104798027038574, 0.611838330971138, 0.706513496050716, 0.355657892718053, 347.691455785852668, 0.083954945785597, 0.389095014843879, -0.917363960760275, -904.870825268534077, -0.786514732114148, 0.591137673746003, 0.178747942213539, 515.291478399638436, 0.000000000000000, 0.000000000000000, 0.000000000000000, 1.000000000000000
24, -1.016387805582790, 0.092363080364317, 0.000012763156473, -0.000094166021733, -0.000045252373195, -0.000198968079915, -0.000018455656905, -0.014114622116089, 9.097882141113281, 0.084075803756714, -3.435222892761231, 0.045779495239258, 0.486776823043823, -0.088944822311401, 0.928986083348529, 0.366430286776480, 0.052093203756981, 50.982447621902068, -0.362376048221752, 0.929139122964655, -0.073376357579662, -76.644704087012613, -0.075289153401709, 0.049288285721646, 0.995942873999646, 1320.246447393157041, 0.000000000000000, 0.000000000000000, 0.000000000000000, 1.000000000000000
25, -1.016389123851789, 0.277247912247560, 0.000013781828798, -0.000007370307257, -0.000045156554619, -0.000169576789887, -0.000018515652598, 0.108212102890015, 26.887683006286622, 0.287442407608032, -10.209267625808716, 0.172113294601440, 1.451486049652100, -0.092282339096069, 0.914475425574985, 0.376821825772036, 0.147444930876856, 144.430218394985417, -0.338956587681606, 0.912381743168697, -0.229495068355928, -230.081814953659034, -0.221004813718373, 0.159890169661178, 0.962076923098682, 1286.427554142363988, 0.000000000000000, 0.000000000000000, 0.000000000000000, 1.000000000000000
26, -1.016390172467419, 0.461978387321016, 0.000014860442275, -0.000004973479322, -0.000045060736044, -0.000126912925411, -0.000018395770295, 0.186850711822510, 43.848753915786745, 0.459115514755249, -16.545325841903686, 0.293164844512939, 2.327584205627441, -0.096787986755371, 0.886257850556293, 0.397950015836712, 0.237029127372355, 233.861679646167886, -0.293307773395607, 0.878217906023848, -0.377761643903664, -375.453925431393429, -0.358493476081575, 0.265271736969184, 0.895049346780557, 1219.896478484786257, 0.000000000000000, 0.000000000000000, 0.000000000000000, 1.000000000000000
27, -1.016401946949414, 0.646754761935754, 0.000016178656732, -0.000092937637190, -0.000045060736044, -0.000050034117191, -0.000018216055924, 0.209030832290649, 59.280068637847904, 0.603496999740601, -22.252796373367310, 0.400570583343506, 3.104891864776611, -0.101293634414673, 0.844899381905128, 0.428466884080550, 0.320251719281313, 314.767294436705242, -0.225823992559593, 0.828418028152726, -0.512569112428749, -507.862798823017442, -0.484921188277824, 0.360748804402530, 0.796687982387941, 1123.158450159610084, 0.000000000000000, 0.000000000000000, 0.000000000000000, 1.000000000000000
28, -1.016402965621739, 0.831549592316479, 0.000017257270209, -0.000082002058608, -0.000044629203387, 0.000010126618475, -0.000018216055924, 0.227850328445435, 72.629812660217283, 0.735113048553467, -27.240120229721068, 0.505775384902954, 3.812111671447754, -0.103463020324707, 0.791623117559191, 0.468793697042612, 0.391874098862106, 383.985690852260120, -0.141032880062953, 0.764228593253340, -0.629336463265216, -622.337155184259245, -0.594510358603630, 0.442930160259088, 0.671096346768362, 999.992704288360414, 0.000000000000000, 0.000000000000000, 0.000000000000000, 1.000000000000000
29, -1.016404164008435, 1.016409257315519, 0.000018066230316, -0.000087065422387, -0.000044629203387, 0.000078886155023, -0.000018156114772, 0.347488554000854, 83.570661174774159, 0.828432788848877, -31.281921434402463, 0.583688564300537, 4.355626279830933, -0.105131778717041, 0.729579872162949, 0.515617977509335, 0.449278656741981, 440.585770847021365, -0.040008530310734, 0.687994389251148, -0.724612336260786, -715.664942297808693, -0.682724342349876, 0.510687596900612, 0.522575976040620, 853.927253787962172, 0.000000000000000, 0.000000000000000, 0.000000000000000, 1.000000000000000
30, -1.016394366929939, 1.201199443811442, 0.000018815194730, -0.000021991039467, -0.000044485475523, 0.000132215944712, -0.000018216055924, 0.384455421447754, 91.532652297973641, 0.912508592605591, -34.265071811676023, 0.645754995346069, 4.745281364440919, -0.106633661270142, 0.660407975422787, 0.567270211981754, 0.492001842065812, 482.390146111093543, 0.073681601775657, 0.603094118860736, -0.794259721599532, -784.222178332043200, -0.747283298058875, 0.560786938501396, 0.356490788167776, 690.494046790635593, 0.000000000000000, 0.000000000000000, 0.000000000000000, 1.000000000000000
31, -1.016402396317154, 1.385998918076969, 0.000019354556010, -0.000096832557578, -0.000044437478968, 0.000170745233278, -0.000018096228162, 0.361603176116943, 96.474786413192760, 0.965331087112427, -36.078644123077396, 0.682730741500854, 5.052833536148071, -0.105966157913208, 0.586318201385957, 0.622651650880793, 0.518204485101161, 507.538516706777727, 0.195389180090241, 0.512110332864527, -0.836400666712459, -826.044862140264627, -0.786164127283355, 0.591648484007866, 0.178600213728861, 515.214688291981247, 0.000000000000000, 0.000000000000000, 0.000000000000000, 1.000000000000000
32, -0.831588301319416, 0.092371379404900, 0.000013691944342, -0.000017706692490, -0.000045300369750, -0.000021751383944, -0.000018515652598, 0.019491621017456, 9.175176500320436, 0.090678615570068, -3.514456634521484, 0.044458932876587, 0.533502058029175, -0.091614835739136, 0.979790796153891, 0.189118719407257, 0.065146801470855, 63.845893816825644, -0.185134955562714, 0.980717006976207, -0.062603517923688, -66.182959899608065, -0.075730073292687, 0.049277400473125, 0.995909982780420, 1320.245719087133239, 0.000000000000000, 0.000000000000000, 0.000000000000000, 1.000000000000000
33, -0.831589020449609, 0.277223524325617, 0.000014620732210, -0.000008868345168, -0.000045156554619, -0.000020612883858, -0.000018365826990, 0.137113471984863, 26.916584375381468, 0.284361095428467, -10.225994749069214, 0.171232919692993, 1.446980401992798, -0.093784221649170, 0.961069721530339, 0.202652070333541, 0.187822066720413, 185.211265967163115, -0.164899177402286, 0.966106257684277, -0.198612588108939, -200.011850048092271, -0.221705326164364, 0.159908840446085, 0.961912631738217, 1286.330691996149426, 0.000000000000000, 0.000000000000000, 0.000000000000000, 1.000000000000000
34, -0.831592226183109, 0.461982042531340, 0.000015759232297, -0.000001737693435, -0.000045156554619, 0.000000389481130, -0.000018485654751, 0.233899452209473, 43.814475547790529, 0.453833265304565, -16.523316469192505, 0.295805969238281, 2.325247943878174, -0.098623620986938, 0.924429432559408, 0.230342418193089, 0.303928601153051, 299.271829653377381, -0.125292663903212, 0.936182447581357, -0.328426815611358, -326.360969518294326, -0.360183248624818, 0.265527390718059, 0.894294823975031, 1219.890287942485429, 0.000000000000000, 0.000000000000000, 0.000000000000000, 1.000000000000000
35, -0.831598727643648, 0.646789036875190, 0.000016897732383, -0.000089821788147, -0.000044964742935, 0.000030979212397, -0.000018275997075, 0.291702190399170, 59.231675647735599, 0.598654937744141, -22.238710374832152, 0.410254707336426, 3.109564388275146, -0.100959882736206, 0.871321719388159, 0.269713434984412, 0.409942830540274, 403.042871842277350, -0.066603421577049, 0.892674657072169, -0.445753228653831, -441.721486896896238, -0.486171210127350, 0.361090874448517, 0.795770654669619, 1123.077036685397616, 0.000000000000000, 0.000000000000000, 0.000000000000000, 1.000000000000000
36, -0.831596151046801, 0.831601214356039, 0.000017916459250, -0.000084548657609, -0.000044677112674, 0.000083859579804, -0.000018186058077, 0.295734939575195, 72.599567041397094, 0.728070049285889, -27.227794981002809, 0.501813697814941, 3.809775409698486, -0.103129268646240, 0.804085653806637, 0.319080186001015, 0.501631434664845, 492.771565798612585, 0.008919261485533, 0.837198510381200, -0.546826390173383, -541.683237948495730, -0.594446556148579, 0.444169437396427, 0.670333351972014, 999.469534917036526, 0.000000000000000, 0.000000000000000, 0.000000000000000, 1.000000000000000
37, -0.831599296893691, 1.016402905735129, 0.000018665423664, -0.000090480922646, -0.000044581294099, 0.000146836731464, -0.000018156114772, 0.391176670074463, 83.602251043319711, 0.832394475936890, -31.289404621124270, 0.584568939208984, 4.346614984512329, -0.105131778717041, 0.723692096527144, 0.380516764483510, 0.575740168280057, 565.394709865791924, 0.095610613033857, 0.770930672154941, -0.629701921075377, -622.838303223670437, -0.683467892515396, 0.510757173887682, 0.521534993286961, 853.514016339792079, 0.000000000000000, 0.000000000000000, 0.000000000000000, 1.000000000000000
38, -0.831600195683713, 1.201241538425875, 0.000019414497162, -0.000010635981908, -0.000044389482414, 0.000172902405690, -0.000018156114772, 0.342111555099487, 91.554832418441777, 0.907226343154907, -34.280038185119629, 0.645314807891846, 4.770980243682861, -0.105966157913208, 0.634924056829551, 0.448161802726585, 0.629303138905220, 618.993864941081370, 0.193659655279948, 0.696223072249471, -0.691208631011188, -682.429841464738843, -0.747908670878977, 0.560735617064198, 0.355257917265297, 689.990858196435397, 0.000000000000000, 0.000000000000000, 0.000000000000000, 1.000000000000000
39, -0.831603371528450, 1.385976147966159, 0.000019953694817, -0.000021391846119, -0.000044389482414, 0.000002157117870, -0.000018066230316, 0.340767305374146, 96.529900651931769, 0.964450712203979, -36.098452558517451, 0.688453178405762, 5.169479747772217, -0.107134288787842, 0.540043459385500, 0.519445890630829, 0.662215243468230, 651.208426417339410, 0.299564457934588, 0.616657052544106, -0.728007702630935, -718.833209673584406, -0.786520309666126, 0.591531948633682, 0.177414081257211, 514.817302969914294, 0.000000000000000, 0.000000000000000, 0.000000000000000, 1.000000000000000
40, -0.646788617396213, 0.092371349516137, 0.000014321190078, -0.000008209156127, -0.000045300369750, -0.000198338943262, -0.000018485654751, 0.005376998901367, 9.301535974502563, 0.084956178665161, -3.599412813186645, 0.048420619964600, 0.520652618408203, -0.089278573989868, 0.997121313886717, 0.005378723442312, 0.075631704509146, 76.073605370110499, -0.001593479416536, 0.998746949455289, -0.050019913805437, -53.641827236200683, -0.075805977443582, 0.049755404609805, 0.995880441366301, 1320.207716728268906, 0.000000000000000, 0.000000000000000, 0.000000000000000, 1.000000000000000
41, -0.646788946990733, 0.277193264243413, 0.000015279866710, -0.000018335883685, -0.000045252373195, -0.000174640153666, -0.000018485654751, 0.125015224456787, 26.958256116867066, 0.277758283615112, -10.226875123977660, 0.175634794235229, 1.485862472534180, -0.094952352523804, 0.974997957242758, 0.023211005116247, 0.220998263825629, 219.233940660947894, 0.013030028566424, 0.986846797665562, -0.161132294381925, -162.763039088951786, -0.221831471455263, 0.159983271558994, 0.961871171775760, 1286.250279299504427, 0.000000000000000, 0.000000000000000, 0.000000000000000, 1.000000000000000
42, -0.646790534858560, 0.461974911879606, 0.000016358425645, -0.000090450924800, -0.000045060736044, -0.000141653539924, -0.000018455656905, 0.227850328445435, 43.837999917984007, 0.454273452758789, -16.510991220474242, 0.298447093963623, 2.345606796264649, -0.098790496826172, 0.931125237367271, 0.056793130118665, 0.360250375029738, 354.511866533885836, 0.044807563640006, 0.962501616309010, -0.267549847398929, -266.025369752912411, -0.361936561538606, 0.265264356772386, 0.893664784160002, 1219.888509078420839, 0.000000000000000, 0.000000000000000, 0.000000000000000, 1.000000000000000
43, -0.646798804010380, 0.646774086548459, 0.000017437039121, -0.000093836481754, -0.000044964830201, -0.000053509613143, -0.000018335883685, 0.269522069931030, 59.388952865600587, 0.601296062469482, -22.294614181518554, 0.408934144973755, 3.123248207092285, -0.100793006896973, 0.868203529209199, 0.102367645543204, 0.485534238766570, 477.591659443190736, 0.093598886705329, 0.927138325204086, -0.362841252265072, -360.438232454480442, -0.487300605659602, 0.360465519965091, 0.795363268349804, 1123.007473916988147, 0.000000000000000, 0.000000000000000, 0.000000000000000, 1.000000000000000
44, -0.646792122780928, 0.831567868259013, 0.000018395770295, -0.000089761846995, -0.000044725109229, -0.000002187115716, -0.000018216001382, 0.209030832290649, 72.707107019424427, 0.728070049285889, -27.259048290252686, 0.504454822540283, 3.822958600997925, -0.102962392807007, 0.787809570535244, 0.163056655028303, 0.593943269870159, 584.160702664610540, 0.154266214957365, 0.881345827496303, -0.446577504222486, -442.016030936434561, -0.596286856718982, 0.443443411954488, 0.669178544858066, 999.494115861917066, 0.000000000000000, 0.000000000000000, 0.000000000000000, 1.000000000000000
45, -0.646801021069402, 1.016401108046001, 0.000019114845946, -0.000019833921597, -0.000044533297544, 0.000060640210336, -0.000018216001382, 0.246669824600220, 83.671479904174802, 0.827552413940430, -31.321978492736818, 0.584568939208984, 4.349618749618530, -0.105966157913208, 0.693491408314943, 0.232765599119051, 0.681828308637964, 670.467846067093660, 0.227158471875923, 0.827459931642049, -0.513526133884081, -508.714570590297512, -0.683716823874002, 0.511009038465744, 0.520961675517464, 853.329458726541020, 0.000000000000000, 0.000000000000000, 0.000000000000000, 1.000000000000000
46, -0.646800242052599, 1.201220206466366, 0.000019773980446, -0.000019953749358, -0.000044389482414, 0.000097012271949, -0.000018156114772, 0.246669824600220, 91.593143535614018, 0.903704843521118, -34.282239122390749, 0.645314807891846, 4.793341606140137, -0.108135543823242, 0.588222654517555, 0.312125985418987, 0.746037182678281, 734.079417258003900, 0.307481197840578, 0.766910848729780, -0.563296603109847, -557.509183818347765, -0.747963516280604, 0.560736229725524, 0.355141463344341, 689.602699113504855, 0.000000000000000, 0.000000000000000, 0.000000000000000, 1.000000000000000
47, -0.646797755340209, 1.386000476001491, 0.000020343230489, -0.000022470405054, -0.000044389482414, 0.000151240960743, -0.000018186058077, 0.322619934082031, 96.482851911544799, 0.953446025848389, -36.077323560714717, 0.680089616775513, 5.040651599884033, -0.106967412948608, 0.474662269394468, 0.398457521951647, 0.784810380419020, 772.406876424783832, 0.393334633679086, 0.701642791842119, -0.594125625271740, -587.255789311052354, -0.787390370757627, 0.590702121086550, 0.176316216446523, 514.480120949211823, 0.000000000000000, 0.000000000000000, 0.000000000000000, 1.000000000000000
48, -0.461989293010835, 0.092429143421715, 0.000014860442275, -0.000084758424368, -0.000045300369750, -0.000046558730322, -0.000018515652598, 0.024868619918823, 9.399666204452515, 0.088917865753174, -3.598532438278198, 0.050621557235718, 0.556864675521851, -0.090780456542969, 0.980482912101444, -0.177961042509361, 0.083565102920145, 85.130836829132903, 0.181394849484288, 0.982772503760710, -0.035413478118910, -39.198335086950102, -0.075823265938929, 0.049880589420008, 0.995872862940580, 1320.124847024128940, 0.000000000000000, 0.000000000000000, 0.000000000000000, 1.000000000000000
49, -0.461990011977403, 0.277245425535169, 0.000015819227990, -0.000002816306911, -0.000045252373195, -0.000046558730322, -0.000018425768141, 0.145178970336914, 27.079910717010499, 0.283920907974243, -10.269573307037353, 0.174314231872559, 1.455491069793701, -0.096287359237671, 0.955614360086444, -0.160231568582768, 0.247238830336339, 245.387748223759615, 0.193784835740852, 0.973944850039525, -0.117808601207123, -120.205976960105858, -0.221920328571915, 0.160490727180712, 0.961766132828319, 1286.176445913859880, 0.000000000000000, 0.000000000000000, 0.000000000000000, 1.000000000000000
50, -0.461999958936048, 0.461995884246747, 0.000016897732383, -0.000003715151475, -0.000045156554619, -0.000024148266420, -0.000018335883685, 0.216424205780029, 44.004686883926396, 0.456034202575684, -16.590665149688721, 0.294485406875610, 2.337263004302979, -0.098122993469238, 0.907065818823193, -0.124017688016498, 0.402307361828806, 397.831024357813533, 0.217700501051197, 0.956111860907984, -0.196103547324187, -197.119917228962208, -0.360330531824142, 0.265461338974463, 0.894255100821470, 1219.522861538334610, 0.000000000000000, 0.000000000000000, 0.000000000000000, 1.000000000000000
51, -0.462000947610526, 0.646785711259387, 0.000017946402555, -0.000089102657954, -0.000045108645331, 0.000006441519388, -0.000018156114772, 0.209030832290649, 59.456165351867675, 0.603056812286377, -22.316183366775512, 0.407613582611084, 3.132259502410888, -0.102461765289307, 0.836998666016840, -0.069621623695186, 0.542757830528566, 536.025108573650641, 0.251373029291441, 0.929943152409703, -0.268360454298224, -266.895313601342536, -0.486050237352966, 0.361052022290903, 0.795862176490864, 1122.597986296751287, 0.000000000000000, 0.000000000000000, 0.000000000000000, 1.000000000000000
52, -0.461999449572614, 0.831573201276161, 0.000018815194730, -0.000098060942120, -0.000044629290653, 0.000069628328724, -0.000018186058077, 0.282292442321777, 72.780368629455580, 0.720586862564087, -27.270933351516724, 0.509296884536743, 3.828966131210327, -0.104964902877808, 0.747681134218268, -0.002574402103142, 0.664052930110165, 655.687310946595289, 0.296563655894506, 0.896024958474054, -0.330437999924426, -327.611559332141042, -0.594157318844571, 0.443996223233240, 0.670704431339208, 998.877371826463218, 0.000000000000000, 0.000000000000000, 0.000000000000000, 1.000000000000000
53, -0.462002205992916, 1.016405122739608, 0.000019654098143, -0.000010935633124, -0.000044581294099, 0.000107348657183, -0.000018186058077, 0.291030065536499, 83.699709148406981, 0.830633726119995, -31.324619617462158, 0.588530626296997, 4.358630044937134, -0.105966157913208, 0.640275395249639, 0.078028657431292, 0.764172066263475, 752.768760785588825, 0.349814248975406, 0.856062150825149, -0.380509638693152, -377.162246830266952, -0.683869438892901, 0.510949236758497, 0.520819995779941, 852.939841617045772, 0.000000000000000, 0.000000000000000, 0.000000000000000, 1.000000000000000
54, -0.462005411780957, 1.201238901887877, 0.000020343230489, 0.000080743730760, -0.000044581294099, 0.000151420729656, -0.000018186058077, 0.279603942871094, 91.597176284790038, 0.909427280426025, -34.323616743087769, 0.644874620437622, 4.790170965194703, -0.105966157913208, 0.522921471024129, 0.166106696714090, 0.836039293603294, 823.755988084552882, 0.410242827970454, 0.810710715119442, -0.417670873403122, -413.360215915840001, -0.747163942679761, 0.561388191626130, 0.355793958720464, 689.535831635606314, 0.000000000000000, 0.000000000000000, 0.000000000000000, 1.000000000000000
55, -0.461993607301116, 1.386009464119879, 0.000020612883858, 0.000065973118401, -0.000044389482414, 0.000174729983581, -0.000018156114772, 0.228522453308105, 96.557457771301273, 0.956087150573731, -36.117380619049072, 0.684931678771973, 5.053167287826538, -0.108135543823242, 0.395792232400011, 0.262546666207615, 0.880010089053008, 866.838346369605006, 0.474025682967414, 0.762326521855707, -0.440633550654802, -435.525475589523182, -0.786541900129353, 0.591546720165574, 0.177269053143124, 514.439124065825581, 0.000000000000000, 0.000000000000000, 0.000000000000000, 1.000000000000000
56, -0.277189489205328, 0.092438820672450, 0.000015070154492, 0.000034095115982, -0.000045300369750, -0.000046109308040, -0.000018515598056, 0.016130996704102, 9.408403827667236, 0.089358053207397, -3.628465185165405, 0.049300994873047, 0.553694034576416, -0.090279829025269, 0.929720112602279, -0.356947870522404, 0.090602041656502, 91.196967413667110, 0.360040709841859, 0.932724293513019, -0.019901747340620, -23.334110645995477, -0.077402838961989, 0.051123478169632, 0.995688299871232, 1320.219599163873227, 0.000000000000000, 0.000000000000000, 0.000000000000000, 1.000000000000000
57, -0.277189878631917, 0.277243268362758, 0.000016058883512, 0.000013302463211, -0.000045156554619, -0.000043562654498, -0.000018455656905, 0.111572727203369, 27.155188701629640, 0.285241470336914, -10.282778930664062, 0.176074981689453, 1.491536251068115, -0.092616090774536, 0.903335971841619, -0.337132018315060, 0.265190731745609, 263.703127120975296, 0.366835037368896, 0.927625997316978, -0.070299818351414, -73.338759540655573, -0.222297497366746, 0.160785606720549, 0.961629768328740, 1286.090103478678884, 0.000000000000000, 0.000000000000000, 0.000000000000000, 1.000000000000000
58, -0.277197638474846, 0.461995974131204, 0.000017257270209, -0.000009886962952, -0.000045156554619, -0.000022710115118, -0.000018395770295, 0.176096714019775, 44.108194112777710, 0.456914577484131, -16.632923145294189, 0.295365781784058, 2.337096128463745, -0.098456745147705, 0.852028851026538, -0.297202513168759, 0.430949536703047, 426.980623685062994, 0.380090396996791, 0.917278149916832, -0.118878449670142, -120.837518169859678, -0.359969619730914, 0.265087649375311, 0.894511269364144, 1219.491017617474199, 0.000000000000000, 0.000000000000000, 0.000000000000000, 1.000000000000000
59, -0.277197878130369, 0.646813604511503, 0.000018156114772, -0.000089791790300, -0.000044916833647, 0.000009167887301, -0.000018216001382, 0.150555969238281, 59.573787202835078, 0.602176437377930, -22.361522674560547, 0.406293020248413, 3.138267032623291, -0.101961137771606, 0.776350005668775, -0.240113543584206, 0.582774531774965, 575.932385049198842, 0.401546257460652, 0.901097807715895, -0.163656176323879, -164.164663910087285, -0.485840788548509, 0.361065405594395, 0.795983982920208, 1122.483756039317313, 0.000000000000000, 0.000000000000000, 0.000000000000000, 1.000000000000000
60, -0.277196709686977, 0.831623804643395, 0.000019054904795, -0.000092548210601, -0.000044773105783, 0.000069808152178, -0.000018216001382, 0.301784063339233, 72.801876625061027, 0.722787799835205, -27.295143661499026, 0.507976322174072, 3.814447933197021, -0.104631151199341, 0.680047169693039, -0.166071073897716, 0.714112207854582, 704.872738151828457, 0.428213568603399, 0.880581194392782, -0.203002216110377, -201.702107338447462, -0.595120984889988, 0.443843619415939, 0.669950636127267, 998.771085959756533, 0.000000000000000, 0.000000000000000, 0.000000000000000, 1.000000000000000
61, -0.277202522015171, 1.016402186659478, 0.000019654098143, -0.000034095115982, -0.000044437478968, 0.000114898733352, -0.000018156114772, 0.293046440124512, 83.719872894287107, 0.829313163757324, -31.323739242553710, 0.583688564300537, 4.363970071792602, -0.106299909591675, 0.565964837622487, -0.081916144206320, 0.820349649779484, 809.240073333415353, 0.462518683185458, 0.855256712693238, -0.233693010373753, -232.689315998645327, -0.682466314391665, 0.511689066437349, 0.521932973674907, 852.619748197363151, 0.000000000000000, 0.000000000000000, 0.000000000000000, 1.000000000000000
62, -0.277200634441587, 1.201162921924221, 0.000020313232642, -0.000082361596434, -0.000044389482414, 0.000157113230088, -0.000018036232470, 0.334046056747436, 91.657667522430415, 0.905465593338013, -34.286200809478757, 0.649276494979858, 4.794509737014771, -0.107801792144775, 0.437654556731737, 0.014245357413024, 0.899030343628135, 886.276702530111493, 0.499615043306785, 0.827454548240905, -0.256327484084321, -255.379245382066159, -0.747558223467247, 0.561351975490970, 0.355022058665205, 688.838317737008083, 0.000000000000000, 0.000000000000000, 0.000000000000000, 1.000000000000000
63, -0.277199376113739, 1.385970964829160, 0.000020792598229, -0.000036791540590, -0.000044389482414, 0.000175389118080, -0.000018156114772, 0.300439813613892, 96.573588768005379, 0.958728275299072, -36.110777807235721, 0.685812053680420, 5.049329143524171, -0.106466785430908, 0.301408086590900, 0.117626345303090, 0.946212031327150, 932.314042918044947, 0.538988819619570, 0.797581758259831, -0.270840158056851, -269.145999389708891, -0.786539393586053, 0.591631119686748, 0.176998306645825, 514.082092185162310, 0.000000000000000, 0.000000000000000, 0.000000000000000, 1.000000000000000
64, -0.092389984941955, 0.092435824596626, 0.000015369751166, 0.000043263003283, -0.000045396275592, -0.000045420230236, -0.000018515598056, 0.011426122665405, 9.513255306243895, 0.094640302658081, -3.671603555679321, 0.053702869415283, 0.552525903701782, -0.090613580703735, 0.849541654897265, -0.519823867566342, 0.089789327332292, 94.569154509205148, 0.522111153347339, 0.852874218065575, -0.002347702993373, -6.412001983478103, -0.075358610289250, 0.048874480737942, 0.995958013667177, 1319.950903400723746, 0.000000000000000, 0.000000000000000, 0.000000000000000, 1.000000000000000
65, -0.092389925055345, 0.277229306765047, 0.000016238652425, 0.000078376846131, -0.000045252460462, -0.000042004675435, -0.000018335883685, 0.075950109481812, 27.188122819900514, 0.281279783248901, -10.314032239913940, 0.177395544052124, 1.491870002746582, -0.095786731719971, 0.821554959128810, -0.500486690535251, 0.273057725999341, 273.361037058052034, 0.525144827132489, 0.850762159760353, -0.020655702744957, -23.982886554807081, -0.221969276402947, 0.160364647341524, 0.961775867973501, 1285.895570710954189, 0.000000000000000, 0.000000000000000, 0.000000000000000, 1.000000000000000
66, -0.092397594959275, 0.461995734475681, 0.000017317211360, -0.000005812382735, -0.000045060648777, -0.000021152136055, -0.000018305940380, 0.123670974731445, 44.149865854263304, 0.451192140579224, -16.647889518737792, 0.302408781051636, 2.344939292907715, -0.099958627700806, 0.767205284787149, -0.460790178866938, 0.446170888846914, 442.200307530907253, 0.530507937422892, 0.846844165197312, -0.037633604698137, -40.689035976003247, -0.360496018460646, 0.265569898390316, 0.894156166305964, 1219.398980452818478, 0.000000000000000, 0.000000000000000, 0.000000000000000, 1.000000000000000
67, -0.092401759423949, 0.646774895454025, 0.000018335883685, -0.000092937691732, -0.000044868924359, 0.000010186559626, -0.000018216055924, 0.104851478576660, 59.628229316711426, 0.606138124465942, -22.366804924011230, 0.404532270431519, 3.140102666854858, -0.102628641128540, 0.688293967650630, -0.402542891151675, 0.603498661870102, 596.448001129559657, 0.538374470119416, 0.841035140585482, -0.053036046458962, -56.154468484043015, -0.486214298452227, 0.361412663147835, 0.795598229571307, 1122.415742147318269, 0.000000000000000, 0.000000000000000, 0.000000000000000, 1.000000000000000
68, -0.092401609652883, 0.831629107662697, 0.000019144789251, -0.000082721134259, -0.000044581294099, 0.000069868038788, -0.000018245999229, 0.250702573776245, 72.839515617370608, 0.726309299468994, -27.307468910217285, 0.511057634353638, 3.811611043930054, -0.104297399520874, 0.589019595706720, -0.326851314378959, 0.739069776247303, 729.891129809394556, 0.547203645508497, 0.834302370518399, -0.067139592563496, -69.388477694430250, -0.594663002225381, 0.443968211515338, 0.670274675747316, 998.682108882507009, 0.000000000000000, 0.000000000000000, 0.000000000000000, 1.000000000000000
69, -0.092401609652883, 1.016377109659730, 0.000019893808207, -0.000043412828891, -0.000044581294099, 0.000109386001833, -0.000018245999229, 0.222473329544067, 83.783724756240844, 0.831073913574219, -31.347949552536008, 0.588970813751221, 4.362635065078736, -0.105799282073975, 0.470499543710327, -0.237721389125073, 0.849775688355945, 838.229133049348775, 0.558752549704482, 0.825620070779581, -0.078403360416885, -80.544466534574525, -0.682953708216827, 0.511703077847266, 0.521281298872807, 852.565798279307387, 0.000000000000000, 0.000000000000000, 0.000000000000000, 1.000000000000000
70, -0.092403077692948, 1.201192043560880, 0.000020612883858, -0.000099678807794, -0.000044437478968, 0.000160528675806, -0.000018096173621, 0.262800821304321, 91.652290523529047, 0.905905780792236, -34.301607370376587, 0.649716682434082, 4.794342861175537, -0.107134288787842, 0.337199675483902, -0.138574966385034, 0.931178477814504, 918.356461324958445, 0.572102349389549, 0.815683862853507, -0.085783085181987, -88.714226605336577, -0.747659869644285, 0.561655423344036, 0.354327397687114, 688.529721355258062, 0.000000000000000, 0.000000000000000, 0.000000000000000, 1.000000000000000
71, -0.092403407287469, 1.386035739560864, 0.000020912425990, 0.000001018672325, -0.000044245754550, 0.000178415137209, -0.000018096173621, 0.239948575973511, 96.582326391220093, 0.958728275299072, -36.099332933425899, 0.687132616043091, 5.057506059646606, -0.106633661270142, 0.195623527251991, -0.031330757694626, 0.980178462938138, 966.464353512146772, 0.586214577651956, 0.804998844952374, -0.091265155309581, -93.893367864784892, -0.786183124045428, 0.592448515271685, 0.175843260372833, 513.239613836782496, 0.000000000000000, 0.000000000000000, 0.000000000000000, 1.000000000000000
72, 0.092409579208029, 0.092374345537419, 0.000015609461230, 0.000085777042151, -0.000045204463907, -0.000042304272109, -0.000018515598056, -0.025540744781494, 9.562992546081542, 0.089358053207397, -3.689211053848267, 0.049741182327271, 0.566877225875855, -0.091447959899902, 0.738294763640416, -0.668423521837644, 0.090171156337842, 94.313059879463864, 0.670132686037280, 0.742104572476216, 0.014247337096879, 10.647904012152727, -0.076439682662885, 0.049907904825320, 0.995824370032359, 1320.000703730403529, 0.000000000000000, 0.000000000000000, 0.000000000000000, 1.000000000000000
73, 0.092409489323573, 0.277237485977870, 0.000016717963470, -0.000005992151648, -0.000045156554619, -0.000040147154239, -0.000018395770295, 0.010081872940063, 27.325236291885375, 0.278638658523560, -10.343524799346923, 0.173874044418335, 1.472679281234741, -0.095452980041504, 0.711266589841209, -0.647596338320702, 0.273347436002749, 273.615173955803300, 0.666624953457845, 0.744792789808035, 0.029914405848844, 26.348093843769501, -0.222959659138111, 0.160943104367920, 0.961450106637590, 1285.817940051052346, 0.000000000000000, 0.000000000000000, 0.000000000000000, 1.000000000000000
74, 0.092403107636253, 0.462007509012217, 0.000017676694644, 0.000000179768913, -0.000045060736044, -0.000019114845946, -0.000018335883685, 0.031589868545532, 44.229176588058472, 0.447670640945435, -16.672099828720093, 0.295365781784058, 2.376145074844360, -0.099624876022339, 0.656493458748566, -0.608097699462429, 0.446355829500239, 443.250067509388884, 0.662282293432850, 0.747910874081876, 0.044849618007394, 40.876144082570207, -0.361107328125129, 0.266170081599314, 0.893730935592891, 1219.082168223850431, 0.000000000000000, 0.000000000000000, 0.000000000000000, 1.000000000000000
75, 0.092402089018470, 0.646751286548884, 0.000018515598056, -0.000091589424886, -0.000044868924359, 0.000010186559626, -0.000018216055924, 0.078638608932495, 59.604032821655274, 0.596894187927246, -22.362843236923219, 0.409814519882202, 3.138433908462524, -0.103796772003174, 0.578182743482619, -0.548938107818654, 0.603632064194231, 597.370936281903937, 0.654906940363205, 0.753486761899155, 0.057918901118997, 54.221926020324744, -0.486622661415411, 0.361835119118089, 0.795156419812970, 1122.064353515234643, 0.000000000000000, 0.000000000000000, 0.000000000000000, 1.000000000000000
76, 0.092402628325208, 0.831610292413425, 0.000019444440467, -0.000087185250148, -0.000044725109229, 0.000072025156658, -0.000018096173621, 0.155260843276978, 72.905383853912355, 0.726309299468994, -27.333880157470702, 0.506655759811401, 3.814281057357788, -0.105966157913208, 0.477518562309577, -0.474271457793718, 0.739623287202354, 730.950916175304883, 0.646305288154192, 0.759863340320242, 0.069979843821571, 65.568581520174988, -0.595202064137652, 0.444605767348543, 0.669373001014152, 998.251506478543888, 0.000000000000000, 0.000000000000000, 0.000000000000000, 1.000000000000000
77, 0.092402148905079, 1.016348377449660, 0.000020043633815, -0.000019294614859, -0.000044629203387, 0.000107858075158, -0.000018096173621, 0.170719715118408, 83.808593376159678, 0.828872976303101, -31.358073863983151, 0.586769876480103, 4.367140712738037, -0.106967412948608, 0.359344302813905, -0.385404887397854, 0.849902785502575, 839.362646150095088, 0.635950308580935, 0.767652842196227, 0.079223221872558, 74.585356582225756, -0.682963305786630, 0.512027525273693, 0.520950032451382, 852.042083733397249, 0.000000000000000, 0.000000000000000, 0.000000000000000, 1.000000000000000
78, 0.092396036980212, 1.201233748694183, 0.000020612883858, -0.000027443884376, -0.000044437478968, 0.000161876942651, -0.000018036232470, 0.070573110580444, 91.683880392074585, 0.908106718063354, -34.329339179992672, 0.644434432983398, 4.796178495407105, -0.109804302215576, 0.226173098099046, -0.285902009494969, 0.931185143063944, 918.990963773096155, 0.624414662402099, 0.776269063790118, 0.086675659672631, 81.238912143630174, -0.747630964496223, 0.561841954262186, 0.354092585854740, 688.433116263638226, 0.000000000000000, 0.000000000000000, 0.000000000000000, 1.000000000000000
79, 0.092394688767908, 1.386037657023212, 0.000020972367142, -0.000065703465032, -0.000044485475523, 0.000179224042775, -0.000018036232470, 0.157277217864990, 96.591736139297495, 0.958728275299072, -36.102854433059690, 0.680969991683960, 5.066517354965210, -0.109637426376343, 0.086174593854850, -0.178624575429263, 0.980136317267485, 967.362518229634361, 0.612446019165987, 0.785452612493396, 0.089297632303634, 85.143840007675308, -0.785801382654477, 0.592585398554516, 0.177083970020716, 512.642247117948273, 0.000000000000000, 0.000000000000000, 0.000000000000000, 1.000000000000000
80, 0.277209203244623, 0.092356668788234, 0.000015699345687, -0.000098030998816, -0.000045156554619, -0.000042723805628, -0.000018455656905, -0.097458105087280, 9.698761768341065, 0.094200115203857, -3.657077369689941, 0.051501932144165, 0.556864675521851, -0.092282339096069, 0.602943800815998, -0.793101484685366, 0.086306477436089, 90.861969011906226, 0.794098727770332, 0.607022388139247, 0.030512798155280, 27.449442285653113, -0.076589709563998, 0.050138361437061, 0.995801265866493, 1319.963664727277546, 0.000000000000000, 0.000000000000000, 0.000000000000000, 1.000000000000000
81, 0.277208723824494, 0.277238984015782, 0.000016777904622, -0.000007070710583, -0.000045156554619, -0.000041645192151, -0.000018425713600, -0.099474479675293, 27.408579774856566, 0.283480720520020, -10.395026731491090, 0.178275918960571, 1.471678026199341, -0.097288614273071, 0.575803746272070, -0.773973119372055, 0.263468510962015, 264.359800076771592, 0.786612041066611, 0.612297379124772, 0.079582764251787, 75.651689347190668, -0.222915999040154, 0.161423449369745, 0.961379699892557, 1285.768401022537546, 0.000000000000000, 0.000000000000000, 0.000000000000000, 1.000000000000000
82, 0.277205607920909, 0.461995344994551, 0.000017676694644, -0.000014021538862, -0.000045012739489, -0.000019054904795, -0.000018425713600, -0.068556735992432, 44.272192579269415, 0.451192140579224, -16.697630701065062, 0.294045219421387, 2.354618091583252, -0.099624876022339, 0.523215531093569, -0.735552475830323, 0.430358064084265, 428.584222995945254, 0.772008232621085, 0.622964954424244, 0.126166375569989, 121.131779387839032, -0.360899981695404, 0.266227761247922, 0.893797506347593, 1218.873637492083390, 0.000000000000000, 0.000000000000000, 0.000000000000000, 1.000000000000000
83, 0.277194372745653, 0.646752964301168, 0.000018695421511, -0.000099379211120, -0.000044725109229, 0.000010965576429, -0.000018216055924, -0.029573493957520, 59.761982164382935, 0.596013813018799, -22.414785356521605, 0.410694894790649, 3.150448968887329, -0.104964902877808, 0.448719325530715, -0.678784650047763, 0.581293700081805, 577.692408332571858, 0.750137352991340, 0.639626371588396, 0.167845334805020, 162.634241851560802, -0.485741617058293, 0.360734672062722, 0.796194434688786, 1121.617707760329495, 0.000000000000000, 0.000000000000000, 0.000000000000000, 1.000000000000000
84, 0.277202342246258, 0.831610711837860, 0.000019474383772, -0.000099529036727, -0.000044725109229, 0.000073193654591, -0.000018216055924, 0.026884994506836, 72.951088344573975, 0.732031736373901, -27.347085781097412, 0.510177259445190, 3.828966131210327, -0.105465530395508, 0.350917241640311, -0.606699482898942, 0.713283132402352, 706.709198546767652, 0.723692698684937, 0.659103259872318, 0.204577053199513, 198.333233583133733, -0.594244030167463, 0.444408179803027, 0.670354683980422, 997.905575573044075, 0.000000000000000, 0.000000000000000, 0.000000000000000, 1.000000000000000
85, 0.277203091210672, 1.016358384349457, 0.000020223402727, -0.000051052789516, -0.000044533384811, 0.000105640961595, -0.000018156114772, 0.063179737091064, 83.863035490036012, 0.836796350479126, -31.379202861785888, 0.588090438842773, 4.379990152359008, -0.108135543823242, 0.235780094483499, -0.520062907950875, 0.820939899638842, 811.605203938015052, 0.691435715387753, 0.683377707145633, 0.234332159258187, 227.111460873321278, -0.682879490489778, 0.512376308146715, 0.520716929164362, 851.763123710961167, 0.000000000000000, 0.000000000000000, 0.000000000000000, 1.000000000000000
86, 0.277200065246085, 1.201228715273709, 0.000020762654924, -0.000090540809256, -0.000044341573126, 0.000164393652888, -0.000018216055924, 0.040999616622925, 91.760502626419068, 0.907666530609131, -34.340784053802487, 0.644434432983398, 4.787834703445435, -0.108135543823242, 0.107516543377491, -0.423438997323763, 0.899521877691478, 888.269458442282826, 0.655483109608213, 0.710462944246614, 0.256094314405415, 248.473008228752889, -0.747517281351076, 0.562087022086330, 0.353943630658355, 688.379520990152287, 0.000000000000000, 0.000000000000000, 0.000000000000000, 1.000000000000000
87, 0.277203001380757, 1.386035649676408, 0.000021062251598, 0.000004793655868, -0.000044293663838, 0.000179883231816, -0.000018156114772, 0.009409748077393, 96.607867136001587, 0.956967525482178, -36.144672241210941, 0.684491491317749, 5.080034297943115, -0.110638681411743, -0.029458768209236, -0.319724444570174, 0.947052512018150, 935.228062407122479, 0.617459765320582, 0.739257119858845, 0.268779368531622, 261.035328519476025, -0.786050646705317, 0.592684730933992, 0.175639376370604, 512.673661324519230, 0.000000000000000, 0.000000000000000, 0.000000000000000, 1.000000000000000
88, 0.462007748667740, 0.092378240403265, 0.000015849171295, 0.000042214442194, -0.000045252460462, -0.000042514038868, -0.000018575539208, -0.122326725006104, 9.714892765045166, 0.084956178665161, -3.742033548355102, 0.048420619964600, 0.578558534622192, -0.093450469970703, 0.447723425805039, -0.890585080746522, 0.080012173680701, 84.801745444055328, 0.890674615037990, 0.452089793059029, 0.048099367342757, 43.028865989454317, -0.079009265990317, 0.049729598465657, 0.995632714872365, 1320.136107585982018, 0.000000000000000, 0.000000000000000, 0.000000000000000, 1.000000000000000
89, 0.462008527630001, 0.277213128053774, 0.000016957728076, -0.000014081425472, -0.000045108645331, -0.000040536689911, -0.000018365826990, -0.143834720611572, 27.460333389282226, 0.278638658523560, -10.416155729293823, 0.176515169143677, 1.485862472534180, -0.096787986755371, 0.421311614369128, -0.873455467160142, 0.244073903737652, 246.416309950799956, 0.878586559978243, 0.459832409149577, 0.128995395736803, 122.244979375410779, -0.224904824811024, 0.160092793041267, 0.961138968824472, 1285.780512660370960, 0.000000000000000, 0.000000000000000, 0.000000000000000, 1.000000000000000
90, 0.462002595474046, 0.461990641223139, 0.000017856463557, -0.000004194462520, -0.000045060736044, -0.000019564268228, -0.000018395770295, -0.135769222259521, 44.352175437927244, 0.449871578216553, -16.733285884857178, 0.300207843780518, 2.349444940567016, -0.099958627700806, 0.373139400949810, -0.837304790285217, 0.399609403823591, 399.306906116365440, 0.854858225442317, 0.477663688714888, 0.202619877793121, 197.434387933718881, -0.360533496158719, 0.266003926002449, 0.894012029840122, 1218.733488593725951, 0.000000000000000, 0.000000000000000, 0.000000000000000, 1.000000000000000
91, 0.461999120032635, 0.646751376433341, 0.000018755308120, -0.000098600194317, -0.000044773105783, 0.000009587366278, -0.000018395770295, -0.118966100692749, 59.714261299133298, 0.600855875015259, -22.399818983078003, 0.408493957519531, 3.150782720565796, -0.103629896163940, 0.300384836746105, -0.784752764779658, 0.542155003687782, 538.387725045427487, 0.820517988328198, 0.502420375397298, 0.272624278477698, 265.370469474644722, -0.486332376757771, 0.362955733604418, 0.794823222333631, 1121.722078340020516, 0.000000000000000, 0.000000000000000, 0.000000000000000, 1.000000000000000
92, 0.461998221242613, 0.831567868259013, 0.000019624154838, -0.000099858522165, -0.000044773105783, 0.000071455961157, -0.000018156114772, -0.040327491760254, 72.992760086059576, 0.725869112014770, -27.365133466720579, 0.503574447631836, 3.839979936599732, -0.106299909591675, 0.210788019743109, -0.717005840134210, 0.664432867900298, 658.555280465388137, 0.775884871940027, 0.536171294004713, 0.332450009745706, 324.351147800278511, -0.594618429101712, 0.445446931405693, 0.669332469759136, 997.894889539972041, 0.000000000000000, 0.000000000000000, 0.000000000000000, 1.000000000000000
93, 0.461999419629309, 1.016351852891071, 0.000020373228335, -0.000046678503542, -0.000044485388256, 0.000100997076793, -0.000018216055924, -0.026884994506836, 83.907395730972297, 0.830633726119995, -31.414417858123777, 0.584128751754761, 4.385997682571411, -0.105966157913208, 0.104712367747977, -0.636667156409151, 0.763996238204416, 756.220886425070489, 0.723106346000857, 0.576145742805559, 0.381016135380537, 372.080887417360543, -0.682753639619666, 0.512553426480516, 0.520707645986864, 851.585508948662891, 0.000000000000000, 0.000000000000000, 0.000000000000000, 1.000000000000000
94, 0.461997502166962, 1.201241897909159, 0.000020852539381, -0.000087934214563, -0.000044389569680, 0.000165621982890, -0.000018096228162, -0.017475246429443, 91.730929132461540, 0.902824468612671, -34.343865365982055, 0.650597057342529, 4.784330310821533, -0.107634916305542, -0.014777076446442, -0.547287870643666, 0.836813972551856, 827.665510856987908, 0.664116938150108, 0.620268456447549, 0.417391584005117, 407.200379727253733, -0.747482662323229, 0.561910160597312, 0.354297390540322, 688.035092724258561, 0.000000000000000, 0.000000000000000, 0.000000000000000, 1.000000000000000
95, 0.461998520839287, 1.386018452292809, 0.000021152136055, 0.000003894920388, -0.000044341573126, 0.000179583580600, -0.000018096228162, -0.071245235443115, 96.605178636550903, 0.954766588211060, -36.151715240478516, 0.682290554046631, 5.077698036193848, -0.108803047180176, -0.142657390217985, -0.450719951131943, 0.881192597942024, 871.543711900343169, 0.601503628591991, 0.667552966892109, 0.438823906805692, 427.905585105158082, -0.786029422990552, 0.592642018460692, 0.175878321995567, 512.416273970543102, 0.000000000000000, 0.000000000000000, 0.000000000000000, 1.000000000000000
96, 0.646808271548897, 0.092374705075245, 0.000015998887819, 0.000034334771504, -0.000045300369750, -0.000041884902215, -0.000018455711446, -0.135097097396851, 9.769334878921509, 0.087157115936279, -3.771526107788086, 0.047540245056152, 0.578892286300659, -0.093951097488403, 0.275834450476347, -0.958642752546953, 0.070138640702630, 75.813150122753939, 0.957953170238123, 0.280165687059113, 0.061910511429207, 57.424958194879423, -0.079000503549929, 0.050112481318492, 0.995614212260433, 1320.128618856969069, 0.000000000000000, 0.000000000000000, 0.000000000000000, 1.000000000000000
97, 0.646808241605592, 0.277151738824482, 0.000016897732383, -0.000006441519388, -0.000045156554619, -0.000039697731957, -0.000018395770295, -0.100146604537964, 27.512087003707883, 0.285681657791138, -10.432002477645874, 0.174754419326782, 1.480021818161011, -0.098289869308472, 0.253374423900598, -0.942719191690943, 0.216983701993064, 220.118423905638679, 0.940825514365765, 0.292326174981429, 0.171443165332189, 165.134217967015758, -0.225052777879841, 0.160704489788874, 0.961002244602095, 1285.811710755112472, 0.000000000000000, 0.000000000000000, 0.000000000000000, 1.000000000000000
98, 0.646807013221049, 0.461980244896754, 0.000017976345860, -0.000011684597538, -0.000045156554619, -0.000018695366969, -0.000018335883685, -0.131736473083496, 44.409306051254269, 0.448991203308105, -16.756175632476808, 0.298447093963623, 2.355619346618652, -0.100959882736206, 0.209181251846458, -0.910844425280240, 0.355816858526769, 356.634770185316654, 0.908035115533597, 0.315970481996782, 0.275017969348566, 266.804821733255494, -0.362926208524317, 0.265565599132552, 0.893173823913091, 1218.918797402217933, 0.000000000000000, 0.000000000000000, 0.000000000000000, 1.000000000000000
99, 0.646805844723116, 0.646756679398101, 0.000018935077033, -0.000087514790127, -0.000044821015071, 0.000010096729711, -0.000018186058077, -0.119638225555420, 59.850030521392824, 0.597334375381470, -22.458363914489745, 0.407173395156860, 3.146610824584961, -0.103963647842407, 0.145317710503945, -0.863374553559609, 0.483184378141137, 480.663955051973176, 0.861553014196941, 0.350528655588882, 0.367227538917244, 359.555850877465105, -0.486424882938832, 0.362924292210919, 0.794780970696422, 1121.574193025722025, 0.000000000000000, 0.000000000000000, 0.000000000000000, 1.000000000000000
100, 0.646805934607573, 0.831555404699214, 0.000019773925904, -0.000099708805640, -0.000044725109229, 0.000072204980113, -0.000018126171467, -0.055786363601685, 73.025694204330449, 0.721467237472534, -27.383621339797973, 0.508416509628296, 3.839813060760498, -0.106800537109375, 0.064260301867744, -0.802945068573523, 0.592578965587986, 587.959761215408321, 0.801315835156343, 0.395433049007200, 0.448916067968794, 439.522532378314793, -0.594780250118949, 0.445995426665263, 0.668823245306344, 997.788514624807931, 0.000000000000000, 0.000000000000000, 0.000000000000000, 1.000000000000000
101, 0.646806234204247, 1.016351193756571, 0.000020373228335, -0.000039907498717, -0.000044389482414, 0.000099888465470, -0.000018126171467, -0.063851861953735, 83.918149728775035, 0.824030914306641, -31.423661794662472, 0.585009126663208, 4.378988897323609, -0.108636171340942, -0.030912916317761, -0.731270025756682, 0.681387218132651, 675.144433470434478, 0.730186189893548, 0.449002564638792, 0.514999830132526, 504.346943131048761, -0.682548547499352, 0.513459683302992, 0.520083295183489, 851.499667481880010, 0.000000000000000, 0.000000000000000, 0.000000000000000, 1.000000000000000
102, 0.646804256800748, 1.201159326655049, 0.000020912425990, -0.000092368441689, -0.000044389482414, 0.000165921579564, -0.000018186058077, -0.048392990112305, 91.796797369003286, 0.906786155700684, -34.355310239791869, 0.644874620437622, 4.784163434982300, -0.110304929733276, -0.136294446565568, -0.651429816912979, 0.746366543644682, 739.185287283435514, 0.650344560878939, 0.509491691427381, 0.563444911683162, 552.140040169106214, -0.747312368404649, 0.562189834489374, 0.354212950110869, 687.547127792219499, 0.000000000000000, 0.000000000000000, 0.000000000000000, 1.000000000000000
103, 0.646800032340382, 1.386043858887077, 0.000021152136055, 0.000028043077724, -0.000044389482414, 0.000178804618339, -0.000018126171467, -0.065196111679077, 96.671718997955324, 0.952125463485718, -36.170643301010131, 0.682290554046631, 5.072024257659912, -0.109804302215576, -0.251583083499043, -0.566800184748519, 0.784502073079580, 778.030974318398648, 0.564746259473988, 0.572296086104690, 0.594591332126017, 580.359099410852650, -0.785981942863354, 0.592633732079349, 0.176118270189240, 512.174259427943525, 0.000000000000000, 0.000000000000000, 0.000000000000000, 1.000000000000000
104, 0.831607715816578, 0.092381506132458, 0.000016058828971, 0.000035832809416, -0.000045204463907, -0.000042274383346, -0.000018455711446, -0.161309967041016, 9.808318120956422, 0.089798240661621, -3.792655105590820, 0.053262681961060, 0.580561044692993, -0.093283594131470, 0.097987971104891, -0.993473813392994, 0.058379273900322, 64.433883421922459, 0.992200957579719, 0.102066980946016, 0.071551318495569, 70.264616967915856, -0.077042957475916, 0.050912802937448, 0.995727005358606, 1320.220844422785603, 0.000000000000000, 0.000000000000000, 0.000000000000000, 1.000000000000000
105, 0.831607865642186, 0.277209233133386, 0.000017017614686, -0.000068669652092, -0.000045156554619, -0.000039667788652, -0.000018335883685, -0.092081106185913, 27.559135744094849, 0.279519033432007, -10.454011850357055, 0.178275918960571, 1.493705636978149, -0.099291124343872, 0.075125351149112, -0.980348327868475, 0.182409806918946, 186.477857444712157, 0.971470228621520, 0.113219605504171, 0.208391256610087, 202.331318044995328, -0.224948386339564, 0.161550230501118, 0.960884876823578, 1285.774557441915249, 0.000000000000000, 0.000000000000000, 0.000000000000000, 1.000000000000000
106, 0.831594682952194, 0.461986926071664, 0.000018036232470, 0.000049944287276, -0.000044964830201, -0.000019833867055, -0.000018395770295, -0.105523603439331, 44.398552053451539, 0.447670640945435, -16.747371883392333, 0.299767656326294, 2.376645702362061, -0.100459255218506, 0.038349746616588, -0.953575227575617, 0.298703167523470, 301.755322607973710, 0.931373453395679, 0.142411606925959, 0.335055852840349, 327.256725611903676, -0.362039759203670, 0.265354893617730, 0.893596101820544, 1218.802599143075440, 0.000000000000000, 0.000000000000000, 0.000000000000000, 1.000000000000000
107, 0.831593844103323, 0.646765697623419, 0.000018995018185, -0.000091259884907, -0.000044868924359, 0.000010306441929, -0.000018275997075, -0.109556352615356, 59.836588024139402, 0.599535312652588, -22.453962039947509, 0.408053770065308, 3.148947086334228, -0.104798027038574, -0.015545362971995, -0.913670992628453, 0.406157184990500, 406.160945302914058, 0.873291685744996, 0.185419247007490, 0.450534498621180, 441.270121029593327, -0.486949661976196, 0.361697415070268, 0.795018871872080, 1121.654118779091277, 0.000000000000000, 0.000000000000000, 0.000000000000000, 1.000000000000000
108, 0.831601424122798, 0.831615056180529, 0.000019893808207, -0.000068969194225, -0.000044725109229, 0.000071396020005, -0.000018245999229, -0.055786363601685, 73.129201433181763, 0.725428924560547, -27.426319522857668, 0.509296884536743, 3.848824356079102, -0.105799282073975, -0.083237629593839, -0.862692160872685, 0.498832369226794, 497.687367029463758, 0.799085502337929, 0.241309309755163, 0.550665213154805, 539.585835928944789, -0.595427457355586, 0.444445781388804, 0.669278783790998, 997.606586174668337, 0.000000000000000, 0.000000000000000, 0.000000000000000, 1.000000000000000
109, 0.831602322912820, 1.016348916756398, 0.000020493001555, 0.000006411576083, -0.000044437478968, 0.000099588923337, -0.000018156114772, -0.068556735992432, 83.951083847045908, 0.824471101760864, -31.438187980651854, 0.588530626296997, 4.361466934204102, -0.108636171340942, -0.161758630474044, -0.802788950060089, 0.573902471791663, 571.554101454775150, 0.711630759875401, 0.308013025329537, 0.631434587131958, 619.310596960742032, -0.683678145815940, 0.510546646143881, 0.521465545405364, 851.008983872028239, 0.000000000000000, 0.000000000000000, 0.000000000000000, 1.000000000000000
110, 0.831599866198276, 1.201221674560973, 0.000020972367142, -0.000018935077033, -0.000044341573126, 0.000164633253869, -0.000017976345860, -0.062507612228394, 91.839813360214237, 0.909867467880249, -34.386563549041753, 0.654998931884766, 4.799015384674073, -0.110304929733276, -0.253362562101881, -0.733662727964015, 0.630512818047000, 625.342649087408290, 0.614357119594163, 0.381433417369880, 0.690705347972273, 678.166044572214673, -0.747243428695853, 0.562358915382280, 0.354089972409459, 687.472273158960888, 0.000000000000000, 0.000000000000000, 0.000000000000000, 1.000000000000000
111, 0.831592735546542, 1.385955505193537, 0.000021331959509, -0.000069358675355, -0.000044293663838, 0.000177366521579, -0.000018156114772, -0.086704107284546, 96.628703006744388, 0.953446025848389, -36.125744180679320, 0.689333553314209, 5.066851106643677, -0.109303674697876, -0.351222957193235, -0.659527883294626, 0.664579119065103, 658.079068510857155, 0.510463365911785, 0.460147019277649, 0.726424030929530, 713.406399292144556, -0.784901004205276, 0.594380090351961, 0.175050626364901, 512.387675215086006, 0.000000000000000, 0.000000000000000, 0.000000000000000, 1.000000000000000
112, 1.016407519622084, 0.092373027322962, 0.000016328482340, -0.000087814441343, -0.000045204463907, -0.000044820982346, -0.000018455711446, -0.197604709625244, 9.895694353103638, 0.091558990478516, -3.772406482696534, 0.054143056869507, 0.569714115142822, -0.093784221649170, -0.087119715953566, -0.995207892067947, 0.044400525423051, 50.830057995066518, 0.993318508388811, -0.083395351494740, 0.079771901326828, 80.538230623267737, -0.075686828341518, 0.051053569069574, 0.995823798219776, 1320.226659502269740, 0.000000000000000, 0.000000000000000, 0.000000000000000, 1.000000000000000
113, 1.016407339853171, 0.277241231072649, 0.000017257270209, -0.000003415500259, -0.000045156554619, -0.000041884847674, -0.000018395770295, -0.079982858657837, 27.600135360717772, 0.280399408340454, -10.471619348526001, 0.178275918960571, 1.483025583267212, -0.097455490112305, -0.101054611011688, -0.984530152592067, 0.143137501132019, 146.337188808851408, 0.969861264458077, -0.065425308296108, 0.234709728682345, 233.144194981841878, -0.221713989854175, 0.162542018171923, 0.961469187770227, 1285.907814511902870, 0.000000000000000, 0.000000000000000, 0.000000000000000, 1.000000000000000
114, 1.016395834970005, 0.461984499300425, 0.000018186058077, -0.000002486766932, -0.000045012739489, -0.000020912480532, -0.000018395770295, -0.056458488464355, 44.474502162933348, 0.452952890396118, -16.773783130645754, 0.299767656326294, 2.352615581512451, -0.100125503540039, -0.132339510633804, -0.963378641084684, 0.233212023332918, 236.780584932450864, 0.923230437285278, -0.034175605037194, 0.382723905302996, 377.049993093785190, -0.360737873802073, 0.265957932617491, 0.893943266926146, 1218.707969118149776, 0.000000000000000, 0.000000000000000, 0.000000000000000, 1.000000000000000
115, 1.016399130697044, 0.646785531490474, 0.000018995018185, -0.000024477751857, -0.000044821015071, 0.000009227882994, -0.000018305885839, -0.055786363601685, 59.833899524688718, 0.599095125198364, -22.466727476119996, 0.413336019515991, 3.159627140045166, -0.104464275360107, -0.173747071977842, -0.932125780978798, 0.317731779042940, 319.069938233961579, 0.856348203502572, 0.016313711919732, 0.516141082613385, 508.215287853577081, -0.486291794437295, 0.361767040010647, 0.795389778300483, 1121.504789950261056, 0.000000000000000, 0.000000000000000, 0.000000000000000, 1.000000000000000
116, 1.016404074178520, 0.831572632026117, 0.000019953694817, -0.000043562654498, -0.000044629203387, 0.000072864114612, -0.000018275942534, 0.003360624313354, 73.148693054199214, 0.723668174743652, -27.476500892639159, 0.513698759078979, 3.823959856033325, -0.106299909591675, -0.226798500886271, -0.892140222763964, 0.390702268898461, 390.260580845940410, 0.771035961186239, 0.080619810248613, 0.631667628387818, 621.705602529537941, -0.595034441484990, 0.444506770614512, 0.669587742065597, 997.600805358969978, 0.000000000000000, 0.000000000000000, 0.000000000000000, 1.000000000000000
117, 1.016404583432870, 1.016407339853171, 0.000020522999402, 0.000003445443564, -0.000044485475523, 0.000098090885425, -0.000018156114772, -0.061163362503052, 83.965870594024665, 0.822270164489746, -31.471202039718627, 0.588090438842773, 4.373148242950439, -0.108969923019409, -0.290559648843101, -0.844743697862287, 0.449425383557854, 448.229272658077150, 0.670231665902615, 0.155540814672686, 0.725669738236591, 713.637677496909305, -0.682908928397909, 0.512069467838991, 0.520980091386910, 851.176624853590397, 0.000000000000000, 0.000000000000000, 0.000000000000000, 1.000000000000000
118, 1.016396673927958, 1.201161843310745, 0.000021032308293, -0.000059981075836, -0.000044437478968, 0.000163225154955, -0.000017976345860, -0.068556735992432, 91.827715112686150, 0.904145030975342, -34.388764486312866, 0.649716682434082, 4.790504716873169, -0.110304929733276, -0.365224263148025, -0.789081583389665, 0.493924581655176, 490.242528328284379, 0.557798678422256, 0.239287165725261, 0.794734098091655, 781.135576991374933, -0.745299853722223, 0.565766654261658, 0.352755185599308, 687.777710835642552, 0.000000000000000, 0.000000000000000, 0.000000000000000, 1.000000000000000
119, 1.016396613986807, 1.385956703634775, 0.000021391846119, -0.000035053847155, -0.000044389482414, 0.000176767273689, -0.000018096228162, -0.146523220062256, 96.644834003448494, 0.958728275299072, -36.166241426467892, 0.685371866226196, 5.080868677139282, -0.110638681411743, -0.440044247132472, -0.731684223696779, 0.520575890105235, 515.908646504295461, 0.438043615173768, 0.331159683579615, 0.835733842306835, 821.969625821875411, -0.783887014671829, 0.595794814315039, 0.174784688872329, 512.421984226044060, 0.000000000000000, 0.000000000000000, 0.000000000000000, 1.000000000000000
120, 1.201206904003155, 0.092397714787037, 0.000016598190251, 0.000010606038603, -0.000045156554619, -0.000044641213433, -0.000018515652598, -0.201637458801270, 9.914513849258423, 0.091558990478516, -3.811142978668212, 0.057664556503296, 0.577891031265259, -0.094117973327637, -0.269642879656214, -0.962511165496090, 0.029410436006004, 35.590342505033462, 0.960050592005370, -0.266330178548399, 0.085855091779790, 87.989857372187629, -0.074803597780074, 0.051385720679351, 0.995873450529444, 1320.224586674658212, 0.000000000000000, 0.000000000000000, 0.000000000000000, 1.000000000000000
121, 1.201206544465329, 0.277215135400577, 0.000017466982426, -0.000015579463384, -0.000045108645331, -0.000040806288739, -0.000018515652598, -0.070573110580444, 27.576610990524294, 0.283920907974243, -10.465016536712646, 0.183998355865479, 1.484527465820312, -0.097288614273071, -0.279754650280906, -0.955259584009735, 0.096002410405974, 101.527194986317056, 0.933939213279191, -0.247604437160881, 0.257778177116858, 255.474638550189809, -0.222474451444778, 0.161775059436837, 0.961422877093401, 1285.652249901695313, 0.000000000000000, 0.000000000000000, 0.000000000000000, 1.000000000000000
122, 1.201194979695553, 0.461993846956639, 0.000018455656905, 0.000005512731519, -0.000044964742935, -0.000019714039294, -0.000018365826990, -0.031589868545532, 44.490633159637454, 0.447670640945435, -16.787428941726684, 0.296686344146729, 2.357955608367920, -0.102128013610840, -0.299185272002964, -0.940716572998111, 0.159813961540291, 164.016545652400595, 0.883482208813424, -0.209826674218251, 0.418845978250552, 413.724926819780478, -0.360482121230258, 0.266505339671079, 0.893883406379230, 1218.710937675539299, 0.000000000000000, 0.000000000000000, 0.000000000000000, 1.000000000000000
123, 1.201195788601119, 0.646776693088611, 0.000019234728249, -0.000085567384475, -0.000044868924359, 0.000009887017494, -0.000018395770295, 0.042343866348267, 59.920603631973265, 0.599975500106811, -22.490057411193845, 0.411575269699097, 3.141437673568725, -0.104464275360107, -0.329272425579911, -0.918859120958884, 0.217434094804355, 220.705821379119385, 0.809635090941436, -0.156255455309927, 0.565751935217317, 557.697183161537623, -0.485871062391016, 0.362328785106228, 0.795391200739907, 1121.486940330853486, 0.000000000000000, 0.000000000000000, 0.000000000000000, 1.000000000000000
124, 1.201190965001946, 0.831561486680776, 0.000020073577120, -0.000099349267815, -0.000044773105783, 0.000073103770135, -0.000018275942534, -0.003360624313354, 73.146004554748529, 0.727629861831665, -27.425879335403444, 0.511057634353638, 3.836475543975830, -0.106633661270142, -0.365162452534085, -0.891504226485313, 0.268098111552684, 269.724326711072194, 0.716254625547388, -0.085087537944132, 0.692632241718920, 682.359555142192562, -0.594672762652925, 0.444949800590392, 0.669614799950918, 997.589865428050075, 0.000000000000000, 0.000000000000000, 0.000000000000000, 1.000000000000000
125, 1.201190425695207, 1.016354639254677, 0.000020702713773, -0.000056805231100, -0.000044533384811, 0.000099049616599, -0.000018096228162, -0.008065498352051, 83.990739213943485, 0.829753351211548, -31.440829105377198, 0.591171751022339, 4.387499565124512, -0.108302419662476, -0.408504350431452, -0.858888618326478, 0.308924807983772, 309.590899575215417, 0.605668343641069, -0.001865255116615, 0.795715010750981, 783.443901411915022, -0.682854342586808, 0.512159020356552, 0.520963611663766, 851.197727334166075, 0.000000000000000, 0.000000000000000, 0.000000000000000, 1.000000000000000
126, 1.201201421214941, 1.201202409889420, 0.000021212077206, -0.000052041518536, -0.000044197845262, 0.000165202503913, -0.000018096228162, -0.047720865249634, 91.829059362411499, 0.905905780792236, -34.381281299591066, 0.645314807891846, 4.787167200088501, -0.110304929733276, -0.457700362817955, -0.822017893777784, 0.338817001027765, 338.717307400598543, 0.481904279798811, 0.090886592836606, 0.871497499912732, 857.685683156115260, -0.747180462129398, 0.562162084768877, 0.354535114566116, 687.451260684506110, 0.000000000000000, 0.000000000000000, 0.000000000000000, 1.000000000000000
127, 1.201188508232860, 1.386003801617294, 0.000021661499488, -0.000005153193694, -0.000044389482414, 0.000177276691664, -0.000018066230316, 0.005376998901367, 96.649538877487174, 0.953886213302612, -36.173284425735474, 0.690654115676880, 5.086375579833984, -0.110304929733276, -0.511474232127254, -0.781536531621056, 0.357204086778926, 356.375920365857382, 0.349560681699873, 0.190505216584122, 0.917341317211733, 902.295793605873087, -0.784984993282901, 0.594060949899897, 0.175755933398210, 512.158102873423672, 0.000000000000000, 0.000000000000000, 0.000000000000000, 1.000000000000000
128, 1.386006378214141, 0.092438610960232, 0.000016837845773, 0.000006591344996, -0.000045204463907, -0.000044431501216, -0.000018545541361, -0.202309583663940, 9.964251089096070, 0.087597303390503, -3.840635538101196, 0.056784181594849, 0.576055397033691, -0.093617345809937, -0.441045750628178, -0.897388727268648, 0.013119375899196, 19.095575070477359, 0.894258511115273, -0.438175075546605, 0.091128033379541, 92.740961931360800, -0.076028686367206, 0.051923745443526, 0.995752762239901, 1320.076697238214820, 0.000000000000000, 0.000000000000000, 0.000000000000000, 1.000000000000000
129, 1.386006528039749, 0.277241590555933, 0.000017796576947, -0.000013182689991, -0.000045156554619, -0.000039997328631, -0.000018425713600, -0.049737239837646, 27.590725612640380, 0.282600345611572, -10.475581035614013, 0.181797418594360, 1.482524955749512, -0.099958627700806, -0.446275808980609, -0.893623684143246, 0.047692907826584, 53.136826533062546, 0.866875677316336, -0.418456514423099, 0.270962553896687, 269.475855468904854, -0.222181147706206, 0.162267854719052, 0.961407655954970, 1285.669366971752879, 0.000000000000000, 0.000000000000000, 0.000000000000000, 1.000000000000000
130, 1.386001105138144, 0.461978057726496, 0.000018755308120, 0.000000778962261, -0.000045012739489, -0.000019234673707, -0.000018395770295, 0.028901369094849, 44.502059282302852, 0.450751953125000, -16.792711191177368, 0.301968593597412, 2.357955608367920, -0.103463020324707, -0.457135309866362, -0.885698973368903, 0.081022447794766, 85.420343170300299, 0.813370989961681, -0.379467771938942, 0.440944262632423, 436.387276961290809, -0.359798472984726, 0.267472500704215, 0.893869968286715, 1218.779298294152568, 0.000000000000000, 0.000000000000000, 0.000000000000000, 1.000000000000000
131, 1.385990708811759, 0.646752185338907, 0.000019534270381, -0.000095544231884, -0.000044868924359, 0.000010576040757, -0.000018395770295, 0.135769222259521, 60.050995855331422, 0.603937187194824, -22.531435031890869, 0.417297706604004, 3.139435163497925, -0.104297399520874, -0.471844413385971, -0.874782671470791, 0.110082365757984, 114.343623001611505, 0.735666119859356, -0.321804375591475, 0.596017872165978, 588.462749485114614, -0.485961119481311, 0.362211570141825, 0.795389570467117, 1121.466097361150105, 0.000000000000000, 0.000000000000000, 0.000000000000000, 1.000000000000000
132, 1.385994094368713, 0.831562954720842, 0.000020433114945, -0.000087454903517, -0.000044581294099, 0.000071306190090, -0.000018275942534, 0.017475246429443, 73.126512933731078, 0.729390611648560, -27.431161584854124, 0.511497821807861, 3.831469268798828, -0.107634916305542, -0.490136983056385, -0.860846701478139, 0.136779729472582, 140.167180590568421, 0.637250914097059, -0.246830207631337, 0.730058984660236, 719.938467041834997, -0.594707499803767, 0.444991915830927, 0.669555960709987, 997.597949909482850, 0.000000000000000, 0.000000000000000, 0.000000000000000, 1.000000000000000
133, 1.386001434732665, 1.016365754547630, 0.000020942423837, 0.000055457018796, -0.000044533384811, 0.000099379156578, -0.000018156114772, 0.113589101791382, 84.003509586334218, 0.827552413940430, -31.476044101715090, 0.596454000473022, 4.370144477844239, -0.109804302215576, -0.513253780197470, -0.843759771535741, 0.156971351051590, 160.785617759507574, 0.520094391981131, -0.160296978349934, 0.838931881717257, 826.516551002464553, -0.682694939590725, 0.512224879003193, 0.521107755447355, 851.246751535255044, 0.000000000000000, 0.000000000000000, 0.000000000000000, 1.000000000000000
134, 1.385988042330456, 1.201224041445602, 0.000021511728422, -0.000047098037060, -0.000044485475523, 0.000162925558281, -0.000018216001382, 0.066540361404419, 91.868714729309090, 0.901944093704224, -34.383482236862179, 0.652797994613648, 4.772482126235962, -0.110972433090210, -0.537563707511161, -0.825448846754431, 0.172219225868183, 175.414389363028278, 0.389189669418914, -0.061699089632115, 0.919089018298100, 904.967026320413311, -0.748035200765614, 0.561094843792339, 0.354423355163284, 687.376210599505157, 0.000000000000000, 0.000000000000000, 0.000000000000000, 1.000000000000000
135, 1.385989270769540, 1.385979803231023, 0.000021931152857, -0.000009467538517, -0.000044245754550, 0.000176677443774, -0.000018216001382, 0.019491621017456, 96.644161878585805, 0.947723588943481, -36.156997489929196, 0.686692428588867, 5.078031787872314, -0.110805557250977, -0.564774052623464, -0.804854971409944, 0.182314959561654, 184.584260636173155, 0.249906404233951, 0.043746011509508, 0.967281280496975, 952.233891386365599, -0.786496699679106, 0.591857044795201, 0.176431799628540, 512.099733357271361, 0.000000000000000, 0.000000000000000, 0.000000000000000, 1.000000000000000
136, 1.570805612769604, 0.092379019420068, 0.000017257270209, 0.000005033365932, -0.000045252373195, -0.000042693807781, -0.000018455656905, -0.219112705230713, 10.005250705718993, 0.082755241394043, -3.835793476104736, 0.052822494506836, 0.589405464172363, -0.094785476684570, -0.597897300158635, -0.801562917366244, -0.003963327684166, 1.451797065067694, 0.797962498160488, -0.595665890451679, 0.091858578705968, 94.394820333209353, -0.075991249446813, 0.051759409344822, 0.995764175672025, 1320.033353510539200, 0.000000000000000, 0.000000000000000, 0.000000000000000, 1.000000000000000
137, 1.570805972307429, 0.277248002132016, 0.000018096173621, -0.000050753192842, -0.000045108645331, -0.000040027326478, -0.000018335829144, -0.048392990112305, 27.581315864562988, 0.274676971435547, -10.438605289459229, 0.180917043685913, 1.491536251068115, -0.099791751861572, -0.597185726033089, -0.802099240022989, -0.002453115748409, 2.376985016924588, 0.770685935410652, -0.574639829442337, 0.275376570133861, 274.460135931822663, -0.222288995639776, 0.162560375162658, 0.961333306842344, 1285.638145210391258, 0.000000000000000, 0.000000000000000, 0.000000000000000, 1.000000000000000
138, 1.570791411461829, 0.461979555764407, 0.000018935077033, 0.000004913538171, -0.000044916833647, -0.000019414497162, -0.000018455656905, -0.004032749176025, 44.510796905517580, 0.447230453491211, -16.815160751342773, 0.310772342681885, 2.350279319763183, -0.103129268646240, -0.597751369834209, -0.801679681298022, -0.001728714906722, 3.402081596662159, 0.716100443080118, -0.534908401679016, 0.448411816563367, 444.380158780033298, -0.360407346320500, 0.266800844089936, 0.893825404825300, 1218.711256724415307, 0.000000000000000, 0.000000000000000, 0.000000000000000, 1.000000000000000
139, 1.570798122634586, 0.646751795857776, 0.000019714039294, -0.000098540253166, -0.000044868924359, 0.000010845748667, -0.000018275942534, -0.043688116073608, 59.911193883895876, 0.601296062469482, -22.486976099014282, 0.415977144241333, 3.141437673568726, -0.106800537109375, -0.598190458630088, -0.801353963526166, -0.000018569586053, 4.187553983277212, 0.637305136318867, -0.475746207625514, 0.606224141016780, 599.204984305637822, -0.485808952599184, 0.362625662454888, 0.795293839095738, 1121.511564385850079, 0.000000000000000, 0.000000000000000, 0.000000000000000, 1.000000000000000
140, 1.570792250310700, 0.831553187585651, 0.000020522999402, -0.000086795714476, -0.000044581294099, 0.000071905383438, -0.000018216001382, 0.005376998901367, 73.225315288543698, 0.726749486923218, -27.463295269012448, 0.515899696350098, 3.831969896316529, -0.106633661270142, -0.598391213047410, -0.801204024722659, 0.000258681004166, 5.016170397638856, 0.536843144198335, -0.400709623002767, 0.742449484180726, 733.077160664942880, -0.594749858911203, 0.444414118588949, 0.669902005164869, 997.634859834187978, 0.000000000000000, 0.000000000000000, 0.000000000000000, 1.000000000000000
141, 1.570790392789504, 1.016348707044181, 0.000021152136055, -0.000037990036369, -0.000044389569680, 0.000099588923337, -0.000018186058077, -0.079310733795166, 84.000821086883548, 0.821389789581299, -31.430704793930055, 0.594693250656128, 4.393173343658447, -0.110304929733276, -0.599714950943573, -0.800213701326783, 0.000099114272411, 6.230149046199555, 0.418031967614784, -0.313185717664568, 0.852739104476300, 841.659155522001356, -0.682342473884530, 0.511441823142985, 0.522337065383378, 851.355444332342699, 0.000000000000000, 0.000000000000000, 0.000000000000000, 1.000000000000000
142, 1.570799201193521, 1.201176883467390, 0.000021661499488, -0.000004314344823, -0.000044389569680, 0.000162685848217, -0.000018036287011, -0.088720481872559, 91.839141235351562, 0.907666530609131, -34.391845798492433, 0.650156869888306, 4.768143354415893, -0.111473060607910, -0.599974982427405, -0.800015925112392, 0.002130734098892, 6.461518039052043, 0.286101586100560, -0.212074228006754, 0.934435874871081, 921.507701358886266, -0.747111707104085, 0.561247754010565, 0.356125056302019, 687.650405668580106, 0.000000000000000, 0.000000000000000, 0.000000000000000, 1.000000000000000
143, 1.570800279806998, 1.386028998390261, 0.000021931098315, -0.000039727675262, -0.000044149935974, 0.000176767328231, -0.000018036287011, -0.072589485168457, 96.628030881881713, 0.955206775665283, -36.163160114288331, 0.694175615310669, 5.085874952316285, -0.110972433090210, -0.601129300366903, -0.799150580195647, 0.001383623272075, 6.657980254729940, 0.143047002664733, -0.105897704590556, 0.984034161597598, 969.636985927189471, -0.786244948644526, 0.591729690260183, 0.177974308245751, 512.176146863123677, 0.000000000000000, 0.000000000000000, 0.000000000000000, 1.000000000000000
144, 1.755600263381417, -1.570843363095909, 0.000003415500259, 0.000007310366105, -0.000045779724428, 0.000005602615976, -0.000019174787097, -0.493339649200439, -97.459449337005623, -0.992622709274292, 36.336153783798217, -0.693735427856445, -5.015286472320557, -0.068585969924927, -0.588902110302992, -0.789026235493699, 0.175019725126412, 176.963460638709591, -0.113198065938701, -0.133894112325208, -0.984509301404706, -968.901834636265335, 0.800237778631089, -0.599591499595588, -0.010465718527320, 335.574736470075550, 0.000000000000000, 0.000000000000000, 0.000000000000000, 1.000000000000000
145, 1.755596488343332, -1.386030915961691, 0.000003595269172, -0.000014500904449, -0.000045779724428, 0.000001138500086, -0.000019174787097, -0.452340032577515, -95.982791013717645, -0.957847900390625, 35.747623157501224, -0.686252241134644, -4.888460834503174, -0.071923486709595, -0.615581346103374, -0.769129117225421, 0.171755661815275, 174.553582946501137, 0.032142056225409, -0.242265732257286, -0.969677370673073, -953.092446125502420, 0.787417611278260, -0.591394720985811, 0.173855656908118, 516.626964636293224, 0.000000000000000, 0.000000000000000, 0.000000000000000, 1.000000000000000
146, 1.755588938267163, -1.201229254580447, 0.000003745094780, -0.000000449422282, -0.000045827633716, 0.000001557979063, -0.000019054959336, -0.300439813613892, -91.021165277481089, -0.913829154968262, 33.922165784835812, -0.653678369522095, -4.669019105911255, -0.073258493423462, -0.641570810664035, -0.749380943263805, 0.163753158067081, 165.319633695604608, 0.171646431436487, -0.348322228824468, -0.921525435070500, -904.941886452891822, 0.747612464769691, -0.563116175207039, 0.352101939416958, 691.880597945761110, 0.000000000000000, 0.000000000000000, 0.000000000000000, 1.000000000000000
147, 1.755597626843418, -1.016438438947871, 0.000004254349130, -0.000070587114439, -0.000045731815140, 0.000006621233759, -0.000019054959336, -0.303800437927246, -82.979191295623778, -0.833715038299561, 30.980393028259279, -0.595573625564575, -4.254666397094727, -0.075261003494263, -0.666197873779412, -0.730808951203885, 0.148656213499700, 151.132219555831597, 0.302147521268564, -0.446729689536883, -0.842104185880549, -825.568084535723187, 0.681826420992216, -0.516091911704259, 0.518422482450741, 855.204396317678288, 0.000000000000000, 0.000000000000000, 0.000000000000000, 1.000000000000000
148, 1.755590676015139, -0.831557471932627, 0.000004853651561, 0.000041914790979, -0.000045731815140, 0.000018485654751, -0.000019054959336, -0.300439813613892, -72.047752529144276, -0.728950424194336, 26.894132890701293, -0.523823070526123, -3.718994953155518, -0.076929761886597, -0.687383247854087, -0.714814851308591, 0.128623477321384, 131.512393983430542, 0.419124822522600, -0.535032643318959, -0.733535584500525, -717.950261384839337, 0.593159888828439, -0.450310780385952, 0.667369123763775, 1001.057510716767638, 0.000000000000000, 0.000000000000000, 0.000000000000000, 1.000000000000000
149, 1.755593432326357, -0.646773217701742, 0.000005722443737, -0.000099169444360, -0.000045588000010, 0.000044820982346, -0.000019054959336, -0.219112705230713, -58.707418254852300, -0.596894187927246, 21.927497844696042, -0.433584642410278, -3.033969633102417, -0.079599775314331, -0.705411134462737, -0.700965229890697, 0.105085098183693, 107.518083765569557, 0.517665141718133, -0.610770174372995, -0.599151562750467, -585.610196775000077, 0.484167256664409, -0.368249291351204, 0.793709346671309, 1124.399534236288218, 0.000000000000000, 0.000000000000000, 0.000000000000000, 1.000000000000000
150, 1.755599933786896, -0.461962807857632, 0.000006621288301, -0.000017496980273, -0.000045492094168, 0.000077478001568, -0.000018935077033, -0.149883844375610, -43.261988910675043, -0.456034202575684, 16.142114133834838, -0.329700403213501, -2.222619302749634, -0.084105422973633, -0.719873170562535, -0.689806112769720, 0.077137183574280, 79.799561623112226, 0.594516095866914, -0.670123651240843, -0.444392735992392, -432.934456840530970, 0.358236276861244, -0.274047110609052, 0.892504874556674, 1220.817883546552139, 0.000000000000000, 0.000000000000000, 0.000000000000000, 1.000000000000000
151, 1.755600263381417, -0.277231853418589, 0.000007669903931, -0.000069388618660, -0.000045348366304, 0.000171104771104, -0.000019084902641, -0.145178970336914, -26.318393247604369, -0.286121845245361, 9.791529731750487, -0.206888103485107, -1.391076995849609, -0.086107933044434, -0.729693961612118, -0.682223556718767, 0.046018920508941, 49.113597274416101, 0.647736662076480, -0.711229876356178, -0.273110379847409, -265.347900360380663, 0.219052365859932, -0.169478853065422, 0.960881355514194, 1286.888426701774506, 0.000000000000000, 0.000000000000000, 0.000000000000000, 1.000000000000000
152, 1.755600682805852, -0.092437322634538, 0.000008988118388, 0.000039128536456, -0.000045156554619, 0.000169516848736, -0.000018875190423, -0.154588718414307, -8.439199775695801, -0.117089862823486, 3.087914991378784, -0.085836553573608, -0.427202148437500, -0.090112953186035, -0.734829262005877, -0.678106969256856, 0.014031890292430, 17.765871191629472, 0.674269556072677, -0.732596784740439, -0.093072642282931, -88.379766698156857, 0.073392925091270, -0.058931224603366, 0.995560439809304, 1320.466699000756535, 0.000000000000000, 0.000000000000000, 0.000000000000000, 1.000000000000000
153, 1.940405010668399, -1.570845879751605, 0.000003205788041, -0.000019414497162, -0.000045875630270, -0.000006291748322, -0.000019234673707, -0.543749013900757, -97.498432579040525, -0.966651649475098, 36.356402406692503, -0.698577489852905, -5.145449626922607, -0.069754100799561, -0.559945738395874, -0.749684189580882, 0.352752584603935, 351.821274446689358, -0.220266198768521, -0.275739621734777, -0.935655098145480, -920.042183053903273, 0.798713698225069, -0.601615555731414, -0.010730860618562, 335.473549302107244, 0.000000000000000, 0.000000000000000, 0.000000000000000, 1.000000000000000
154, 1.940387303921367, -1.386013658636941, 0.000003235731346, -0.000051292499581, -0.000045923626825, 0.000022380520597, -0.000019114845946, -0.435536911010742, -95.999594135284426, -0.945522651672363, 35.774034404754644, -0.691534490585327, -4.976738153457641, -0.071756610870361, -0.611671984997173, -0.710398035766082, 0.348126433281518, 346.515726464709928, -0.082999330469946, -0.379992578366984, -0.921258243668708, -905.115952214407230, 0.786745507715906, -0.592402119481105, 0.173468253358177, 516.580565525125053, 0.000000000000000, 0.000000000000000, 0.000000000000000, 1.000000000000000
155, 1.940402703670380, -1.201227636660233, 0.000003475386869, -0.000036521941762, -0.000045827720982, 0.000059172115729, -0.000019174732556, -0.401930667877197, -91.039984773635865, -0.895781469345093, 33.973227529525758, -0.654998931884766, -4.732431924819946, -0.071255983352661, -0.663117787892401, -0.671407503611744, 0.330887841231036, 329.057595616831918, 0.049494670831169, -0.480422479466972, -0.875639491333118, -859.474421669633330, 0.746876882049514, -0.564274937700277, 0.351807785222761, 691.609551710363689, 0.000000000000000, 0.000000000000000, 0.000000000000000, 1.000000000000000
156, 1.940387783341495, -1.016435952180939, 0.000003894920388, -0.000094106135123, -0.000045875630270, 0.000090121384821, -0.000019084848100, -0.392520919799805, -83.008764789581306, -0.824030914306641, 30.997120151519773, -0.600855875015259, -4.335434303283691, -0.072924741744995, -0.710419026260288, -0.635899758183463, 0.301556470117286, 300.532178759109570, 0.174994529441523, -0.574632850699921, -0.799483584298028, -784.040830699587332, 0.681675671997266, -0.515197616879869, 0.519509089206705, 854.966627321202850, 0.000000000000000, 0.000000000000000, 0.000000000000000, 1.000000000000000
157, 1.940398059785578, -0.831548693526457, 0.000004494059194, -0.000097881173208, -0.000045875630270, 0.000180332654098, -0.000018994963643, -0.240620700836182, -72.047752529144276, -0.718385925292969, 26.921424512863162, -0.529105319976807, -3.805102886199951, -0.076596010208130, -0.752930319591152, -0.604027653236306, 0.261240364350929, 261.513575281054443, 0.286358094598739, -0.658113915804035, -0.696336926697744, -681.819639996322167, 0.592532678844083, -0.449484891793841, 0.668482128819413, 1000.867028521678890, 0.000000000000000, 0.000000000000000, 0.000000000000000, 1.000000000000000
158, 1.940392517110754, -0.646793231283168, 0.000005273075997, -0.000093476998470, -0.000045731815140, 0.000196780964199, -0.000018994963643, -0.180801588058472, -58.712123128890994, -0.592052125930786, 21.937622156143188, -0.435785579681396, -3.099384962081909, -0.080601030349731, -0.788883765690542, -0.576033148463090, 0.214121965481383, 213.618001248440947, 0.378821635838731, -0.730171635272616, -0.568633055022113, -556.200277206775354, 0.483897274687901, -0.367471352509300, 0.794234368832404, 1124.233445458712140, 0.000000000000000, 0.000000000000000, 0.000000000000000, 1.000000000000000
159, 1.940396352035448, -0.461963496935437, 0.000006111924867, 0.000009108000691, -0.000045540003456, 0.000197440153240, -0.000018994963643, -0.126359474182129, -43.300300027847285, -0.447230453491211, 16.146956195831297, -0.331901340484619, -2.286198997497559, -0.082102912902832, -0.816566007547419, -0.555494477661081, 0.156989937913588, 158.409823179837218, 0.453200676129160, -0.785366526105569, -0.421673531098341, -411.166492310505930, 0.357531960073700, -0.273176325769482, 0.893054081545426, 1220.643617199459413, 0.000000000000000, 0.000000000000000, 0.000000000000000, 1.000000000000000
160, 1.940398209611185, -0.277229037111678, 0.000006890887128, -0.000058842575750, -0.000045396275592, 0.000196840905350, -0.000018994963643, -0.077294359207153, -26.390982732772827, -0.285681657791138, 9.840830726623535, -0.214811477661133, -1.427956556320190, -0.085607305526733, -0.836251445923012, -0.540008690981800, 0.095258242980831, 97.593463397263378, 0.502769372814365, -0.824427693030528, -0.259888315867050, -252.035873721821332, 0.218875482755658, -0.169439052843446, 0.960928681234978, 1286.805519642756963, 0.000000000000000, 0.000000000000000, 0.000000000000000, 1.000000000000000
161, 1.940398748917924, -0.092428394402759, 0.000007999443910, 0.000054468344317, -0.000045396275592, 0.000196481312983, -0.000018994963643, -0.107539978027344, -8.506412261962890, -0.117970237731934, 3.119168300628662, -0.083195428848267, -0.500794393539429, -0.091948587417603, -0.846350053398905, -0.531785054873657, 0.029937309910751, 33.534549799636217, 0.527649498904953, -0.844781471384187, -0.089052074155071, -83.846931501640356, 0.072647046856856, -0.059572821143458, 0.995576961145640, 1320.359407353509141, 0.000000000000000, 0.000000000000000, 0.000000000000000, 1.000000000000000
162, 2.125204185337252, -1.570846059575059, 0.000003205788041, 0.000068310114267, -0.000045923539558, -0.000108996520703, -0.000019174732556, -0.387143920898438, -97.498432579040525, -0.962689962387085, 36.336593971252441, -0.698137302398682, -5.023630264282227, -0.068252218246460, -0.509025933104552, -0.686573043124088, 0.519143579255652, 514.979586040772347, -0.319700997725906, -0.409178588199365, -0.854613453563794, -840.260373084243270, 0.799176996340673, -0.600991130895044, -0.011215574233898, 334.897470146856335, 0.000000000000000, 0.000000000000000, 0.000000000000000, 1.000000000000000
163, 2.125190283571610, -1.386020489637459, 0.000003175790195, 0.000029601002246, -0.000045923626825, -0.000118823542503, -0.000019234673707, -0.349504928588867, -96.039249502182003, -0.948163776397705, 35.792962465286251, -0.688012990951538, -4.922336629867553, -0.068585969924927, -0.587646041124810, -0.626819459798552, 0.511634141910203, 506.973935497611308, -0.195146418552788, -0.503870455487005, -0.841446634917116, -826.552258611418097, 0.785232453275053, -0.594316354229941, 0.173775905747812, 515.761696826145226, 0.000000000000000, 0.000000000000000, 0.000000000000000, 1.000000000000000
164, 2.125186238880156, -1.201236385177640, 0.000003355613649, -0.000027833365507, -0.000045875630270, -0.000123317656239, -0.000019264671554, -0.325308433532715, -91.096443262100223, -0.900623531341553, 34.007121963500978, -0.653678369522095, -4.700558639526367, -0.069253473281860, -0.660640588910881, -0.570917808372826, 0.487449349539266, 481.378149868232526, -0.074213241064579, -0.596474772060140, -0.799193494184290, -785.043786910242602, 0.747025037822813, -0.564154856735783, 0.351685783743461, 691.118053706665819, 0.000000000000000, 0.000000000000000, 0.000000000000000, 1.000000000000000
165, 2.125201369030341, -1.016410785296735, 0.000003775038085, -0.000093626769536, -0.000045827633716, -0.000119602613847, -0.000019264671554, -0.266161445617676, -83.046403781890859, -0.824911289215088, 31.026172523498538, -0.603056812286377, -4.290711578369141, -0.073592245101929, -0.730682855756777, -0.518331710718860, 0.444336361292187, 439.975155669617720, 0.040144773462513, -0.682329188383381, -0.729941967449276, -716.166794579975203, 0.681535737483196, -0.515518298747326, 0.519374549039418, 854.396930492422939, 0.000000000000000, 0.000000000000000, 0.000000000000000, 1.000000000000000
166, 2.125199811105819, -0.831556033835867, 0.000004314344823, -0.000098899790991, -0.000045827633716, -0.000112441964267, -0.000019144789251, -0.176096714019775, -72.101522518157964, -0.717065362930298, 26.967644195556637, -0.524703445434570, -3.751368865966797, -0.077096637725830, -0.792443763879007, -0.472308795363208, 0.385949845072942, 383.116607495258677, 0.141837831407946, -0.758109273770607, -0.636515796036904, -622.741134572028159, 0.593224165615970, -0.449660684122548, 0.667750221627577, 1000.493221172690028, 0.000000000000000, 0.000000000000000, 0.000000000000000, 1.000000000000000
167, 2.125199631336907, -0.646755091584816, 0.000005093307084, -0.000090151328126, -0.000045731815140, -0.000098180769882, -0.000019114845946, -0.104179353713989, -58.804876359939570, -0.592932500839233, 21.990004463195802, -0.434465017318726, -3.046485321044922, -0.079432899475098, -0.844680437377548, -0.433151865714347, 0.314474831965698, 313.233971603623729, 0.228236016503733, -0.822874957853868, -0.520370180263535, -507.879761413886001, 0.484172778543137, -0.367772028524704, 0.793927235678839, 1123.881527105484338, 0.000000000000000, 0.000000000000000, 0.000000000000000, 1.000000000000000
