Zhangzhongqiu/robot-calibration/20161118_run_1.csv
number, theta_1, theta_2, theta_3, theta_4, theta_5, theta_6, theta_7, tau_1, tau_2, tau_3, tau_4, tau_5, tau_6, tau_7, m_00, m_01, m_02, m_03, m_10, m_11, m_12, m_13, m_20, m_21, m_22, m_23, m_30, m_31, m_32, m_33
0, -0.000000898844564, -0.000019174787097, -0.000063336634944, 0.000032477250309, -0.000081300927123, -0.000171164712255, -2.999988816398667, 0.120310350418091, 0.481241401672363, -0.019368247985840, -0.278198471069336, 0.029052371978760, 0.176721513748169, 0.132165664672852, -0.969206656559120, -0.246199269061672, 0.004937286197032, -1.344769448457343, 0.246189425656925, -0.969218454825346, -0.002520619106911, 0.724086220414183, 0.005405883480622, -0.001227493163917, 0.999984634724117, 1290.797767612956704, 0.000000000000000, 0.000000000000000, 0.000000000000000, 1.000000000000000
1, -0.000000719021109, -0.000019084902641, -0.000063456462705, 0.000032417309157, -0.000081205108548, -0.000171254596712, -2.699995774019605, 0.129047973632813, 0.481241401672363, -0.020248622894287, -0.278198471069336, 0.029052371978760, 0.172382741928101, -0.226617389678955, -0.998596745496144, 0.052728629113127, 0.004922555876742, -1.296811041521384, -0.052726586948282, -0.998608837985578, 0.000543806840586, 0.589396430384863, 0.004944381993199, 0.000283494170745, 0.999987736283681, 1290.753185503516534, 0.000000000000000, 0.000000000000000, 0.000000000000000, 1.000000000000000
2, -0.000000778962261, -0.000018994963643, -0.000063546347162, 0.000032297535937, -0.000081013296863, -0.000171194655560, -2.400052945581190, 0.120310350418091, 0.479225027084351, -0.019808435440063, -0.277758283615112, 0.026851434707642, 0.171381486892700, -0.269671356201172, -0.938790978285202, 0.344459075178749, 0.004409605120091, -1.225293930921953, -0.344455960426328, -0.938801324336474, 0.001471309232576, 0.598660526567868, 0.004646548944098, -0.000137662932932, 0.999989195257542, 1290.706735959339539, 0.000000000000000, 0.000000000000000, 0.000000000000000, 1.000000000000000
3, -0.000000719021109, -0.000018875190423, -0.000063636231618, 0.000032327479242, -0.000081061293417, -0.000171194655560, -2.099999682579853, 0.130392223358154, 0.485274150848389, -0.018928060531616, -0.282160158157349, 0.026851434707642, 0.169378976821899, -0.207760419845581, -0.794094104550276, 0.607781092868641, 0.004086106936431, -1.197579378016008, -0.607774853439686, -0.794104566169479, 0.002768666674040, 0.497864209651158, 0.004927539433013, -0.000284851161108, 0.999987819033288, 1290.663534707475719, 0.000000000000000, 0.000000000000000, 0.000000000000000, 1.000000000000000
4, -0.000000719021109, -0.000018875190423, -0.000063546347162, 0.000032297481396, -0.000081205108548, -0.000171254596712, -1.799902497331650, 0.127703723907471, 0.484602025985718, -0.019368247985840, -0.280399408340454, 0.024650497436523, 0.166875839233398, -0.263330074310303, -0.579037461440564, 0.815297584418088, 0.002338181023513, -1.122520281287295, -0.815296678422128, -0.579041325152156, 0.001571597875099, 0.488767240605934, 0.002635223389545, -0.000996297178017, 0.999996031486936, 1290.572602444764925, 0.000000000000000, 0.000000000000000, 0.000000000000000, 1.000000000000000
5, -0.000000749018956, -0.000018815194730, -0.000063516349315, 0.000032267538091, -0.000081013296863, -0.000171284540017, -1.499951100199281, 0.124343099594116, 0.483257776260376, -0.018487873077393, -0.280399408340454, 0.027291622161865, 0.171381486892700, -0.362120571136475, -0.313662388816007, 0.949532061452710, 0.002184059432285, -1.032216227544207, -0.949530783149306, -0.313666805976061, 0.002103967833016, 0.544460847508457, 0.002682851859900, -0.001413896086686, 0.999995401591304, 1290.624768708350757, 0.000000000000000, 0.000000000000000, 0.000000000000000, 1.000000000000000
6, -0.000000719021109, -0.000018755308120, -0.000063636231618, 0.000032297535937, -0.000081061293417, -0.000171254596712, -1.200057736682555, 0.128375848770142, 0.487962650299072, -0.020248622894287, -0.274236783981323, 0.025971059799194, 0.174385251998901, -0.348937379837036, -0.018378681450636, 0.999826988883479, 0.002866420822616, -1.135708358096796, -0.999828887653669, -0.018384593283455, 0.002049912932140, 0.604043261404993, 0.002102256255418, -0.002828255645843, 0.999993790725042, 1290.694478138638942, 0.000000000000000, 0.000000000000000, 0.000000000000000, 1.000000000000000
7, -0.000000778962261, -0.000018785251425, -0.000063516349315, 0.000032267538091, -0.000081061293417, -0.000171194655560, -0.900010915146064, 0.131064348220825, 0.491323274612427, -0.019368247985840, -0.279519033432007, 0.025090684890747, 0.177055265426636, -0.335253561019897, 0.278756090134979, 0.960359305502132, 0.002246452341272, -1.005105482062906, -0.960361330126572, 0.278752531652983, 0.001772482601814, 0.623379897321716, 0.001076015883125, -0.002651496278444, 0.999995905870271, 1290.699097195555396, 0.000000000000000, 0.000000000000000, 0.000000000000000, 1.000000000000000
8, -0.000000778962261, -0.000018665423664, -0.000063546347162, 0.000032267538091, -0.000081061293417, -0.000171134714409, -0.599915377706839, 0.127703723907471, 0.477880777359009, -0.022889747619629, -0.276437721252441, 0.028171997070312, 0.176220886230469, -0.313225950241089, 0.547239754834474, 0.836975771764234, 0.000456298554594, -0.919640461081948, -0.836972400455952, 0.547235812271416, 0.003188517311418, 0.826519847240207, 0.002419008827346, -0.002126792728349, 0.999994812561037, 1290.576539909269741, 0.000000000000000, 0.000000000000000, 0.000000000000000, 1.000000000000000
9, -0.000000749018956, -0.000018635480359, -0.000063546347162, 0.000032267538091, -0.000081061293417, -0.000171044829952, -0.299900434227309, 0.138457721710205, 0.485946275711060, -0.018047685623169, -0.279519033432007, 0.026411247253418, 0.180059030532837, -0.275512010574341, 0.771035628941441, 0.636791921868752, -0.000327330992723, -0.951423389816197, -0.636788718640181, 0.771033198394324, 0.002816875292984, 0.789205397898506, 0.002046146493737, -0.001963470529748, 0.999995979025919, 1290.570221197861883, 0.000000000000000, 0.000000000000000, 0.000000000000000, 1.000000000000000
10, -0.000000719021109, -0.000018575539208, -0.000063666229465, 0.000032267538091, -0.000080917478287, -0.000171164657714, -0.000024537693009, 0.122998849868774, 0.492667524337769, -0.020688810348511, -0.273796596527100, 0.026851434707642, 0.179558403015137, -0.310889688491821, 0.925618419620780, 0.378458084965660, 0.000138502187439, -0.981692166685737, -0.378457839345119, 0.925617256997582, 0.001535378291235, 0.731379775610541, 0.000452876312974, -0.001473591666056, 0.999998811714617, 1290.619586857625336, 0.000000000000000, 0.000000000000000, 0.000000000000000, 1.000000000000000
11, -0.000000778962261, -0.000018515598056, -0.000063666174923, 0.000032237540244, -0.000080917478287, -0.000171134714409, 0.299920447863277, 0.124343099594116, 0.481913526535034, -0.015846748352051, -0.276877908706665, 0.028171997070312, 0.170713983535767, -0.311557191848755, 0.996166244214287, 0.087472733224391, -0.001155348543086, -1.016776402422314, -0.087471818562129, 0.996166657100616, 0.000819901467735, 0.773023873025158, 0.001222638718310, -0.000715697727602, 0.999998996465160, 1290.564963552123345, 0.000000000000000, 0.000000000000000, 0.000000000000000, 1.000000000000000
12, -0.000000719021109, -0.000018395770295, -0.000063726116074, 0.000032237540244, -0.000080917478287, -0.000171134714409, 0.599995462303100, 0.125687349319458, 0.496028148651123, -0.017167310714722, -0.273796596527100, 0.025530872344971, 0.169045225143433, -0.330747913360596, 0.977389922573671, -0.211441567550490, -0.001184383056514, -1.071607339732251, 0.211441385966313, 0.977390639950095, -0.000277918312498, 0.756789882629563, 0.001216368397198, 0.000021206962950, 0.999999259998820, 1290.563973821656418, 0.000000000000000, 0.000000000000000, 0.000000000000000, 1.000000000000000
13, -0.000000749018956, -0.000018425768141, -0.000063636231618, 0.000032117767025, -0.000080821659711, -0.000171134714409, 0.900001177954178, 0.124343099594116, 0.485274150848389, -0.021128997802734, -0.281279783248901, 0.025530872344971, 0.171715238571167, -0.335754188537598, 0.870997364599928, -0.491286715260594, 0.000976866641672, -1.222429744794272, 0.491287574039778, 0.870996788591243, -0.001055394642841, 0.761396328171193, -0.000332346340393, 0.001399168395075, 0.999998965936322, 1290.713857412853486, 0.000000000000000, 0.000000000000000, 0.000000000000000, 1.000000000000000
14, -0.000000659079958, -0.000018425768141, -0.000063576345008, 0.000032237540244, -0.000080965474842, -0.000171164712255, 1.199979419777575, 0.127703723907471, 0.488634775161743, -0.018928060531616, -0.282600345611572, 0.024650497436523, 0.168711473464966, -0.327243520736694, 0.687715984278765, -0.725979489415470, -0.000711277401978, -1.110766848802602, 0.725979077316256, 0.687716351922316, -0.000773690958224, 0.815424665884574, 0.001050840866910, 0.000015707126859, 0.999999447743227, 1290.528650448438157, 0.000000000000000, 0.000000000000000, 0.000000000000000, 1.000000000000000
15, -0.000000719075651, -0.000018335883685, -0.000063636231618, 0.000032177653635, -0.000080917478287, -0.000171224598865, 1.499979293102613, 0.128375848770142, 0.497372398376465, -0.018928060531616, -0.278198471069336, 0.030372934341431, 0.165874584197998, -0.390322587966919, 0.444739895235122, -0.895659624645411, -0.000512217037287, -1.157400616419636, 0.895659430476128, 0.444739154597344, 0.001126484450956, 0.715252693341787, -0.000781143668379, -0.000959764596599, 0.999999234332951, 1290.644671799773960, 0.000000000000000, 0.000000000000000, 0.000000000000000, 1.000000000000000
16, -0.000000629136653, -0.000018335883685, -0.000063726116074, 0.000032237540244, -0.000080821659711, -0.000171134714409, 1.799975451276176, 0.125015224456787, 0.485274150848389, -0.019808435440063, -0.279959220886230, 0.026851434707642, 0.173383996963501, -0.374135631561279, 0.162815260083909, -0.986656298494883, -0.000734659230961, -1.135106104037050, 0.986656420970469, 0.162815602021597, -0.000432083428155, 0.890076270425832, 0.000545931820834, -0.000654506471719, 0.999999636789797, 1290.722777705859926, 0.000000000000000, 0.000000000000000, 0.000000000000000, 1.000000000000000
17, -0.000000659079958, -0.000018335883685, -0.000063726116074, 0.000032177653635, -0.000080917478287, -0.000171134714409, 2.100059004521189, 0.125687349319458, 0.491323274612427, -0.018928060531616, -0.282160158157349, 0.030813121795654, 0.176554637908936, -0.371799369812012, -0.139545951550963, -0.990215046870827, 0.001043243184493, -1.183801677890112, 0.990207580957626, -0.139548983586433, -0.003876569880840, 0.755968463392556, 0.003984221352284, 0.000492067677291, 0.999991941892342, 1290.841598724349296, 0.000000000000000, 0.000000000000000, 0.000000000000000, 1.000000000000000
18, -0.000000629136653, -0.000018305940380, -0.000063666229465, 0.000032177653635, -0.000080773663157, -0.000171194655560, 2.400073948000720, 0.121654600143433, 0.479225027084351, -0.019808435440063, -0.281279783248901, 0.024210309982300, 0.177555892944336, -0.397665124893189, -0.425975634356449, -0.904733779107653, 0.001244136731298, -1.245564108770729, 0.904730255230875, -0.425977448307261, -0.002525629329758, 0.836887314881679, 0.002814996358280, 0.000049751586556, 0.999996036652287, 1290.678987042151675, 0.000000000000000, 0.000000000000000, 0.000000000000000, 1.000000000000000
19, -0.000000659079958, -0.000018305940380, -0.000063816000531, 0.000032177653635, -0.000080821659711, -0.000171134714409, 2.700029239944393, 0.129720098495483, 0.487962650299072, -0.017607498168945, -0.278198471069336, 0.025090684890747, 0.175219631195068, -0.353776779174805, -0.673545406423408, -0.739137488400406, 0.003515498124875, -1.368817205695541, 0.739135874114311, -0.673553407813067, -0.001991587476946, 0.792891373634983, 0.003839932707810, 0.001257006182890, 0.999991837392814, 1290.779640276824694, 0.000000000000000, 0.000000000000000, 0.000000000000000, 1.000000000000000
20, 1.443551660059110, 2.053671215781773, -1.938043668932233, -1.082156213115909, 1.019883136590992, 0.897379838501172, -3.019439123462246, -0.081999233245850, 62.493497606277465, 21.280422286987303, 15.370905714035034, 2.179368085861206, 0.546351497650146, 0.069086597442627, 0.371493150784490, 0.247508870048729, 0.894836408606296, 532.524086213733995, 0.927277702761915, -0.147034216151009, -0.344292029012355, 481.649382500339698, 0.046356238855178, 0.957663979967953, -0.284131660663048, 132.503146222463585, 0.000000000000000, 0.000000000000000, 0.000000000000000, 1.000000000000000
21, 1.210126462913238, 2.056923854241723, -1.838610854660733, -1.653959235798995, 2.386716486726879, 0.423294387970570, -3.019439453002225, 0.731271850585937, 50.055827022552492, 24.094980869293209, 12.790526857376099, 0.209529228210449, 2.680860357284546, 0.067584714889526, 0.122229505911511, -0.179065307824965, 0.976214916613231, 636.556512880435548, -0.074043575241960, -0.982494230769320, -0.170946294111311, 189.475713694205012, 0.989736074340032, -0.051387761563946, -0.133348419981007, 239.031519497701510, 0.000000000000000, 0.000000000000000, 0.000000000000000, 1.000000000000000
22, 1.229241900853103, 1.946553607139488, -2.518509338768841, -1.459306032213824, 1.699322535030950, 1.160153863014766, -1.724619454117509, 0.071245235443115, 61.723242513656615, 16.486340723037721, 11.640317039489746, 1.488713970184326, 2.158372104644775, -0.271173238754272, 0.054189097024470, -0.367950728364774, 0.928264942384180, 535.065755869096279, -0.620018365252146, -0.741104424174055, -0.257568358343372, 386.422977762665198, 0.782713720662752, -0.561583915337214, -0.268295988640895, 433.504603375223610, 0.000000000000000, 0.000000000000000, 0.000000000000000, 1.000000000000000
23, 1.439669010863369, 1.730866051589568, -2.062592842034352, -1.719953545987514, 1.683191576576446, 0.706635289899358, 0.041048127450218, -0.065868236541748, 52.400870668411258, 24.538249635696410, 2.374811315536499, 0.799820604324341, 2.800510334014892, -0.287026443481445, -0.257652240768423, 0.125695803428526, 0.958027080946811, 536.434274708042722, -0.289952707807582, 0.935748751017885, -0.200752838593929, 289.123627879211881, -0.921706433774910, -0.329506964977869, -0.204651923931860, 436.398240327013127, 0.000000000000000, 0.000000000000000, 0.000000000000000, 1.000000000000000
24, 1.298130850783762, 2.058216802331354, -1.713879581267776, -1.386197586560211, 1.292778126675968, 0.308320011339679, -0.352577334423110, 0.666747863769531, 54.302311904907228, 24.369657840728760, 13.517716531753539, 1.130401382446289, 2.028375825881958, -0.008510667800903, -0.261729625810243, -0.172189405104294, 0.949656996890488, 634.715511890796506, -0.964846674679501, 0.070988541196337, -0.253044504739237, 285.800346584531667, -0.023843182110191, -0.982502639074647, -0.184716179254052, 136.389659303144384, 0.000000000000000, 0.000000000000000, 0.000000000000000, 1.000000000000000
25, 1.235013743243721, 1.611435490772807, -1.411500479745169, -1.653923972185080, 0.151401314962598, -0.252970149596771, -0.387019577303224, 0.727911226272583, 53.866774993896485, 28.034658584594727, 1.628253393173218, -0.533067007064819, 0.567377853393555, 0.026867010116577, -0.056627132651631, -0.207597734440335, 0.976573882767144, 636.168175990031727, -0.799473875710324, -0.576466573620352, -0.168901780793230, 189.901183835814095, 0.598025827121512, -0.790309730519403, -0.133325316208067, 238.201173498061593, 0.000000000000000, 0.000000000000000, 0.000000000000000, 1.000000000000000
26, 0.876300725386144, 1.293106554400286, -1.369643327283144, -1.826104477081166, -0.020985144784557, -0.923798882449683, -0.249519891269210, 0.756812595367432, 50.506822805404667, 25.599541587829592, -6.270910472869874, -1.905131301879883, 1.074847280502319, -0.231456789016724, 0.009004551235259, -0.003033317964561, 0.999954857500666, 638.044625924911543, -0.952156680020623, -0.305514606012686, 0.007647365887595, -2.584762306161416, 0.305477617427459, -0.952182558386279, -0.005639215885544, 343.419629846565670, 0.000000000000000, 0.000000000000000, 0.000000000000000, 1.000000000000000
27, 1.007795715491319, 0.894525405799880, -0.860759342850207, -1.672100835595188, 0.832222446587484, -0.472661874418627, 0.006880922498131, 0.042343866348267, 52.431116287231447, 17.406332502365110, -16.303222742080685, 0.541430568695068, 2.623788820266724, -0.275178258895874, -0.186089606397919, 0.103423501378599, 0.977074325603359, 636.319767654160842, -0.327538888994797, 0.931031313795117, -0.160931565980676, 191.224927670656342, -0.926330899078036, -0.349977530843809, -0.139380031990772, 338.510662334513370, 0.000000000000000, 0.000000000000000, 0.000000000000000, 1.000000000000000
28, 0.874539583562222, 0.745910650814726, -0.059557403269496, -1.985705410688553, 1.139401619634085, -1.165147599664823, 0.008838965059471, 0.571306133270264, 48.861461141586304, 2.796951084136963, -10.806161813735962, 0.934077777862549, 2.815529159545898, -0.277180768966675, -0.180345588801838, 0.185002368208057, 0.966048442034419, 435.201185097325890, 0.010382999193212, 0.982455838955358, -0.186206116522195, 289.424349453192121, -0.983548505121874, -0.023550971528452, -0.179102456188055, 238.582602606723526, 0.000000000000000, 0.000000000000000, 0.000000000000000, 1.000000000000000
29, 1.405542192830127, 0.916028341034594, -0.256617788136421, -1.201251305506524, 2.049144025067938, -1.295341252809868, 0.002346511237196, -0.149211719512939, 65.063030956268307, 7.044319829940795, -21.415119647979736, 2.020460414886474, 1.464669240951538, -0.020525728225708, -0.040375700001815, 0.441744092660010, 0.896232090169365, 332.342616782959453, 0.703663891001620, 0.649382487017754, -0.288373913617539, 585.105290244844582, -0.709384896477098, 0.619002861184519, -0.337058639550384, 330.863778710849203, 0.000000000000000, 0.000000000000000, 0.000000000000000, 1.000000000000000
30, 1.410246899847516, 1.026827653334664, -1.045577033117117, -1.115605083636512, 2.721173193677304, -0.821913796151631, 0.179395727322430, -0.127031599044800, 63.025148372650150, 19.508667783737181, -17.782692775726318, 1.589516897201538, -0.253484399795532, -0.276012638092041, 0.279060476684575, 0.346836680319635, 0.895449366261116, 533.009186629311557, 0.952587015280607, 0.017763320082877, -0.303747333779931, 485.230052745009118, -0.121256870615077, 0.937757314897884, -0.325435077525687, 430.973786479180376, 0.000000000000000, 0.000000000000000, 0.000000000000000, 1.000000000000000
31, 1.376168018700205, 1.501709006237315, -0.962750549529983, -1.081907480572172, 2.652403492854960, -0.742622838625317, 1.861975838802621, 0.833434829711914, 67.599630187988282, 20.862244205474852, -8.245151205062866, 1.722893695831299, 1.054822179794312, -0.399834510803223, 0.410353410539421, -0.174661140980070, 0.895043889588776, 532.025066796479791, 0.377474795074250, -0.860922594178718, -0.341064606660147, 482.235021867589410, 0.830134240675759, 0.477813533362260, -0.287352344332796, 132.364382035376480, 0.000000000000000, 0.000000000000000, 0.000000000000000, 1.000000000000000
32, 1.393047499848098, 0.973693015672109, -0.910573391530913, -1.510992855668070, 2.098000450193670, -0.575967570750677, 2.245719528224039, -0.010753997802734, 55.737970611572266, 18.871716537475585, -15.629295749664307, 1.569268274307251, 1.257910076141358, -0.378808155059814, 0.305770948973486, -0.207912985912968, 0.929126642096010, 533.989347570134555, 0.161168817152188, -0.950479676196300, -0.265731062383646, 386.296708374525053, 0.938364928554781, 0.230999081007979, -0.257119982560382, 334.328481600548116, 0.000000000000000, 0.000000000000000, 0.000000000000000, 1.000000000000000
33, 1.095302128801852, 1.204170183345000, -0.722920353465353, -1.195155409743013, 2.044245401171649, -0.641658230628859, 0.908649863509990, 0.776976341247559, 67.044455051422119, 17.253147268295287, -15.762232360839842, 1.655545015335083, 1.694624147415161, 0.078264768600464, 0.304685366890975, 0.263446113594266, 0.915293926798703, 633.004225750477076, 0.949728973731193, -0.011405230887417, -0.312865461762559, 384.257848344797480, -0.071984051414232, 0.964606689765566, -0.253677414054762, 233.562166075225321, 0.000000000000000, 0.000000000000000, 0.000000000000000, 1.000000000000000
34, 1.081788387321758, 0.780051400556915, -0.806601072582312, -1.431100529731580, 1.810875535217242, -0.453292880281309, -1.703706292579892, 0.795795837402344, 54.777504182815548, 15.167539110183714, -21.151007175445557, 1.407719478607178, 1.159953958511353, 0.029203271865845, -0.308025523311580, -0.048790603162137, 0.950126177953067, 635.465640128312430, -0.791516209778684, 0.567235853517156, -0.227476539762345, 288.810253544724731, -0.527846915919960, -0.822108851386323, -0.213341673908424, 435.316412953756071, 0.000000000000000, 0.000000000000000, 0.000000000000000, 1.000000000000000
35, 0.611534862737360, 1.078840657445451, 0.178324277713461, -1.194848433816873, 1.306972578186746, -1.095623545745830, -2.094033665765187, 0.727239101409912, 69.757823122024533, -1.642339391708374, -20.423817501068115, 1.975561294555664, 1.875016929626465, 0.183062795639038, -0.322445081494418, -0.237568645109850, 0.916291606575510, 632.927675169214695, -0.946563699488366, 0.087883815856182, -0.310312097285064, 384.740791882987821, -0.006806778309639, -0.967386982428039, -0.253211559763406, 233.669893420159241, 0.000000000000000, 0.000000000000000, 0.000000000000000, 1.000000000000000
36, 0.460889710385144, 1.122941436603378, 0.455167093151610, -1.194847355203397, 1.119966658312486, -1.228108792416014, -2.013406766799329, 0.684223110198975, 69.557529912948610, -7.569903650283814, -18.994528837203980, 2.074603471755982, 1.773890171051025, -0.201586013793945, -0.351959300463313, -0.191351803072351, 0.916247312835534, 633.024767328503117, -0.925932659660803, 0.214467448856356, -0.310889728287248, 384.860885597365325, -0.137015913640891, -0.957803842570078, -0.252662697221307, 233.908373211041720, 0.000000000000000, 0.000000000000000, 0.000000000000000, 1.000000000000000
37, 0.721383136947874, 0.827388220039083, 0.377690337585538, -1.115627044678133, 1.549139632236115, -1.317848735692739, -1.104164103627657, -0.223145454406738, 65.281471536636360, -4.113991947174072, -23.898217077255246, 2.137990465164185, 0.961872337341309, -0.323906003952026, -0.362180009108318, 0.254111611088726, 0.896801499838282, 532.777252589371756, -0.075210453736438, 0.951017578034205, -0.299848218134966, 485.568606377718140, -0.929068904146005, -0.176047878089590, -0.325327705504918, 431.362498398515925, 0.000000000000000, 0.000000000000000, 0.000000000000000, 1.000000000000000
38, 0.583481500005881, 1.356435992424605, 0.792456691175232, -1.333591513134372, 0.960277916274234, -1.705131336786473, -0.441871015063859, 0.563912759780884, 64.988425096511833, -15.077300682067872, -9.731224050521849, 1.710568447113037, 2.160708366394043, -0.301878393173218, -0.267373957648074, 0.309566593505718, 0.912512844269532, 432.630768433728917, 0.070304809059740, 0.950733293658544, -0.301932837154642, 484.245295732126181, -0.961024661803577, -0.016574936333018, -0.275965343640967, 134.150688114394882, 0.000000000000000, 0.000000000000000, 0.000000000000000, 1.000000000000000
39, 0.349308397424125, 1.222072607965887, 1.510813122261861, -1.366132728341922, 0.690465748280156, -1.977513713635081, 0.304233510523699, 0.629780996322632, 59.990504617691045, -22.338192739486693, -8.286969013214112, 2.253759765625000, 0.637298830032349, -0.311056564331055, 0.212605142003693, 0.351933102998796, 0.911560280292657, 433.854593822001959, 0.956431184938002, 0.116083895467120, -0.267887882688390, 486.372542462973399, -0.200096082099774, 0.928799020362757, -0.311919761639918, 433.255264265696837, 0.000000000000000, 0.000000000000000, 0.000000000000000, 1.000000000000000
40, 0.671099097007374, 1.638231917938443, 1.549777372729721, -0.665351942026290, 0.345573082269601, -1.713804440152991, 1.152526892547406, -0.373701423645020, 76.462268627166736, -13.893636617660523, 0.245184412002563, 2.394619750976562, 0.256488164901733, -0.296538366317749, 0.512386616156844, 0.022982489215639, 0.858447296444454, 531.180400023482889, 0.655781128542604, -0.655880545219586, -0.373860698455786, 581.467903971269493, 0.554446631363856, 0.754514755052485, -0.351135895882720, 230.386206746854754, 0.000000000000000, 0.000000000000000, 0.000000000000000, 1.000000000000000
41, 0.697527638437707, 1.776897489311069, 1.965326685711538, -0.665291032271668, -0.087869583188019, -1.732234590107182, 0.090098720956795, -0.381766921997070, 76.244500171661372, -12.577035942077636, 10.453131475448608, 2.439518871307373, 0.189404077529907, 0.051397758483887, 0.292112577666211, 0.420911428813756, 0.858780420749777, 531.518536927675541, 0.918676534931387, 0.126161949040573, -0.374321501894754, 581.187578195640981, -0.265901609877907, 0.898285439995688, -0.349827960798005, 230.440700539427951, 0.000000000000000, 0.000000000000000, 0.000000000000000, 1.000000000000000
42, 0.458053493739776, 2.033407000056980, 2.186899124809691, -1.163883293900806, -0.449857793970019, -1.791787828857463, -1.728757547084286, 0.643223493576050, 66.350822193145746, -16.071243953704833, 16.198458127975464, 2.458887119293213, -0.385483188629150, 0.117480590820313, -0.367014895383939, 0.249984658419403, 0.895995389006691, 533.245889140818008, -0.174739269914406, 0.927538426476066, -0.330361400529910, 482.955623812438660, -0.913655435115502, -0.277813134976079, -0.296738281855688, 233.077783781409863, 0.000000000000000, 0.000000000000000, 0.000000000000000, 1.000000000000000
43, 0.603527273321529, 2.037952946144386, 2.825758170152921, -1.459441543831034, -0.805279895646475, -1.682504940367560, -1.361119577249245, -0.266161445617676, 65.138308940887455, -6.110242052078247, 15.787323045730592, 1.659506702423096, -2.205764842987061, -0.252149393081665, -0.006960200730867, 0.370030223499758, 0.928993643305758, 535.441913595574988, 0.702681355168357, 0.662793553743735, -0.258734648268281, 386.206732999838152, -0.711470637977807, 0.650985667132902, -0.264626515079241, 434.532657325060597, 0.000000000000000, 0.000000000000000, 0.000000000000000, 1.000000000000000
44, 0.079081952657838, 2.059529314580130, 1.586195844229254, -1.650317229818625, -0.265285294864716, -1.978888933382148, -1.451457623261495, 0.627092496871948, 49.549044876098634, -21.618486251831055, 11.775014400482178, 2.289414949417115, 0.380476913452148, 0.014351322174072, -0.284785635451720, 0.180299256827588, 0.941482511695135, 434.588081346135880, -0.240058842831337, 0.937441830610975, -0.252139973425919, 386.040448844192326, -0.928045739076927, -0.297817044858355, -0.223687536472190, 137.217445966205247, 0.000000000000000, 0.000000000000000, 0.000000000000000, 1.000000000000000
45, -0.209758839639279, 1.930648503387464, 1.445674365926708, -1.674133989273467, -0.183902724729559, -1.714390678467524, -1.359967144253993, 0.764205968856811, 51.159456047058107, -23.392881879806517, 9.168664484024047, 2.528436737060547, 0.240968711853027, -0.256988792419434, -0.227040056962662, 0.166896080419292, 0.959478249297538, 535.495228574854991, -0.235746828231130, 0.946487239485181, -0.220420821318412, 287.769321432174195, -0.944921290644545, -0.276238309856541, -0.175545295164093, 138.963713560016259, 0.000000000000000, 0.000000000000000, 0.000000000000000, 1.000000000000000
46, -0.874160972015097, 1.894638304378454, 1.854788929052830, -1.826091414273478, 0.022391805110900, -0.904056579730001, -0.891264707954870, 0.634485870361328, 50.492708183288570, -25.021135272979734, 7.600716772079467, 1.732577819824219, -1.293454629898071, -0.332917299270630, -0.001632042211470, -0.004377588871721, 0.999989086517393, 638.267236091423683, 0.669433459678579, 0.742859319236157, 0.004344523766993, -3.100145689862743, -0.742870230592793, 0.669433244274336, 0.001718126697269, 346.189762629144411, 0.000000000000000, 0.000000000000000, 0.000000000000000, 1.000000000000000
47, -0.871921959260691, 1.901882408840476, 1.861242104567583, -1.826095968273823, 0.022414766924312, -0.904055231517696, -2.672444700138399, 0.180129463195801, 50.282333101272584, -25.086723203659055, 7.707682323455810, 1.722453508377075, -1.264084482192993, 0.103129268646240, 0.008347213336602, -0.002836276419765, 0.999961139027705, 638.355682503948628, -0.861692382887749, 0.507357590469201, 0.008632071971435, -3.405743266679192, -0.507362357002120, -0.861730950430213, 0.001791024258915, 345.698166913385705, 0.000000000000000, 0.000000000000000, 0.000000000000000, 1.000000000000000
48, -1.222408615698771, 1.598714595538705, 1.829681258853007, -1.632689034220200, 0.417041199208058, -0.256800757328517, -3.019474177309402, 0.605584501266480, 54.639718585968019, -27.713321743011473, 0.212610540390015, 0.292724657058716, -1.355866193771362, 0.131831912994385, 0.197048940725729, 0.103074993390192, 0.974960132875432, 637.874359711811394, -0.957742859317996, 0.232768130760873, 0.168960388042517, -196.753647714843595, -0.209524056815100, -0.967054570869556, 0.144586052494844, 451.255051658923492, 0.000000000000000, 0.000000000000000, 0.000000000000000, 1.000000000000000
49, -1.298299978151367, 1.526012115432137, 1.827012731533026, -2.042375844119840, 0.295044330478541, -0.696159848939049, -1.575396529664964, 0.550470262527466, 44.323274068832397, -24.979317464828490, -3.738071861267090, 1.763390941619873, -0.468420480728149, -0.269838232040405, 0.082388198731738, -0.068420796819314, 0.994248851783270, 538.128971661872811, -0.148049246504749, 0.985730684595145, 0.080102671971429, -100.721124771653123, -0.985542289969901, -0.153797308202050, 0.071082928124043, 449.755700584390468, 0.000000000000000, 0.000000000000000, 0.000000000000000, 1.000000000000000
50, -0.937414460019065, 1.235635364999930, 0.977846178793378, -1.749518868413271, -0.553253180306949, -0.842177592397447, -1.311828670012734, 0.023524370193481, 55.127681236267094, -21.382985963821412, -7.804523563385009, 1.728616132736206, 2.497630685806274, -0.311724067687988, 0.117602642863381, 0.013064103833399, 0.992974797053066, 637.859900145074675, -0.892374278978365, 0.440100630062466, 0.099897856015351, -98.383195530266093, -0.435703757855485, -0.897853420447709, 0.063415067460013, 247.744117468489492, 0.000000000000000, 0.000000000000000, 0.000000000000000, 1.000000000000000
51, -1.022647465807995, 1.183600399847522, 0.065833601689259, -1.561352875626767, -1.231495402610993, -1.615117703794025, -1.128292662662352, 0.617010623931885, 62.838969785690310, -3.136335611343384, -11.521466426849365, -0.687132616043091, 2.745107555389405, -0.300376510620117, 0.197318940333039, 0.284529757274552, 0.938140742645330, 436.326096909166324, -0.936967413181590, -0.226756152608493, 0.265845281865211, -391.583582431722562, 0.288370078929223, -0.931463614146832, 0.221851826900018, 153.977830831870079, 0.000000000000000, 0.000000000000000, 0.000000000000000, 1.000000000000000
52, -0.855088167941861, 0.787191991286448, -0.325559109125596, -1.377639501754806, -1.003250566495781, -1.698837910985265, -0.630408279251703, 0.122326725006104, 61.174788625717163, 4.723651571273804, -22.050310144424436, -2.088689470291138, 1.603009311676025, -0.284189554214478, 0.123746779869108, 0.398608335939983, 0.908734355568878, 436.571429604652792, -0.893221012562699, -0.354167463910613, 0.276986696835050, -492.645947008447877, 0.432253348383206, -0.845976833031663, 0.312218258250897, 455.986300774486665, 0.000000000000000, 0.000000000000000, 0.000000000000000, 1.000000000000000
53, -0.633349208016255, 0.613662242378523, -0.448393339650832, -1.698626119753184, -0.970902363126649, -1.641125209468279, -0.909863446024469, 0.109556352615356, 51.033096572875976, 5.864617452621459, -20.232335958480835, -1.953551921844482, 1.568299137115479, -0.022361362457275, 0.057223974087308, 0.341665418309239, 0.938077906530810, 437.463060833198028, -0.825677726057925, -0.512013063620278, 0.236852095988176, -394.382833866205829, 0.561232313290557, -0.788103650932890, 0.252806103377232, 454.333953623921673, 0.000000000000000, 0.000000000000000, 0.000000000000000, 1.000000000000000
54, -1.013847149919393, 0.938555837607974, -0.469559907560294, -1.154884549129944, -0.902500098530059, -1.909159589691613, -1.418464482860842, 0.817303833007813, 66.518181283950810, 7.315475301742554, -21.651940498352051, -2.165282087326050, 1.132753196716309, 0.035878305435181, -0.296813522214721, 0.335115406208907, 0.894203219381328, 335.803259853375891, -0.220894553630175, -0.935098983318932, 0.277119987681195, -593.118881666928019, 0.929035698564387, -0.115271661380149, 0.351575190927408, 457.454112771333541, 0.000000000000000, 0.000000000000000, 0.000000000000000, 1.000000000000000
55, -0.508029149600681, 1.419454200119114, -0.910372416049653, -1.081034369851924, -0.304229711476428, -1.885421656505185, -1.451253861471170, 0.122326725006104, 70.838599901199331, 16.364848985671998, -11.778535900115966, -2.285893449783325, 1.021280136108398, 0.033708919525146, -0.212426572124503, 0.391143894436196, 0.895478310904692, 534.785215441312289, -0.252756906086512, -0.907200633438828, 0.336304857404354, -489.499967483917601, 0.943922082526417, -0.154898239284618, 0.291577841382911, 255.314917758992607, 0.000000000000000, 0.000000000000000, 0.000000000000000, 1.000000000000000
56, -0.017297311115931, 1.121763716896161, -0.952284995587168, -1.459251683751810, -0.343095176025122, -1.550163264754189, -1.690253700564484, 0.199621084213257, 61.863044485092161, 18.874797849655153, -13.762900943756105, -2.193013896942139, 1.186153465270996, 0.077597265243530, -0.187310808824808, 0.254831903422754, 0.948670312540312, 636.911049032660571, -0.054432051376256, -0.966972453483598, 0.249000855393878, -292.796382790438656, 0.980791421598073, -0.004997519569427, 0.194995415632738, 351.142905851716250, 0.000000000000000, 0.000000000000000, 0.000000000000000, 1.000000000000000
57, -0.172481818210557, 0.990129470024455, -1.226388726534200, -1.698591605212767, -0.430772196687923, -1.965214723112858, -3.019478611481986, 0.755468345642090, 51.103669683456417, 19.676379203796387, -13.313469552993773, -2.229549455642700, 0.981229934692383, 0.094618600845337, -0.243644812167130, -0.239218919431992, 0.939899736189895, 437.281513814951040, 0.969497107706577, -0.086745646646144, 0.229239069393774, -394.203153802717281, 0.026693887926359, 0.967082985774092, 0.253057177281425, 454.274856509057145, 0.000000000000000, 0.000000000000000, 0.000000000000000, 1.000000000000000
58, -0.739684875993284, 1.398652192274610, -0.551861691887794, -1.219131978798009, -0.734120156831677, -1.979332020118845, -3.019478731309747, 0.955761554718018, 68.663603845596313, 10.560977401733398, -12.906736345291137, -1.685477762222290, 2.090620513916015, 0.084606050491333, -0.410968825507290, -0.064117366740762, 0.909391877984068, 435.430219149445975, 0.776504522494983, -0.547257379834644, 0.312330092628551, -490.107113285690616, 0.477645633295226, 0.834504837312973, 0.274693147885511, 154.795272376228979, 0.000000000000000, 0.000000000000000, 0.000000000000000, 1.000000000000000
59, -0.682375383766667, 1.235327400399312, -0.384920450452003, -1.561496506515648, -0.871838650899497, -1.895181309687551, -2.675603022751008, 0.084015607833862, 62.705889062881468, 7.451493225097656, -10.218071374893189, -1.210075311660767, 2.276019571304321, -0.156529537200928, -0.305415558116684, 0.155537981954150, 0.939430291735318, 436.197085245343430, 0.353831096934084, -0.897392237889031, 0.263610937214182, -391.812097906615293, 0.884038965036439, 0.412910532132746, 0.219043376414708, 153.883725169172635, 0.000000000000000, 0.000000000000000, 0.000000000000000, 1.000000000000000
60, -0.250276635161499, 0.891446448707881, 0.024138955361081, -1.749693598451393, -0.360876553946741, -1.160480552980200, -2.250704186816710, 0.116277601242065, 58.603911026000972, -0.659840993881226, -15.036803436279296, -0.121051549911499, 2.580734853744507, -0.263663825988770, -0.018742345631201, 0.113299538222950, 0.993384084389672, 637.701435661656660, -0.348951698495376, -0.931822794801566, 0.099694489343150, -98.224838691016416, 0.936953273433330, -0.344774554929255, 0.057000611188843, 247.018360499741789, 0.000000000000000, 0.000000000000000, 0.000000000000000, 1.000000000000000
61, -0.522051112196086, 0.812783374688253, 0.271225689449685, -2.042323023693584, -0.439299787700628, -1.279014334284962, -2.011270938237432, 0.730599725723267, 50.031630527496340, -5.103973531723023, -10.232157373428343, 0.448991203308105, 2.957540498733521, -0.250814386367798, 0.021147563085349, 0.102861386909835, 0.994470872202166, 537.854047565160954, -0.715423803392891, -0.693263069969180, 0.086920063022056, -98.668059704243035, 0.698370648090541, -0.713306281270460, 0.058928660138386, 247.658802669958732, 0.000000000000000, 0.000000000000000, 0.000000000000000, 1.000000000000000
62, -0.090342060651316, 0.644503375506005, 0.099978516005205, -1.825982357811624, -0.018837188235135, -0.899780368605862, -0.556409315782025, 0.032934118270874, 52.417673789978025, -0.740835485458374, -18.853668851852419, 0.463077201843262, 2.634135122299194, -0.303380275726318, 0.005218026859077, -0.009785474441127, 0.999938506452102, 637.871856021958479, -0.780673386422170, 0.624856186501330, 0.010188715481170, -1.528873575104226, -0.624917463292425, -0.780678545036929, -0.004378743105478, 344.604693341568293, 0.000000000000000, 0.000000000000000, 0.000000000000000, 1.000000000000000
63, -0.126554912893869, 0.914445913999096, 0.435209883296260, -1.766055690651216, 0.272816133927799, -1.097694449804956, 0.994651837150026, 0.699681982040405, 57.021056974411010, -7.980598545074463, -14.266915578842163, 1.338610048294067, 2.649821451187134, -0.324072879791260, 0.039751382032627, 0.099748515752922, 0.994218316684814, 637.035330193722984, 0.876270991514954, 0.474675290453525, -0.082659047068431, 95.179912842795986, -0.480175985505206, 0.874490481502200, -0.068537731988692, 242.520523499417749, 0.000000000000000, 0.000000000000000, 0.000000000000000, 1.000000000000000
64, -0.299065852795627, 0.964178469875544, -0.176113218152323, -1.621492951830388, -0.569445497905631, -1.302090828155463, 0.963013033959214, 0.912073438644409, 61.843552864074709, 3.680847492218017, -16.280332994461059, -0.759763545989990, 2.636972011566162, 0.001501882553101, 0.092421549881032, -0.202070583404972, 0.975000377661446, 637.200946805080775, 0.176281594839449, 0.967044363861130, 0.183711724300012, -194.534143030590911, -0.979991355287611, 0.154895699252101, 0.124997063624529, 249.261978071637827, 0.000000000000000, 0.000000000000000, 0.000000000000000, 1.000000000000000
65, -0.519650312492568, 1.223074788783957, -0.382690455868373, -1.126918970896503, -0.735414788749518, -1.545677689223749, 0.436602929618120, 1.015580667495728, 72.055145902633654, 7.101544198989869, -19.327750740051268, -1.711889009475708, 1.966464889526367, -0.123154369354248, 0.403771777369804, -0.072007668786614, 0.912021516980574, 635.305457354805753, -0.603487583088848, 0.728276952542344, 0.324677405208952, -388.886737088087614, -0.687583514096441, -0.681489233980665, 0.250601945545590, 252.662708921777465, 0.000000000000000, 0.000000000000000, 0.000000000000000, 1.000000000000000
66, -1.465704499728737, 1.268401164648422, 0.795028925298916, -0.959272278013461, -1.885795827978331, -1.339895365205270, 0.869020039095750, 0.819320207595825, 71.360840919494635, -16.744290571212769, -16.752213945388792, -1.821055498123169, 1.175473411560059, -0.284690181732178, 0.466981149289636, -0.122335590285598, 0.875764014765168, 434.872552477707245, -0.389528313601775, 0.860655669211261, 0.327932175849022, -590.071213846455521, -0.793849040504987, -0.494273024151623, 0.354256797373489, 357.803207805927514, 0.000000000000000, 0.000000000000000, 0.000000000000000, 1.000000000000000
67, -1.222022603792000, 1.262362733195968, 0.777310009067780, -0.610093040626156, -1.846630326408997, -1.279667624331373, 2.419529737852513, -0.131736473083496, 76.480415998458852, -11.552719736099242, -19.638082895278931, -2.113780155181884, 0.616939977645874, -0.330414161682129, 0.001183170349180, -0.515836051389728, 0.856686505201628, 534.483927672051664, 0.740463167456190, 0.576228214623473, 0.345941241127148, -589.606620070538952, -0.672095899220246, 0.633935495739511, 0.382639372638035, 458.331321113388015, 0.000000000000000, 0.000000000000000, 0.000000000000000, 1.000000000000000
68, -0.874954777101345, 1.079165579719603, 0.623612744369134, -1.621553532099572, -0.881742462300161, -0.963266350501143, 2.519336879433245, -0.070573110580444, 59.946816501617434, -14.518262615203858, -13.194618940353394, 0.495651073455811, 2.619783800125122, -0.339759208679199, -0.221992157077483, -0.006174295706550, 0.975028902273473, 637.185180876109939, 0.822733377797038, -0.537853301752695, 0.183911975826485, -195.050030442336094, 0.523286987469364, 0.843015838443296, 0.124479013809495, 250.247688834212084, 0.000000000000000, 0.000000000000000, 0.000000000000000, 1.000000000000000
69, -1.381717733418967, 2.041528529420448, 1.318421971140735, -1.940385686110235, -0.717434280890513, -0.557168995754445, 2.519101389466109, 0.508126396179199, 38.806473196029657, -23.209763898849488, 14.141902341842652, 1.555182275772095, 0.366292467117310, -0.192240966796875, -0.021211055150384, 0.103139366030291, 0.994440728406815, 537.915633478662699, -0.371760973994523, -0.924155735032093, 0.087920166184648, -99.981438381018364, 0.928086132508212, -0.367829374278567, 0.057945509435908, 149.345213573606628, 0.000000000000000, 0.000000000000000, 0.000000000000000, 1.000000000000000
70, -1.555658061815434, 1.797968932522166, 1.729023027589341, -1.748274156915328, -0.108379193994325, 0.065690869644942, 3.019390377670749, 0.609617250442505, 50.144547504425049, -27.245842666625975, 5.283570013046265, -0.325298528671265, -0.331749168395996, -0.341928594589233, 0.125359750934971, 0.265709020312499, 0.955868008341159, 536.998023342264673, -0.903741828346550, -0.366910552282219, 0.220516108982522, -295.303025549907431, 0.409311178130230, -0.891501746015413, 0.194136540375877, 353.846547555412201, 0.000000000000000, 0.000000000000000, 0.000000000000000, 1.000000000000000
71, -1.284065505302772, 1.653863182203678, 1.367237014793566, -1.126630989934006, 0.773613259231963, 0.679876642894249, 2.548365937884133, -0.151228094100952, 65.506633365631103, -25.154071884155272, -0.398809833526611, -1.775276002883911, -1.996836292266846, -0.012682563781738, 0.275547750993802, 0.305837778150979, 0.911337857426065, 635.388157921480001, -0.936431776518731, -0.128790982591339, 0.326356263505286, -389.969348379589178, 0.217184172646701, -0.943332463269886, 0.250908148319137, 254.530152138344505, 0.000000000000000, 0.000000000000000, 0.000000000000000, 1.000000000000000
72, -1.294647126531414, 1.724151200496608, 1.478636437175965, -1.126727672665976, 0.589593520560901, 0.634848494438516, 0.998151590288040, 0.678173986434937, 64.855344373702991, -25.747004384994504, 2.516551675796509, -1.626052455902100, -1.523910163879394, -0.013683818817139, -0.322258033237319, 0.251528590228113, 0.912624308416050, 635.183770435750148, 0.194619238561297, -0.925858133982731, 0.323898236672936, -390.141843713920707, 0.926430306065079, 0.281993056715718, 0.249412918607457, 254.927385851269236, 0.000000000000000, 0.000000000000000, 0.000000000000000, 1.000000000000000
73, -1.313778323649034, 1.451259553971602, 1.476175476573157, -0.610046481950376, 0.566245038790687, 1.111971166984509, -1.050449249745521, 0.780336965560913, 75.960191354751586, -17.220133209228514, -4.384267044067383, -2.478695554733276, -0.646477001190185, 0.044722724914551, 0.232312140749706, -0.461899142910817, 0.855967435734878, 533.937682490029488, 0.403831916920956, 0.846411616190758, 0.347141410455877, -589.924079095198636, -0.884845100645438, 0.265021806188854, 0.383161310818515, 459.000499449195161, 0.000000000000000, 0.000000000000000, 0.000000000000000, 1.000000000000000
74, -1.488153649399292, 1.472449341414156, 0.741014795337876, -1.219642297090038, 1.212197732553391, 1.254115279472485, -1.890651632141334, 0.757484720230102, 64.588510803222647, -18.284066286087036, -8.009210729598998, -2.067560472488403, -2.429211591720581, 0.131665037155151, 0.174774468656350, -0.382447355204154, 0.907297032731419, 435.305285480821851, 0.319447460086634, 0.893658673674277, 0.315162648819512, -489.952152276394770, -0.931346984399525, 0.234751348162434, 0.278360556088378, 156.051211977181396, 0.000000000000000, 0.000000000000000, 0.000000000000000, 1.000000000000000
75, -1.227345277464359, 1.222795466508953, 0.337384782717681, -1.561503097915185, 1.714926618989250, 1.425818812173568, -0.738231788708978, -0.119638225555420, 60.378320663452143, -10.113746948242188, -8.656286287307740, -1.251012744903564, -2.824373579025268, -0.309888433456421, -0.298882092801853, -0.176464334102925, 0.937832518839049, 436.203556168316595, 0.945161258976242, -0.190347593425717, 0.265401560295871, -392.179592998753435, 0.131680253389903, 0.965726737988883, 0.223678739268000, 154.836362447544673, 0.000000000000000, 0.000000000000000, 0.000000000000000, 1.000000000000000
76, -1.152572462603250, 1.135855817129182, 0.049637431123541, -0.959429001707877, 1.887371226212965, 1.660115831713994, -0.599167232560891, -0.145851095199585, 72.586796669006347, -2.940452194213867, -22.275245933532716, -2.621316289901733, -1.607514959335327, -0.302212144851685, -0.168581573241990, -0.450691011177736, 0.876617285710729, 434.622446078974349, 0.896942822129363, 0.298653951009722, 0.326035874371052, -590.158633092538253, -0.408746653801434, 0.841239222807563, 0.353896514557939, 357.742283194229572, 0.000000000000000, 0.000000000000000, 0.000000000000000, 1.000000000000000
77, -0.473063615559847, 0.638142538435094, -0.867178812784650, -1.864614105931315, 2.221884594753892, 1.930442704252489, -0.902287648174387, 0.139801971435547, 43.574526971817015, 10.242281684875488, -16.721400823593140, -2.203138208389282, -1.831796087265015, -0.025365127563477, -0.018004336722235, -0.317190575260510, 0.948190899990661, 337.232155348620324, 0.791868589403945, 0.574464448410064, 0.207206984989230, -395.424655260650752, -0.610426065117307, 0.754573214790207, 0.240830402039638, 455.485574036517960, 0.000000000000000, 0.000000000000000, 0.000000000000000, 1.000000000000000
78, 0.031237481419486, 0.325998840303186, -0.359775299579244, -2.042395498272524, 2.677019186635099, 0.954869723213955, -2.543397188294826, -0.200965333938599, 37.456846471786498, 2.332113132476807, -20.391683816909790, -1.513804655075073, -2.391831403732300, 0.135836933135986, 0.083631442675729, -0.063483860979866, 0.994472514045042, 538.171665975183487, -0.213714023847026, 0.973604854976507, 0.080124293302896, -99.312295467913103, -0.973309867312096, -0.219233632824128, 0.067856587238427, 448.011769877760344, 0.000000000000000, 0.000000000000000, 0.000000000000000, 1.000000000000000
79, -0.712398923079307, 0.618631980587768, 0.391417128734644, -1.632616170105588, 2.340018899842111, 0.856490112552195, -3.019395800463270, 0.783025465011597, 52.059431238174440, -7.239322872161865, -22.160357007980345, -1.280945491790772, -2.381318225860596, 0.132165664672852, 0.219653796746107, -0.044818527864046, 0.974547848561126, 637.994449494104515, -0.605186838074531, 0.777247631063999, 0.172148224001159, -195.584676328942777, -0.765180436626795, -0.627596542027998, 0.143601810009927, 449.993474012229683, 0.000000000000000, 0.000000000000000, 0.000000000000000, 1.000000000000000
80, -1.060200993259351, 1.473676016679629, 1.228758577077709, -1.749853288278328, 2.600122551360950, 0.701537380382313, -2.455344713821845, 0.754796220779419, 52.181085838317870, -26.305602264404296, -1.225481872558594, 0.873772096633911, -1.532087080001831, -0.268336349487305, -0.066793634327872, -0.092720665514967, 0.993449288388560, 637.630325450665850, 0.931947069936357, 0.349843708275888, 0.095310223044612, -98.792332023469598, -0.356389210344973, 0.932208269629828, 0.063043419826736, 248.391887114421365, 0.000000000000000, 0.000000000000000, 0.000000000000000, 1.000000000000000
81, -1.148521015579883, 2.059355063962136, 1.313852176438125, -1.994915766868043, 2.581828680019816, 0.910018851449886, -3.019409612344456, 0.594158378601074, 37.884990009307863, -22.315302991867064, 14.371240005493163, 2.230870018005371, -0.322404121398926, 0.107468040466309, -0.003433136747715, 0.000603702373580, 0.999993924539302, 537.985994056504978, 0.960517229182635, 0.278202907439082, 0.003129654254853, -2.961069495634908, -0.278199327848549, 0.960522138128990, -0.001534975155972, 146.619622488552551, 0.000000000000000, 0.000000000000000, 0.000000000000000, 1.000000000000000
82, -0.848007947769295, 2.058526025314361, 1.353375431048359, -1.965567478752517, 2.672252868644337, 1.247810438672566, -3.019409881997825, -0.003360624313354, 40.170214542388919, -22.210538377761843, 13.209585313796996, 2.552206859588623, -0.214101701736450, 0.094117973327637, 0.059916793316716, 0.077199838482060, 0.995213626723924, 537.430516054474083, 0.969046094124212, 0.234712643477629, -0.076548301446555, 93.608273871751607, -0.239498737661081, 0.968994406552529, -0.060746972999991, 144.323351999409795, 0.000000000000000, 0.000000000000000, 0.000000000000000, 1.000000000000000
83, -0.193695154671642, 1.967454844314962, 1.722000870975721, -1.753495563802983, 2.922112117184153, 1.745730684945020, -3.019410061766738, -0.059146987915039, 51.442420614242550, -23.071985225677487, 9.273429098129272, 2.632320976257324, 0.194577228546143, 0.081268533706665, 0.204679155843979, 0.201325014136128, 0.957901185846475, 536.940986252042649, 0.975007095174854, 0.044462895841237, -0.217679156678138, 287.696161806386726, -0.086415319947856, 0.978514838710430, -0.187192689231740, 237.344075444478591, 0.000000000000000, 0.000000000000000, 0.000000000000000, 1.000000000000000
84, 0.828200390952321, 1.728200430351871, 2.463339989448944, -0.938805409055124, 2.602578071139804, 1.953470901753774, -1.833466865778953, -0.461749780654907, 73.384608880996694, -10.584747524261473, 14.969014568328857, 2.318907508850097, 0.866085605621338, -0.280351409912109, 0.401705622676088, -0.261464459025299, 0.877649662095887, 432.759131522590280, 0.055393339335092, -0.949682228219495, -0.308277867128606, 584.186862193506386, 0.914091992453562, 0.172452898121960, -0.367009301328473, 429.699322150949286, 0.000000000000000, 0.000000000000000, 0.000000000000000, 1.000000000000000
85, 0.621028406114394, 2.000061014077671, 2.615376420431738, -0.796350875197445, 2.409769437567510, 1.502726766518769, 1.335856321855093, 0.479897151947021, 74.526549022674558, -6.539424819946289, 21.970196027755737, 2.846692266464233, 0.833544816970825, -0.295703987121582, -0.391167219776085, 0.284961476678317, 0.875091516918065, 632.229700138699968, -0.171486615689383, 0.911634838669770, -0.373516079390091, 481.238812055637993, -0.904201607392980, -0.296173728971453, -0.307734586056060, 231.318786996997829, 0.000000000000000, 0.000000000000000, 0.000000000000000, 1.000000000000000
86, 0.312628789598583, 1.782992785990316, 2.374292195101716, -1.151316815417642, 2.802339856112260, 1.660190103927520, 1.469619746002548, 0.717829353332520, 70.414489112854000, -14.000161981582641, 13.492185659408570, 2.300859823226928, 1.190158485412597, -0.336087940216064, -0.233618368787041, 0.330324464277696, 0.914498882484246, 634.694763105245215, 0.176002967432852, 0.939354322192386, -0.294340640811481, 385.175552940341731, -0.956266392392890, 0.092191136657144, -0.277588510392183, 433.330180394852334, 0.000000000000000, 0.000000000000000, 0.000000000000000, 1.000000000000000
87, 0.191086608372955, 2.036684505749918, 2.499998594854956, -1.719895422432873, 2.677819205595259, 1.749233703812227, 1.932338189250229, 0.786386089324951, 57.607149854660037, -12.536978883743286, 10.323276176452637, 1.800806875228882, 1.816610385894776, -0.414853336334228, 0.026094091228815, 0.287621833149728, 0.957388520663650, 536.976432029660145, 0.758694256053422, 0.617913780560537, -0.206314288465267, 288.860204703338809, -0.650924054121898, 0.731748755304015, -0.202093134164766, 436.895560604743196, 0.000000000000000, 0.000000000000000, 0.000000000000000, 1.000000000000000
88, 0.221965821366722, 2.056278443811461, 2.543158672308561, -1.719896860529634, 2.643652755650789, 1.733330397749330, 3.019356132729159, -0.223145454406738, 57.746279701232908, -11.569446859359740, 10.676746702194214, 1.771314315795898, 2.112314373016357, -0.341261091232300, 0.268121195900714, 0.106924170903411, 0.957433154839224, 537.064193221188361, 0.888761251946719, -0.410970730273192, -0.202993832164478, 288.072461997374091, 0.371772055629349, 0.905356438390614, -0.205220023676518, 437.263967163901327, 0.000000000000000, 0.000000000000000, 0.000000000000000, 1.000000000000000
89, 0.079059901622678, 2.058258687179028, 1.585098808311646, -1.650128837779467, 2.877939318967312, 1.979395836119376, 3.019361585519527, 0.658682365417480, 49.858222312927246, -21.623328313827514, 11.346712007522584, 2.508628301620483, -0.392491973876953, -0.327410396575928, 0.110180884212110, 0.322114831380610, 0.940267094053003, 434.591924183384492, 0.849938613968158, 0.459873867609065, -0.257138830938011, 386.009542020014010, -0.515232496296696, 0.827501094437295, -0.223108523963013, 136.990525757089472, 0.000000000000000, 0.000000000000000, 0.000000000000000, 1.000000000000000
90, -0.235623014075867, 1.363641567543519, -0.991503521273589, -1.437535698957168, 2.914549112662923, 1.907664647557480, 1.893661470268042, 1.044482036590576, 63.147475097656255, 19.504265909194949, -8.124539842605589, -2.440399246215820, -1.244893760681152, -0.050563379287720, -0.083888151308723, 0.363632172569604, 0.927757738389885, 535.834123020260904, -0.454569617885419, -0.842486248712058, 0.289107909311711, -391.760469507426592, 0.886752073899751, -0.397477752589242, 0.235970751643285, 253.914477726394182, 0.000000000000000, 0.000000000000000, 0.000000000000000, 1.000000000000000
91, -0.993906897683037, 1.281054798383888, -0.529861591107739, -1.099579538367228, 2.296155150653492, 2.050933749156331, 2.079368060430801, 0.895942441940308, 70.468259101867687, 8.397896251678466, -16.163683319091795, -1.942987422943115, -1.715984254837036, -0.333584802627564, -0.021748551713755, 0.449944124402246, 0.892791848873101, 335.334477688050129, -0.691715732199381, -0.651531997152798, 0.311505060173926, -591.232635387990399, 0.721842327884857, -0.610783383534607, 0.325403306792952, 257.105692139680627, 0.000000000000000, 0.000000000000000, 0.000000000000000, 1.000000000000000
92, -0.791674360974305, 0.581941257469273, -0.234134543349885, -1.698641070079915, 2.085697205256867, 1.560920424926519, 2.170924332842333, 0.177440963745117, 50.668132772445674, 1.772194690704346, -19.860377559661863, -2.130067090988159, -1.741182506561279, -0.323071624755859, 0.053536426864166, 0.341958692165200, 0.938188735730335, 437.073054025863655, -0.819441837438103, -0.521877625508411, 0.236978520228667, -394.278271404227610, 0.570656574530324, -0.781478084687196, 0.252275795705707, 455.063433726401684, 0.000000000000000, 0.000000000000000, 0.000000000000000, 1.000000000000000
93, -1.095686253244121, 0.988979254033683, 0.723241380928201, -1.163677045398091, 1.637961098449396, 0.948724811951035, 1.370765649912717, 0.811254709243774, 64.675887035369868, -15.513966636657713, -20.608256044387815, -2.026623039245606, -1.653739566802979, 0.076429134368896, -0.211936624888163, 0.351011912116270, 0.912070997556382, 636.058112322762554, -0.227059364517872, -0.925418890853588, 0.303387411466026, -391.102356386718384, 0.950540326349048, -0.142795357080668, 0.275830698038580, 455.074750782287026, 0.000000000000000, 0.000000000000000, 0.000000000000000, 1.000000000000000
94, -1.453504798478636, 1.381515499664400, 1.096368724868343, -1.706802536885404, 1.622612661942056, 0.680109586262385, 2.411455246475871, 0.643895618438721, 52.230150953292849, -24.797960233688354, -2.977427940368652, -0.732471923828125, -2.551531581878662, -0.304882158279419, 0.283332142598000, 0.083913212278504, 0.955343639627087, 536.901416759198924, -0.889610277941622, 0.395083274914016, 0.229134805876033, -293.854469605619158, -0.358212856206276, -0.914804776271046, 0.186589846884077, 253.156001045720956, 0.000000000000000, 0.000000000000000, 0.000000000000000, 1.000000000000000
95, -1.244800301003725, 1.286318269942671, 0.886795850387901, -0.610020745816129, 1.188625337344974, 1.249195695208193, 2.749433697756493, -0.057802738189697, 76.012617094039911, -13.291019992828367, -17.586369171142579, -2.694387407302856, -0.950357904434204, -0.290197084426880, 0.163156811586597, 0.490589626692854, 0.855979948955734, 534.441490291333253, -0.881668529550758, -0.316861046917098, 0.349656518524115, -589.898405977663515, 0.442764563659627, -0.811739425633599, 0.380839396648159, 458.603408326604949, 0.000000000000000, 0.000000000000000, 0.000000000000000, 1.000000000000000
96, 0.643827015861193, 1.142136240009311, 0.449820870569804, -0.809971695844977, 1.403279678911937, -1.289262464436416, 2.695845397261943, -0.473175903320313, 74.943938562393186, -4.786158189773559, -22.654247331619263, 2.114660530090332, 0.900962656021118, -0.023195741653442, 0.089020058335124, -0.474008468022100, 0.876008790742052, 631.812509584506302, -0.543844530111168, -0.759956994993001, -0.355947317491466, 482.852296810743326, 0.834451050860489, -0.444726138207043, -0.325438328586657, 330.496469748259869, 0.000000000000000, 0.000000000000000, 0.000000000000000, 1.000000000000000
97, 1.208627176545518, 1.101194712251862, 0.004027658349314, -1.503316809869233, 1.648018403790882, -1.308612883034525, 3.019349181846338, -0.295734939575195, 62.374531505584713, 2.695267782211304, -12.501763887405396, 1.155051879882812, 2.529837722778320, -0.310222185134888, 0.245835369725381, -0.292555220367667, 0.924108442785592, 333.045273674663463, -0.114544104417231, -0.955453729373033, -0.272007020443254, 484.748102277988608, 0.962519931811929, -0.038982227524711, -0.268394796525514, 134.427506186815720, 0.000000000000000, 0.000000000000000, 0.000000000000000, 1.000000000000000
98, 1.071748363194216, 1.913164418043506, -1.234663534257603, -1.994848894959620, 0.546263932356304, -1.026567086313239, 3.019352687231054, 0.657338115692139, 40.984829875946048, 23.241897583007812, 11.633714227676393, -2.209300832748413, 0.350439262390137, -0.286358940124512, -0.004334224238391, 0.004973391306229, 0.999978239702828, 537.599286577945009, 0.942836277750837, 0.333247434502812, 0.002429146813239, -3.284546701918480, -0.333228101841963, 0.942826289820245, -0.006133462854967, 144.592924567009959, 0.000000000000000, 0.000000000000000, 0.000000000000000, 1.000000000000000
99, 0.786452954032108, 2.054999577256385, -1.578391327471402, -2.042415002545058, 0.438589554498474, -1.279930138812992, 3.019353406306704, 0.760845344543457, 40.991551124572752, 21.794561233520508, 11.428586874008179, -2.546484422683716, -0.399667634963989, -0.271340114593506, -0.021663868379546, -0.095238537656499, 0.995218718549790, 537.978360417408339, 0.753331519825965, 0.652893489526675, 0.078877833200356, -100.186861764688359, -0.657284031483753, 0.751438428800878, 0.057601993695805, 247.270033282847322, 0.000000000000000, 0.000000000000000, 0.000000000000000, 1.000000000000000
100, 0.373902933079548, 1.580255683431138, -1.811845286770649, -1.632664406642735, 0.105033677772887, -1.398137859288974, 3.019353735901225, 0.978613800048828, 57.034499471664432, 25.403217983245849, 0.250466661453247, -2.519632987976074, -0.426200893402100, -0.274844507217407, -0.035832254817546, -0.213968247463843, 0.976183199298135, 638.363110867724799, 0.751450599108188, 0.638182808400356, 0.167465519323174, -196.860337150771898, -0.658815639321530, 0.739554117113472, 0.137919038736055, 449.620151029624878, 0.000000000000000, 0.000000000000000, 0.000000000000000, 1.000000000000000
101, -0.109553252589824, 1.926456721147714, -1.590888896646952, -1.668028146496769, 0.640607537762512, -1.998799914101695, 3.019354095384509, 0.924171686172485, 52.228134578704832, 22.845728874206543, 8.559004859924315, -2.318907508850097, -0.229454278945923, -0.263830701828003, -0.060335971433182, -0.337564042606455, 0.939366854690116, 436.504519209379680, 0.792455911125315, 0.556021029138639, 0.250707487080374, -393.583481513063532, -0.606937558134081, 0.759533496492944, 0.233956552016485, 253.144848662689895, 0.000000000000000, 0.000000000000000, 0.000000000000000, 1.000000000000000
102, -0.155951048065411, 1.866348942370947, -1.705487058504110, -1.126664635627706, 0.580725242151260, -1.604675848586265, 2.548987949121473, 1.120432146072388, 67.043110801696770, 20.970090131759640, 7.957268610000611, -2.480456304550171, -0.168043970108032, -0.017521963119507, 0.006868243244026, -0.405047653183509, 0.914269777409968, 635.363340853118075, 0.599303872620133, 0.733567634681671, 0.320489303425324, -390.068380244390596, -0.800492158298413, 0.545724219728307, 0.247784948099513, 252.796978223578606, 0.000000000000000, 0.000000000000000, 0.000000000000000, 1.000000000000000
103, -0.652318708069219, 1.675352035958377, -1.676215139833370, -0.959315930552416, 0.544874816864981, -1.923567684021549, 2.315520986955689, 1.031039539337158, 71.559789878845208, 18.618608751296996, 3.397806959152222, -2.076364221572876, -0.196579738616943, -0.017688838958740, 0.256872008552342, -0.404471041681154, 0.877735693511234, 434.888958787934314, 0.302808349893885, 0.896162733354281, 0.324344660171131, -590.955998789752584, -0.917782040822781, 0.182470632673716, 0.352676330017802, 357.151717838159755, 0.000000000000000, 0.000000000000000, 0.000000000000000, 1.000000000000000
104, -0.707697481682028, 1.537401443403586, -1.750774455712268, -0.610335900955091, 0.537791516698979, -1.635816018137128, 2.682350261209820, 1.137235267639160, 77.669404880523672, 12.620174312591553, 3.243741350173950, -2.218984956741333, -0.571215997695923, -0.292867097854614, 0.100944284626508, -0.504254155889908, 0.857635119190556, 534.546888972959891, 0.616151134275918, 0.708509286107898, 0.344052861097499, -590.323692379614727, -0.781132531092990, 0.493702681546933, 0.382216733152312, 457.810322286713131, 0.000000000000000, 0.000000000000000, 0.000000000000000, 1.000000000000000
105, -0.690633023995235, 1.663291831075788, -1.343353173609001, -0.889158929817501, 0.208151509460644, -2.003819446772609, 2.758987132324908, 0.049737239837646, 72.319963098526003, 17.163349027633668, -2.052594099044800, -2.080766096115112, 0.515646343231201, -0.287360195159912, -0.093334537476981, -0.470010634976295, 0.877712177836868, 434.387955056247051, 0.813610179583779, 0.472114074687553, 0.339332839789440, -589.852214874992910, -0.573870316179194, 0.745787036285222, 0.338340888332014, 256.538758149698708, 0.000000000000000, 0.000000000000000, 0.000000000000000, 1.000000000000000
106, 0.075095669847306, 1.144346760263711, -1.138910266471477, -1.748356698226133, -0.271348114282745, -1.778958086928266, 3.019398556883572, -0.029573493957520, 53.812332880020136, 20.835832958221438, -9.589043502807616, -2.301300010681152, 1.020112005233765, -0.287360195159912, -0.206490010727760, -0.198393451523147, 0.958124164115686, 537.307825432484492, 0.976361829229357, 0.022142170119249, 0.215005355110784, -293.926368949061441, -0.063870602733601, 0.979872319588192, 0.189131656290806, 351.723910213197257, 0.000000000000000, 0.000000000000000, 0.000000000000000, 1.000000000000000
107, -0.150353965656220, 1.122105686673763, -0.845045806927537, -1.937554952307623, -0.459583615646570, -1.999699509920605, 3.019405058344111, 0.883172069549561, 51.651451446533201, 15.845867977142333, -6.386679773330688, -1.768233003616333, 2.179398460388184, -0.274177003860474, -0.243176818664751, -0.102775620795739, 0.964521750213100, 437.317003718770877, 0.927743212571027, -0.314883881826422, 0.200351372579064, -295.027549852888058, 0.283121116119024, 0.943549316536224, 0.171921845242377, 252.303360977953758, 0.000000000000000, 0.000000000000000, 0.000000000000000, 1.000000000000000
108, -0.074904551440234, 1.597673795547612, 1.153151001016006, -1.386190665620694, 0.216420384908101, -1.496032887847493, 3.019408563728826, -0.054442113876343, 62.420235996246340, -22.376929235458377, -2.526675987243652, 2.373930940628052, 0.985401830673218, -0.262996322631836, -0.012498020578845, -0.311000593967442, 0.950327538290620, 634.672248721984147, -0.622730753138610, -0.741171088598269, -0.250742550281114, 286.925156268213641, 0.782336378150109, -0.594931969201484, -0.184406462590154, 137.806942459839206, 0.000000000000000, 0.000000000000000, 0.000000000000000, 1.000000000000000
109, -0.158132926048738, 1.356771910218491, 1.659633886094210, -1.431418800828668, 0.414115130896689, -1.558396457228745, 2.032420159046771, 0.887876943588257, 60.221043445587156, -24.902724847793579, -4.669068326950073, 2.541642360687256, -0.092115463256836, -0.020191976547241, 0.159245690529192, -0.269216840825229, 0.949822669061949, 635.876182382556863, -0.235746826997156, -0.944636527212180, -0.228221964362079, 287.903281296140165, 0.958678383822570, -0.187574316132556, -0.213896312073747, 436.846706235925694, 0.000000000000000, 0.000000000000000, 0.000000000000000, 1.000000000000000
110, -0.682065411710163, 1.694680193863651, 1.453979673387838, -1.766240697078879, -0.114947364159181, -1.179477466919694, 0.467692945114948, 0.852926450729370, 51.988858127594000, -26.135249719619750, 3.787813043594360, 2.637163038253784, 0.085106678009033, 0.022528238296509, 0.081970999377923, 0.065372018958647, 0.994488438544287, 637.543584464786818, 0.996609385895987, -0.012490641274496, -0.081324755299816, 93.571207298240139, 0.007105434892223, 0.997782783484373, -0.066174238017300, 243.537569264789568, 0.000000000000000, 0.000000000000000, 0.000000000000000, 1.000000000000000
111, -1.265388839863865, 1.367258526412904, 1.193143258320639, -1.178061350944891, -2.000120635637498, -0.724572588598488, -0.112303632142805, 0.813943208694458, 66.553803901672367, -23.811059961318968, -9.405485334396362, -0.610539999008179, 1.749192546844482, 0.064414073944092, 0.384466947399278, 0.142720982049978, 0.912039411231867, 635.740538321153394, -0.878046243490906, 0.361544527693174, 0.313560757727476, -389.885024703047691, -0.284991158896185, -0.921366526295486, 0.264317543067425, 354.390394677307881, 0.000000000000000, 0.000000000000000, 0.000000000000000, 1.000000000000000
112, -1.011965986111730, 1.145902851971613, 0.529857636300741, -0.753480186859791, -1.556631258812406, -1.170902813976427, -1.912830717308641, -0.050409364700317, 74.882775199890148, -9.635703372955323, -23.352824821472169, -1.936824798583984, 1.277768301010132, 0.133667547225952, -0.403941817240751, 0.271226204356309, 0.873651735163795, 634.934527440164516, 0.135078981853062, -0.926881352027731, 0.350206550373897, -488.937854023105217, 0.904756694888620, 0.259475057247733, 0.337769178168325, 456.312266017298896, 0.000000000000000, 0.000000000000000, 0.000000000000000, 1.000000000000000
113, -1.479693925187223, 0.925093388518378, 0.399111300704948, -1.155065121439564, -1.512203244415463, -1.559936190456462, -1.697605932591408, 0.806549835205078, 65.803040430068961, -8.698104095458984, -22.181486005783078, -2.112019405364990, 1.395415767669678, -0.199082876205444, -0.342860771672447, 0.288981277105643, 0.893832373955299, 335.838753813132541, -0.082045916499560, -0.957082713515401, 0.277958894579295, -592.809861921059678, 0.935796430231448, 0.021965904770537, 0.351855851441596, 457.871108394340979, 0.000000000000000, 0.000000000000000, 0.000000000000000, 1.000000000000000
114, 0.438619515103995, 1.526824615994437, 1.257900047495018, -0.796326756928871, 0.565708145493724, -1.545357171178876, -1.967203744886596, -0.704386856079102, 75.169772516250617, -15.741543550491333, -6.977851524353027, 2.398581438064575, 0.492116849899292, 0.136003808975220, -0.480727464842377, -0.019807251713153, 0.876646323967536, 631.865840485498779, -0.698609267229204, 0.612861823589759, -0.369249884126873, 482.165852226310164, -0.529949239350049, -0.789941806695789, -0.308457040358131, 231.637112727577858, 0.000000000000000, 0.000000000000000, 0.000000000000000, 1.000000000000000
115, 0.477680598183974, 0.795656269553404, 0.410987068409917, -1.985709515321158, 0.994915106650170, -1.410604329424365, -3.019461354211777, -0.735304599761963, 49.450242521286015, -4.757986192703247, -10.340443487167359, 1.185424814224243, 2.305389719009399, 0.137005064010620, 0.128557734102661, -0.226246752511859, 0.965549230220928, 435.348261486042190, -0.257894234874099, -0.947757381545210, -0.187740537298876, 289.349478313562031, 0.957582097065882, -0.224874081886742, -0.180189274582318, 238.671721295821044, 0.000000000000000, 0.000000000000000, 0.000000000000000, 1.000000000000000
116, 1.120592139002575, 2.059469393499986, -1.313847652381084, -1.994872863402585, 0.558899523848823, -0.945720786152520, -2.503750855738417, -0.225161828994751, 38.015382232666013, 22.256758060455322, 14.271317453384398, -2.233951330184937, -0.120484355926514, -0.209596054077148, -0.002607997021697, 0.008529314891208, 0.999960223778437, 537.799357446152726, 0.965407093023291, -0.260704165701023, 0.004741595348790, -4.159422552329731, 0.260734238434182, 0.965381058843409, -0.007554345406909, 144.838577988005113, 0.000000000000000, 0.000000000000000, 0.000000000000000, 1.000000000000000
117, 1.308907754884150, 1.204921534278989, -1.484556224854829, -1.430981945844599, 0.552768921602310, 0.226566565283882, -2.438017232344542, -0.225833953857422, 55.994050184249879, 26.541982927322387, -10.435083789825439, 1.089904136657715, 1.935759735107422, -0.236796815872192, 0.278799627876157, -0.149923366419999, 0.948574589422156, 635.651384613025812, 0.287547146419147, -0.929391237836163, -0.231405630051584, 288.285751239124750, 0.916290022908861, 0.337275719900885, -0.216003895064460, 435.204806030218435, 0.000000000000000, 0.000000000000000, 0.000000000000000, 1.000000000000000
118, 1.219696285959685, 1.463208994642207, -1.469869736928675, -0.809412182284627, 0.293479574127210, 0.855114233670629, -0.830719624880836, 0.962482803344727, 72.909416603088374, 21.169054861068727, -4.155809755325317, 2.325070133209229, 0.478933658599853, -0.330581037521362, 0.011989153000889, -0.484604709563648, 0.874651093681963, 631.907774648056034, -0.654435934784916, -0.665153699789113, -0.359561069804626, 482.511384083461564, 0.756022398790218, -0.568092273425353, -0.325117365580338, 329.492330969474835, 0.000000000000000, 0.000000000000000, 0.000000000000000, 1.000000000000000
119, 1.323720376664371, 1.546504690635957, -1.280282954339260, -0.665431307601441, 0.074453483160160, 1.068709972680892, -1.219657876553422, -0.200965333938599, 75.452064958572379, 17.879974203109740, -6.233494539260864, 2.621316289901733, -0.238632450103760, -0.009511922836304, 0.335551739794705, -0.390472609483686, 0.857284183432628, 530.752520812880107, -0.109515530873276, -0.920046112875574, -0.376193432531843, 581.104926472213492, 0.935634211868234, 0.032346428327514, -0.351485888985833, 228.919742237418802, 0.000000000000000, 0.000000000000000, 0.000000000000000, 1.000000000000000
120, 1.147821136859845, 1.425525648074073, -0.985016849836202, -0.796519103775028, -0.374842106835379, 0.835468373972852, -1.693154931542537, 0.853598575592041, 74.567548639297485, 17.864127454757693, -12.641303310394287, 2.122583904266357, -0.320234735488892, 0.076596010208130, 0.463650957885049, -0.145142296056599, 0.874048913475496, 631.375683576760707, 0.451602722763147, -0.810017311545314, -0.374068089777536, 481.527575824734413, 0.762287852484341, 0.568159897293289, -0.310018646314202, 230.573678167767014, 0.000000000000000, 0.000000000000000, 0.000000000000000, 1.000000000000000
121, 1.423917185362197, 1.173937609166038, -1.041426596418302, -1.175011964966374, -0.433879370659715, 0.750274376728991, -1.214393206553401, -0.181473712921143, 64.867442621231078, 21.837259416580203, -14.211451959609985, 1.979082794189453, -0.201419137954712, -0.203588523864746, 0.334397403486768, -0.296095044050001, 0.894710065568917, 532.313870582328263, 0.014043983932305, -0.947691804932664, -0.318877734216078, 483.876710058159404, 0.942327513689703, 0.119197180136522, -0.312747324834098, 331.016523237803085, 0.000000000000000, 0.000000000000000, 0.000000000000000, 1.000000000000000
122, 1.405877811027339, 0.810596193740166, -0.943517037012029, -1.459364335482836, -0.930294775759587, 0.618574815818843, -1.603709440745543, 0.951728805541992, 52.992340547561639, 17.128134031295776, -20.184355525970460, 1.644100141525269, -0.567544729232788, 0.064747825622559, 0.367709976350225, -0.049380436441309, 0.928628529493566, 534.094776349565223, 0.540777798264776, -0.801030758276571, -0.256727671275933, 387.156802975997721, 0.756537339591654, 0.596583017518709, -0.267843157485596, 433.539636331330030, 0.000000000000000, 0.000000000000000, 0.000000000000000, 1.000000000000000
123, 1.335895809929374, 0.920300507521820, -0.801974652472056, -1.510969756071821, -1.164617866984716, 0.639610186510459, -0.039461446011049, 0.816631708145142, 56.615093557357788, 16.936212301254272, -17.559517736434938, 1.295031490325928, -1.570301647186279, -0.289863332748413, 0.061820391061008, -0.363218912761088, 0.929650612145077, 533.588432213399528, -0.569424524058279, -0.777807916287087, -0.266027360927675, 386.136441230428659, 0.819715774308429, -0.512919941875721, -0.254910146083164, 333.593525281397717, 0.000000000000000, 0.000000000000000, 0.000000000000000, 1.000000000000000
124, 0.801219137018851, 0.841938057738857, -0.154601055089158, -1.753511712625493, -2.020593334911828, 0.997927185670552, -0.145281342851140, 0.803189210891724, 56.876550128936771, 4.427845602035522, -15.399077711105345, 0.793217792510986, -2.667844041824341, 0.027701389312744, 0.203404191218633, -0.198174946719888, 0.958829195157961, 534.614352664076137, 0.055607697257529, -0.975382642378287, -0.213392794988174, 288.058385742121061, 0.977514459739808, 0.096723272482477, -0.187376865060422, 237.444164414799161, 0.000000000000000, 0.000000000000000, 0.000000000000000, 1.000000000000000
125, 0.857298178832828, 1.081333645876286, 0.123432063552851, -1.163772319976605, -1.596300289528428, 1.220649001910607, -0.957654917013111, -0.430159912109375, 70.717617425918576, -0.342906026840210, -21.297589597702025, 2.048192224502563, -1.812104738235474, -0.090947332382202, 0.392691429777450, -0.210756127248226, 0.895195674591132, 531.799078242198107, 0.266598628389309, -0.905504734258111, -0.330130803738588, 483.341035967473829, 0.880181011110943, 0.368297476319723, -0.299396654317048, 232.045682120713252, 0.000000000000000, 0.000000000000000, 0.000000000000000, 1.000000000000000
126, 0.837104819821301, 1.196983513305272, 0.540393627532388, -1.503255929948833, -1.872827746202232, 1.658162702636282, -0.867453970540439, 0.650616867065430, 63.248293827056884, -10.190779752731324, -11.627111415863038, 1.780998439788818, -2.510480125427246, -0.279683906555176, 0.376502554582874, -0.064487663748569, 0.924168365405796, 332.917146957838099, 0.532223122537103, -0.801464524632310, -0.272751101909344, 484.593707983594641, 0.758277241007157, 0.594555259820445, -0.267431615166227, 134.792985829700314, 0.000000000000000, 0.000000000000000, 0.000000000000000, 1.000000000000000
127, 0.677000309037947, 1.333310512998002, 1.340692555848473, -1.201217150503933, -2.370204525689628, 2.055551870226003, -1.030625663933798, 0.682206735610962, 66.209675971984865, -20.614858856201174, -7.785595502853393, 2.674138784408569, -1.171635267257690, -0.009011295318604, 0.375698314873532, -0.237797061804203, 0.895713868151251, 332.365857031058681, 0.081919604023965, -0.954214145318816, -0.287688274613406, 584.492766941276955, 0.923114269566745, 0.181460525378855, -0.339016405283704, 331.415357544112169, 0.000000000000000, 0.000000000000000, 0.000000000000000, 1.000000000000000
128, 0.087392772850487, 1.349401282366731, 1.722088355822544, -1.689005243917220, -2.677888042951676, 2.057132829166894, -1.917929645552553, 0.774959966659546, 53.326386604309079, -23.958082571029664, -5.142710027694703, 2.748530464172363, -0.277013893127441, 0.140509456634521, 0.340343086632806, -0.007649284604480, 0.940270212133881, 435.231042425336966, 0.607584825282137, -0.761387971805933, -0.226117306892069, 387.538393033050852, 0.717640065400567, 0.648251374726107, -0.254485543199577, 435.800523964081265, 0.000000000000000, 0.000000000000000, 0.000000000000000, 1.000000000000000
129, 0.342294869500151, 1.591037381187394, 1.716164793214679, -1.174653217229609, -2.926356258581455, 1.876350497096533, -2.848635755830116, -0.264817195892334, 67.625170932769777, -21.501396389007567, 1.847026557922363, 2.915801696777343, 0.127326265335083, 0.098456745147705, 0.315745714290157, 0.314059721330830, 0.895360896703111, 533.060247262324424, 0.946838096151979, -0.042964487522070, -0.318828594212097, 483.751762589936220, -0.061662497376401, 0.948430569018928, -0.310929561424671, 332.409626659695562, 0.000000000000000, 0.000000000000000, 0.000000000000000, 1.000000000000000
130, 1.054810848430680, 1.116755059862679, 0.221237869571113, -1.503399411066648, -1.642328102124718, 1.446886570231037, -2.867926073579168, -0.435536911010742, 63.916385940551756, -2.200497083663940, -13.515515594482423, 1.413882102966308, -2.240308141708374, 0.037547063827515, -0.111145361361935, 0.363391360307691, 0.924982933843350, 332.873073586983367, 0.474000014968366, 0.837445606179824, -0.272045662527629, 484.600622698513064, -0.873481937110158, 0.408205311018650, -0.265325704745042, 134.603862031864338, 0.000000000000000, 0.000000000000000, 0.000000000000000, 1.000000000000000
131, 1.150326409136108, 1.079785673549137, -0.245759181628641, -1.650226029874870, -1.648649205488073, 1.059944740582749, -3.019372371327043, -0.319259309768677, 60.151142459869391, 8.273763389587401, -11.453237371444702, 0.836796350479126, -2.371305675506592, 0.122987493515015, -0.179244757652091, 0.284750254510572, 0.941694541457265, 433.555921591133085, 0.185899585820267, 0.949756006259148, -0.251803241771281, 385.722849291903856, -0.966081083991451, 0.129926214178808, -0.223173739546270, 136.108503147369362, 0.000000000000000, 0.000000000000000, 0.000000000000000, 1.000000000000000
132, 1.228334725014719, 0.901991907478045, 0.058266432583364, -1.201271439079337, -1.308944127065754, 1.426352919139650, -2.552645714279597, -0.352865552902222, 66.435509925842283, 1.109272384643555, -22.520870532989502, 2.397701063156128, -1.561123476028442, -0.207760419845581, 0.189406949480887, 0.401890994884316, 0.895884275852210, 331.964762474661995, 0.935513252347306, 0.203257515966010, -0.288965978768944, 584.816436169619124, -0.298228037197899, 0.892843777171696, -0.337475965655136, 330.922965768685344, 0.000000000000000, 0.000000000000000, 0.000000000000000, 1.000000000000000
133, 1.309382899446720, 0.902906363793770, -0.085019357090194, -1.201271648737013, -1.212632520249505, 1.365680833201207, 2.566408098582597, -0.395209419250488, 66.159938732147225, 4.333645486831665, -22.518669595718386, 2.355002880096436, -1.269758260726929, -0.339091705322266, -0.285673190824403, 0.338893250957020, 0.896405149750930, 331.960877530140749, 0.203795554623069, 0.935473324017913, -0.288716178914088, 584.927869767512107, -0.936407069580361, 0.100204912587449, -0.336304587440109, 330.714208217149519, 0.000000000000000, 0.000000000000000, 0.000000000000000, 1.000000000000000
134, 1.052448218477903, 1.178198120999032, -0.936074803428046, -1.653873398761150, -2.326607353727331, 0.511829497141140, 2.313032282871830, 0.795795837402344, 56.839583261489864, 21.529568386077880, -10.061364641189575, -0.771208419799805, -2.470763675689697, -0.060409053802490, -0.177352961005897, -0.116251650986188, 0.977257121163835, 635.794946153221304, -0.981125633884495, 0.098639585639093, -0.166321143213052, 190.135713725745632, -0.077061130002026, -0.988309559696725, -0.131551497349431, 238.572076690396358, 0.000000000000000, 0.000000000000000, 0.000000000000000, 1.000000000000000
135, 1.528655475922456, 1.478352381022620, -1.307104698269249, -1.753549073416127, -1.443050623591657, 0.094484138422937, 2.737946788208510, -0.144506845474243, 51.574157087326050, 27.274454851150512, -1.218879060745239, -0.757562608718872, -2.443896665573120, -0.305382785797119, -0.274318589410834, 0.072108899591605, 0.958931498128692, 535.173483047302511, -0.541457543602649, 0.812509331393251, -0.215991469448859, 287.644514661020651, -0.794715697579604, -0.578471168683954, -0.183842506026176, 236.965018656269280, 0.000000000000000, 0.000000000000000, 0.000000000000000, 1.000000000000000
136, 1.564583073679509, 1.868405615124452, -1.392184216204192, -1.673929418577576, -2.359866310216219, -0.077967329820960, 3.019353526189008, -0.301784063339233, 48.896411634445187, 26.589963359832765, 8.507943115234376, -0.000440187454224, -0.940345354080200, -0.316229715347290, -0.214039586730405, -0.186554135731701, 0.958845456657993, 535.192439299846683, -0.974823094258838, -0.022017550568013, -0.221889978067080, 286.866271170815196, 0.062505921414707, -0.982197934180470, -0.177144652416367, 137.749508511597924, 0.000000000000000, 0.000000000000000, 0.000000000000000, 1.000000000000000
137, 1.362865529090913, 2.042042772576170, -1.343892643480994, -1.965717161734197, -2.709170273391401, 0.585678957452592, 3.019356672035898, 0.710435979843140, 38.501328508377071, 22.914398117065431, 13.933253488540650, -1.271701555252075, 0.071756610870361, -0.300877138137817, -0.026854552158587, -0.093032783960144, 0.995300825950118, 536.957362519052026, -0.836029066012517, -0.543755750229853, -0.073383137533143, 92.901521556116307, 0.548027584899337, -0.834071091215008, -0.063175794326665, 142.995246347223656, 0.000000000000000, 0.000000000000000, 0.000000000000000, 1.000000000000000
138, 1.473364576637601, 1.731930580313562, -1.379518777988885, -1.082252955789031, -2.928248471774075, -0.708045683321341, 2.722349499286037, -0.081327108383179, 65.479076246261599, 24.493790702819823, 1.717611446380615, 1.853189182281494, 0.383647554397583, -0.034042671203613, -0.030577952403709, -0.443182534911934, 0.895909721777719, 532.249695559818861, -0.688323846823016, -0.640589484463229, -0.340375372625428, 481.853443002288941, 0.724758767260915, -0.627084008043713, -0.285465192509125, 132.528369656328067, 0.000000000000000, 0.000000000000000, 0.000000000000000, 1.000000000000000
139, 1.522416218868891, 1.840592745782736, -2.370275861866657, -1.366150345204497, -1.797333648786737, -1.211365571904288, 3.019343848883732, -0.219784830093384, 63.486226028442388, 19.520552845001220, 10.953624610900878, 0.934077777862549, -1.908225221633911, -0.307885923385620, -0.384567240166769, -0.145250597121280, 0.911597664447659, 434.120855535939029, -0.826245579329391, 0.494514190299409, -0.269766488339749, 485.847320330819173, -0.411614237398507, -0.856946894287173, -0.310186621153160, 431.845979571533803, 0.000000000000000, 0.000000000000000, 0.000000000000000, 1.000000000000000
140, 1.558552521788662, 1.304895136800565, -1.373394569439739, -1.511020149726838, -0.031735186315200, 0.379341973525324, 2.571990200721753, -0.186178586959839, 55.946329319000242, 26.837348709106443, -7.274097681045532, 1.062172327041626, 0.255987537384033, 0.005840654373169, 0.020685953261018, 0.369982484660774, 0.928808404560340, 534.093906996469173, 0.721819487272697, 0.637272086589985, -0.269927611493578, 386.257888440102363, -0.691772158395424, 0.676015716309531, -0.253877986779966, 333.875624574831988, 0.000000000000000, 0.000000000000000, 0.000000000000000, 1.000000000000000
141, 1.486743225979462, 1.219458488994529, -1.409336278565569, -1.115838296603476, 0.104930373741708, 0.789752331045835, 1.362358356700315, 0.791763088226318, 63.490258777618408, 24.182137985229492, -10.505073595046998, 1.991848230361938, 0.691032850265503, 0.038047691345215, -0.373892397309383, 0.242024472749430, 0.895337159859124, 532.696536017733024, -0.118085148241129, 0.945073653435826, -0.304781376311499, 485.480502193632674, -0.919924112630555, -0.219681460692116, -0.324776358174460, 430.376965946304040, 0.000000000000000, 0.000000000000000, 0.000000000000000, 1.000000000000000
142, 1.299516436859368, 1.555532437215718, -1.373775308215971, -1.194946794301126, 0.125587006982510, 0.441631929827550, 0.652308012091618, 0.917450437545776, 64.844590375900268, 26.163861904144287, -1.854949932098389, 1.185424814224243, 0.385483188629150, -0.027534513473511, -0.389635116222821, -0.103644336436355, 0.915118750616933, 633.162213691716943, -0.850783549572121, 0.420970914283721, -0.314564526138264, 384.009877767311309, -0.352635545547370, -0.901133364631338, -0.252203947559734, 232.778194918478107, 0.000000000000000, 0.000000000000000, 0.000000000000000, 1.000000000000000
143, 1.542832873886582, 1.773971930297683, -1.310069565588003, -1.674053814847291, -0.697395122885413, 0.072443201410837, -0.724838158987998, -0.146523220062256, 50.532363550186162, 26.887970266342162, 6.539865007400513, -0.403211708068848, -2.041559017181396, 0.047893365859985, 0.260848034983857, -0.119176035675872, 0.957995498510115, 535.000440209526914, 0.423388892393198, -0.877698844579970, -0.224469561457779, 286.515293072516783, 0.867582934619579, 0.464157097051817, -0.178488209171667, 137.471470395224571, 0.000000000000000, 0.000000000000000, 0.000000000000000, 1.000000000000000
144, 0.896120596046392, 2.003932697696983, -2.462092012167266, -1.626780811365654, -0.862896597509726, -0.960272032060292, -0.509383666688517, 0.883172069549561, 59.602016447067257, 16.541804342269899, 11.685656347274779, -0.529105319976807, -2.511147628784180, -0.239967456817627, 0.217812054402238, -0.006041640958255, 0.975972032146213, 637.771593370691903, 0.703493409008277, -0.692158714770146, -0.161286506099093, 189.922855558101361, 0.676501982583192, 0.721720037232077, -0.146510257042771, 438.663162890139176, 0.000000000000000, 0.000000000000000, 0.000000000000000, 1.000000000000000
145, 0.151306771437057, 1.599619644202523, -1.813317488900901, -1.728269189888419, 0.247105417434618, -1.725687578165217, -1.265040218745574, 0.907368564605713, 54.628964588165289, 24.125353803634646, 0.464837951660156, -2.480456304550171, -0.630290044784546, 0.062578439712524, -0.256591942520209, 0.128671230114283, 0.957916640201319, 537.963915033661806, 0.308253939746794, -0.928446690906126, 0.207283020954552, -295.909659036657615, 0.916045896046855, 0.348468731289254, 0.198568526331269, 452.091021768142241, 0.000000000000000, 0.000000000000000, 0.000000000000000, 1.000000000000000
146, -0.116293540165814, 2.022133080127775, -1.680635850693107, -1.667875317722740, 0.758493002445645, -1.936951786208319, -0.207993862945204, 0.969876176834106, 51.310684141159058, 21.635653562545777, 10.360692110061645, -2.345758943557740, -0.445558490753174, -0.272675121307373, 0.008232681180749, 0.342526271222075, 0.939472179728212, 436.515581540924870, -0.688928929322429, -0.679015963133805, 0.253602547605742, -394.075300118315113, 0.724782141959380, -0.649317391829430, 0.230386135356708, 253.324346678279738, 0.000000000000000, 0.000000000000000, 0.000000000000000, 1.000000000000000
147, -0.059085284726054, 2.009160875753087, -2.263263624478055, -1.728171009118537, 0.668699615431048, -1.520758470949696, 0.720721008554142, 0.150555969238281, 56.268277128219609, 16.568215589523316, 9.649349184036254, -1.964116420745849, -1.927582818984985, -0.321903493881226, 0.129751406168733, 0.257997492366535, 0.957393266390472, 538.195191298449458, -0.929787213253320, -0.303783470513845, 0.207873377596049, -296.341250578081031, 0.344471059260226, -0.917143880192821, 0.200466436983836, 451.916845910616587, 0.000000000000000, 0.000000000000000, 0.000000000000000, 1.000000000000000
148, 0.023386555756920, 2.022429390128701, -2.095873424036221, -1.459109520848453, 0.699270222688404, -1.378969750693919, 1.275270612261232, 0.180801588058472, 60.684137475967404, 18.713689241409298, 13.165566568374633, -2.503346052169800, -1.217859874725342, -0.253150648117065, 0.313929838366239, 0.044393192459168, 0.948407771502654, 637.131365776997313, -0.821272436076178, 0.513917210387687, 0.247791619327283, -294.071217334538630, -0.476402815194082, -0.856690343899487, 0.197792852106774, 351.077995176599472, 0.000000000000000, 0.000000000000000, 0.000000000000000, 1.000000000000000
149, 0.074671608072098, 0.475418965198907, 0.171063605059035, -1.747246269906316, 0.517632708345276, -0.665519841063894, 1.613334690812940, -0.067212486267090, 48.598660320281979, -1.567947711944580, -22.725557699203492, 1.331126861572266, 2.312732255935669, -0.341761718750000, 0.084945572034703, 0.067196123763412, 0.994117161476890, 637.781610494081633, 0.987514869543001, -0.138515662416895, -0.075018622332577, 94.969983833047863, 0.132659836511154, 0.988077978813606, -0.078123463571790, 442.296636392022094, 0.000000000000000, 0.000000000000000, 0.000000000000000, 1.000000000000000
150, 0.553564410560402, 0.446078616531598, 0.718241262645366, -1.855864663063316, -1.686826631663086, 1.484348478314202, 0.972612637831362, -0.528290142059326, 40.650783819198608, -6.481760263442993, -20.479281120300293, 2.436877746582031, -1.822451040267944, 0.030538278579712, -0.196953520339578, -0.240099538276210, 0.950558531888173, 334.688080047045048, -0.980263452640576, 0.031301912328853, -0.195201828120879, 388.615582914386437, 0.017113568973888, -0.970243475630786, -0.241525824194574, 435.991499580960806, 0.000000000000000, 0.000000000000000, 0.000000000000000, 1.000000000000000
151, 0.536343438945952, 1.212453949243486, 0.776432644052943, -0.809389232513987, -2.015316536913374, 1.404975818325954, 1.447625038180792, 0.610961500167847, 75.358639602661128, -10.314032239913940, -19.322468490600585, 2.821161394119263, -0.547853380203247, -0.260660060882568, -0.473667457840772, 0.086786465941843, 0.876417280016766, 631.706670166324557, -0.519510815304869, 0.776026273423123, -0.357619540487220, 483.197957197251469, -0.711159371845672, -0.624700994305552, -0.322491884471103, 330.429945274725128, 0.000000000000000, 0.000000000000000, 0.000000000000000, 1.000000000000000
152, -0.494118430637389, 0.679056532369170, 0.964507766435671, -1.747436819117887, -2.597943723515020, 0.854753688244736, 2.030143186253842, 0.689600109100342, 46.388041646957397, -14.135739717483521, -20.230135021209716, 1.628693580627441, -1.558787214279175, -0.379475658416748, -0.100353645614133, 0.024487660381929, 0.994650441261136, 637.513046172022314, -0.526239001037636, 0.847115098587519, -0.073949466069528, 94.569793835423908, -0.844394256019582, -0.530844953102200, -0.072124726460898, 442.295509538680619, 0.000000000000000, 0.000000000000000, 0.000000000000000, 1.000000000000000
153, -0.112703635645133, 1.649460567463020, -1.589998618595493, -1.713795631748974, -2.768209071272882, 2.051454134180225, 3.019304840229579, 0.022852245330811, 54.603423843383787, 24.514479513168332, 1.666989889144897, -2.418389873504639, 0.176220886230469, -0.317898473739624, 0.055101783251573, 0.338625895295422, 0.939306284721800, 436.738211148814003, -0.794044471135334, -0.555486273987320, 0.246836742141626, -394.531432180587103, 0.605357061032499, -0.759452106750029, 0.238275735674109, 354.116576297059794, 0.000000000000000, 0.000000000000000, 0.000000000000000, 1.000000000000000
154, 0.130501617745663, 1.655624953109711, -1.325677160952405, -1.937540511289784, -2.869279709766607, 2.058108375006153, 3.019312240534682, 0.018147371292114, 48.697462675094606, 22.835164375305176, 3.531623945236206, -2.265204639434814, -0.617607481002808, -0.311390316009521, 0.128374630674781, 0.234045395885006, 0.963712979503827, 437.126438476807493, -0.922719050457340, -0.327960781601201, 0.202561792188542, -295.645865552603027, 0.363468716841241, -0.915240120622212, 0.173856301241058, 251.615300958199242, 0.000000000000000, 0.000000000000000, 0.000000000000000, 1.000000000000000
155, 0.175088267277984, 2.037593329451821, -1.692140197334753, -1.706719186614492, -2.481783699531485, 1.658083067462303, 0.659879136004511, -0.147195344924927, 50.698378391265869, 22.621673460006711, 11.148627653121949, -2.809276332855225, 0.543681484222412, 0.048060241699219, -0.242793209135351, -0.151087684889118, 0.958240037293686, 536.738288935432024, 0.966308591631079, -0.124663249446151, 0.225181659949223, -294.736278937936390, 0.085435141117215, 0.980628158739271, 0.176264718392276, 252.162479592081240, 0.000000000000000, 0.000000000000000, 0.000000000000000, 1.000000000000000
156, 0.462800445251748, 1.145209175060899, -0.511672623675657, -1.994909505172109, -2.931509571132080, 1.416879958594085, -0.634334970412987, -0.275571193695068, 52.451952157974247, 11.107690219879149, -3.648713808059692, -1.124238758087158, -2.477271833419800, 0.043888345718384, -0.006557312657385, 0.008301243914005, 0.999944043934556, 537.208450493003170, 0.994108950020720, -0.108131344717629, 0.007416722878671, -2.473785003699505, 0.108186862138686, 0.994101957366063, -0.007543289835840, 145.251934537657519, 0.000000000000000, 0.000000000000000, 0.000000000000000, 1.000000000000000
157, 0.422228091500754, 1.610889189900296, -1.087452072095086, 1.115904269776418, -0.040484293643651, 1.902984717834080, -1.173088916311038, 0.536355640411377, 69.230877229690549, -17.994422941207887, -7.504755907058716, 2.443480558395386, 0.567044101715088, 0.020358852386475, 0.183941545971319, -0.407425345577886, 0.894522272191376, 533.660309449204078, -0.414243354664499, -0.857418845561027, -0.305344668191699, 484.571129731150961, 0.891385410909323, -0.314384336533386, -0.326488189924965, 430.664707321983030, 0.000000000000000, 0.000000000000000, 0.000000000000000, 1.000000000000000
158, 0.508696551179493, 1.459734258508247, -2.269526850083669, 1.082019113576331, 0.833817115525966, 1.596576370094332, -0.853968781446961, -0.555847261428833, 71.043597984313976, -15.073338994979858, 11.225220270156861, 2.356323442459106, -1.410100841522217, -0.260326309204102, 0.346970153485696, -0.279195745769797, 0.895355487018513, 532.228939588148478, 0.132322271561222, -0.930540680313202, -0.341445249975925, 482.141214178935286, 0.928494765218949, 0.236946782688203, -0.285926027382467, 132.946952314357418, 0.000000000000000, 0.000000000000000, 0.000000000000000, 1.000000000000000
159, -0.028467597430345, 1.508182824579231, -2.110819520143544, 1.386367732545599, 0.329173485354932, 1.468905905684800, -0.636024776103514, 0.907368564605713, 63.848501329421993, -21.381665401458740, 4.908530302047730, 2.575536794662476, -1.285778341293335, -0.259658805847168, 0.168160909032888, -0.263714126422398, 0.949829862764119, 634.634802096001749, -0.082391290362243, -0.963939821730601, -0.253044848504020, 286.139342452458664, 0.982310329756171, -0.035705456267202, -0.183824743837911, 137.200997155952450, 0.000000000000000, 0.000000000000000, 0.000000000000000, 1.000000000000000
160, -0.438905398835231, 1.293934904024797, -2.363718124003785, 1.965737894391275, -0.035534473131807, 1.477087745718624, 0.701065291727634, 0.777648466110229, 51.201799913406376, -17.304649200439453, 1.173979940414429, 1.929341611862183, -2.254993215560913, -0.327577272415161, -0.033297616157249, -0.087125125935216, 0.995640739016347, 536.983240949218384, -0.869818360915577, -0.488119146207837, -0.071803329445591, 93.571997098146113, 0.492247181578914, -0.868417475374664, -0.059529830266100, 143.284458067565424, 0.000000000000000, 0.000000000000000, 0.000000000000000, 1.000000000000000
161, -0.829419815792840, 1.112299834353441, -2.338212247936221, 1.749556079432838, -0.532288025127358, 0.923927952547505, 0.027348001223227, 0.758828969955444, 54.863536165237420, -18.851467914581299, 9.775242795944214, 0.490809011459351, -2.421702178955078, 0.013516942977905, -0.056469218504465, 0.100452420747483, 0.993338078665801, 637.909025612778350, -0.048972874771717, -0.994006703248444, 0.097736029353324, -99.533971671530125, 0.997202529528525, -0.043127544135167, 0.061050225542422, 247.833481075563213, 0.000000000000000, 0.000000000000000, 0.000000000000000, 1.000000000000000
162, -1.352624739194328, 0.744620339263093, -2.224863741167565, 1.727983995234987, -1.214666386982049, 0.848336824904986, -0.645201546475913, 0.614322124481201, 45.966619358062744, -15.706328554153441, 18.121637115478514, -1.260696868896484, -2.331255474090576, 0.006508157730103, -0.228349993287668, -0.179326417442371, 0.956921269788067, 536.997267618478190, 0.970223645548159, -0.123448989837081, 0.208390077804687, -295.506887093404657, 0.080761118025702, 0.976013515744269, 0.202176306474695, 453.942569478997882, 0.000000000000000, 0.000000000000000, 0.000000000000000, 1.000000000000000
163, -1.432188547587494, 1.342985946953656, -2.087891061391204, 1.706711277000497, -1.484336134538531, 0.723721349089945, 0.520520786620276, 0.692960733413696, 52.481525651931761, -24.297026910781859, 4.069533014297486, -0.619783935546875, -2.547860313415527, -0.321569742202759, -0.164738849135901, 0.236876826798976, 0.957470877108556, 536.606044422758373, -0.089114337800427, -0.970338181188776, 0.224727499264442, -294.354880719939615, 0.982303286354968, -0.048303033578710, 0.180961516802120, 253.220558932948848, 0.000000000000000, 0.000000000000000, 0.000000000000000, 1.000000000000000
164, -1.291605650003268, 1.293444929017799, -1.787693148774119, 1.163697718168559, -2.141477444456132, 0.606884324303989, -0.431397222021611, -0.018147371292114, 64.306218360900886, -25.023776397705078, 9.110119552612304, -1.597000083923340, -1.342683002471924, -0.059074047088623, -0.251719661804157, -0.321680113574609, 0.912775501638726, 635.718613880181465, 0.947356575079247, 0.110929646767370, 0.300350017683012, -392.330655346758363, -0.197870491775100, 0.940327877922745, 0.276822597498807, 455.502362048942075, 0.000000000000000, 0.000000000000000, 0.000000000000000, 1.000000000000000
165, -1.242122725515121, 1.243781881533230, -2.002433471215873, 1.459283591806617, -1.496768809078256, 0.600089268841549, -1.790485802710446, -0.117621850967407, 58.454699306488038, -24.347648468017578, 9.485159263610839, -1.215797748565674, -2.426541578292847, 0.111139308929443, -0.001553812576028, -0.321633847020619, 0.946862848630780, 636.724459299948194, 0.630376051588260, 0.734725346695169, 0.250608656090846, -293.633637748921160, -0.776288360888191, 0.597269062796979, 0.201608649058378, 352.646342522575935, 0.000000000000000, 0.000000000000000, 0.000000000000000, 1.000000000000000
166, -1.485826283005888, 1.314422116213623, -1.781637190343546, 1.129675402487742, -2.274683494293299, 0.825497079329470, -2.647975010120431, 0.772271467208862, 64.458790704727164, -24.678229246139523, 8.473608493804932, -1.983044481277466, -1.333838582992554, 0.078097892761230, 0.442098153616603, 0.090106728028548, 0.892429268980338, 535.028906283576589, -0.747188969178612, 0.587443842863271, 0.310834965568283, -492.018852979400094, -0.496243757549245, -0.804232869911459, 0.327034591515002, 457.108988999810322, 0.000000000000000, 0.000000000000000, 0.000000000000000, 1.000000000000000
167, -1.325120253986749, 1.378979278119046, -2.326196864090520, 1.081104507489540, -1.864310749250808, 1.165530885094597, -2.859031771274121, -0.113589101791382, 68.406180023193372, -18.627412500381467, 12.100753116607667, -2.266965389251709, -2.124496309280396, 0.100459255218506, 0.452584697171253, -0.011833109974145, 0.891642904639938, 534.624533703640282, -0.653142532627445, 0.676360515868289, 0.340501519302616, -489.997267258482509, -0.607101246876839, -0.736475681935746, 0.298381711835470, 255.881790247328667, 0.000000000000000, 0.000000000000000, 0.000000000000000, 1.000000000000000
