Zhangzhongqiu/robot-calibration/2.5kg/20161216_run3_2.5kg.csv
number, theta_1, theta_2, theta_3, theta_4, theta_5, theta_6, theta_7, tau_1, tau_2, tau_3, tau_4, tau_5, tau_6, tau_7, m_00, m_01, m_02, m_03, m_10, m_11, m_12, m_13, m_20, m_21, m_22, m_23, m_30, m_31, m_32, m_33
0, -1.570805343116235, 0.092449246942140, 0.000028971865593, -0.000088623346909, -0.000073199632344, 0.000027863308812, -0.000031967941417, 0.123670974731445, 9.856711111068726, 0.077472991943359, -3.954203901290894, 0.036975746154785, 0.544182111740112, -0.106633661270142, -0.007789356171467, 0.999961467546251, 0.004048376610746, 2.278704172770252, -0.995872473286380, -0.007391265670291, -0.090462070185573, -91.187657560581314, -0.090428661832974, -0.004736308112822, 0.995891673077227, 1325.403535572334704, 0.000000000000000, 0.000000000000000, 0.000000000000000, 1.000000000000000
1, -1.570805253231778, 0.277154944667065, 0.000030979266938, 0.000072474633482, -0.000072959998638, 0.000088443577996, -0.000031997884722, 0.259440196990967, 30.113210222244263, 0.273356409072876, -12.037806310653686, 0.174314231872559, 1.880857583999634, -0.113809322357178, -0.008452855116693, 0.999958664275636, 0.003349474654655, 1.338980600436495, -0.961804859122351, -0.007213741850508, -0.273640959830850, -272.136457678899490, -0.273605486438067, -0.005534588385797, 0.961826078936514, 1291.466874299313531, 0.000000000000000, 0.000000000000000, 0.000000000000000, 1.000000000000000
2, -1.570802436979409, 0.462000438247093, 0.000032597078070, 0.000042903574540, -0.000072816096241, 0.000197619922153, -0.000031818115809, 0.355554052352905, 49.004623737335208, 0.422139768600464, -19.595824899673460, 0.300648031234741, 3.095379941940307, -0.117146839141846, -0.007826616568320, 0.999967275177534, 0.002047595446165, 0.502845048325419, -0.894333713787897, -0.006083795625112, -0.447359135162276, -443.592796500858299, -0.447332038261782, -0.005332542058954, 0.894352062411526, 1224.631590998115598, 0.000000000000000, 0.000000000000000, 0.000000000000000, 1.000000000000000
3, -1.570800609346977, 0.646772588510547, 0.000034095115982, 0.000024597634160, -0.000072720277665, -0.000121220424979, -0.000031878002419, 0.438225410461426, 66.620344263076788, 0.566081066131592, -26.535380115509032, 0.415536956787109, 4.317244836807251, -0.119316225051880, -0.007711602980301, 0.999970035319004, 0.000677970194278, -0.252206028433117, -0.796015420524012, -0.005728385597411, -0.605249234519489, -599.463292583807174, -0.605227214744557, -0.005207116530046, 0.796035743211314, 1127.353097010275633, 0.000000000000000, 0.000000000000000, 0.000000000000000, 1.000000000000000
4, -1.570792370193003, 0.831608914203274, 0.000036072464939, 0.000018935077033, -0.000072624459089, -0.000114479308917, -0.000031728231353, 0.461749780654907, 81.651072566986088, 0.688893365859985, -32.533814554214473, 0.519421195983887, 5.277448415756226, -0.122486865997314, -0.007972145043104, 0.999968196432354, -0.000225892089664, -1.019223305424915, -0.670314473746033, -0.005511644235025, -0.742056687904911, -734.464084916772322, -0.742034332891674, -0.005764364808977, 0.670337094981591, 1003.206585228349809, 0.000000000000000, 0.000000000000000, 0.000000000000000, 1.000000000000000
5, -1.570788475327157, 1.016359612679458, 0.000037330847328, 0.000011504828625, -0.000072384738117, -0.000088922943583, -0.000031698233506, 0.511487020492554, 93.946252679824823, 0.782213106155396, -37.385560674667360, 0.597774562835693, 6.052086061477661, -0.124990003585815, -0.007432520799737, 0.999972356965557, -0.000207218024879, -1.931746263039440, -0.521929187748981, -0.004056114326896, -0.852979173785771, -844.218542103603909, -0.852956435353090, -0.006231632315493, 0.521944907196568, 856.357171964944541, 0.000000000000000, 0.000000000000000, 0.000000000000000, 1.000000000000000
6, -1.570797463500087, 1.201188687947231, 0.000038768998630, 0.000092997578342, -0.000072240922987, -0.000056505634426, -0.000031638346896, 0.610961500167847, 102.978266584396351, 0.858365535736084, -40.977050113677976, 0.666443805694580, 6.613456384658813, -0.124823127746582, -0.006484051994530, 0.999978971525515, -0.000116518266973, -2.412765544367206, -0.356138520425905, -0.002418149703011, -0.934430043834669, -924.953305931470709, -0.934410675954946, -0.006017396346273, 0.356146710784520, 691.968134716372674, 0.000000000000000, 0.000000000000000, 0.000000000000000, 1.000000000000000
7, -1.570789074520505, 1.386038495926624, 0.000039428133130, -0.000048625963736, -0.000072145017144, -0.000015669402382, -0.000031638346896, 0.635157995223999, 108.574378190994267, 0.910307655334473, -43.136169576644896, 0.704740114212036, 6.990262029647827, -0.126992513656616, -0.002481995693481, 0.999994914678122, 0.002002577157643, -2.818740067158630, -0.177873323175265, 0.001529167422254, -0.984052205195224, -974.016570464260781, -0.984050263248766, -0.002798618389400, 0.177868623245206, 515.537026119147981, 0.000000000000000, 0.000000000000000, 0.000000000000000, 1.000000000000000
8, -1.385987113542587, 0.092437442462299, 0.000033825462613, -0.000031069096853, -0.000072959998638, -0.000197889520980, -0.000031937943570, -0.065868236541748, 10.057004320144653, 0.058104743957520, -4.073054513931274, 0.058544931411743, 0.669172115325928, -0.105799282073975, 0.173891577631478, 0.984532086285602, 0.021407715967760, 18.658672852222740, -0.980570589896126, 0.175114273245983, -0.088409895013479, -89.421145877923863, -0.090791175009462, -0.005618040552708, 0.995854105861270, 1325.403311574107875, 0.000000000000000, 0.000000000000000, 0.000000000000000, 1.000000000000000
9, -1.385988072273761, 0.277179961671119, 0.000034904021548, -0.000074302156831, -0.000072912002083, -0.000119812271523, -0.000031848059114, 0.147195344924927, 30.161603212356567, 0.265873222351074, -12.101633491516115, 0.180917043685913, 1.965797386169434, -0.110138053894043, 0.167735611784694, 0.984347274193337, 0.054085195084801, 50.939399335444520, -0.946989914055532, 0.176132348823636, -0.268677312728419, -267.643187894422113, -0.273997932868681, -0.006151380821864, 0.961710607874154, 1291.422949782673413, 0.000000000000000, 0.000000000000000, 0.000000000000000, 1.000000000000000
10, -1.385996101715517, 0.462014999147235, 0.000036072464939, 0.000020133518271, -0.000072720277665, -0.000004104578064, -0.000031818115809, 0.229866703033447, 49.139048709869385, 0.437546329498291, -19.671096954345703, 0.303729343414307, 3.175480344772339, -0.114810577392578, 0.156253873835470, 0.984038747461879, 0.085161437312113, 81.383257523834175, -0.880456512187211, 0.177842567488630, -0.439509216440547, -436.219935711161213, -0.447639427506716, -0.006305924413446, 0.894191913550302, 1224.646650279896221, 0.000000000000000, 0.000000000000000, 0.000000000000000, 1.000000000000000
11, -1.386002543289446, 0.646811597164700, 0.000037151078416, 0.000020373173794, -0.000072672368377, 0.000117565269197, -0.000031758229199, 0.280948192596436, 66.576656147003177, 0.576205377578735, -26.560030612945557, 0.422579956054688, 4.276360256195068, -0.119316225051880, 0.139247396529585, 0.983776722762822, 0.113108453750256, 109.341148935505402, -0.783544931235381, 0.179303845822794, -0.594901228447629, -589.758429800791305, -0.605530761642276, -0.005787108362300, 0.795800858306730, 1127.303232239153431, 0.000000000000000, 0.000000000000000, 0.000000000000000, 1.000000000000000
12, -1.386002872829425, 0.831627939219305, 0.000038529234025, 0.000017257270209, -0.000072384738117, -0.000089552080236, -0.000031698233506, 0.364963800430298, 81.644351318359384, 0.704299926757812, -32.551422052383423, 0.518540821075439, 5.396264013290406, -0.121485610961914, 0.117270693526448, 0.983707818274408, 0.136258991283622, 133.587698933734885, -0.659875403681333, 0.179721844095133, -0.729564603288457, -722.560011084790062, -0.742167121379157, -0.004357409878506, 0.670200698987197, 1003.049946490604611, 0.000000000000000, 0.000000000000000, 0.000000000000000, 1.000000000000000
13, -1.385994274137626, 1.016360002160588, 0.000039368191978, 0.000017856463557, -0.000072240922987, -0.000135961039492, -0.000031638346896, 0.469143154144287, 94.007416042327890, 0.804662666320801, -37.409330797195437, 0.594253063201904, 6.117501390457154, -0.123321245193481, 0.089479021904602, 0.983536455384298, 0.157001737471555, 152.801454570625424, -0.514126657526802, 0.180620149175470, -0.838480853527467, -830.555787477897979, -0.853034163828926, -0.005692331852777, 0.521824024646972, 856.306568597710225, 0.000000000000000, 0.000000000000000, 0.000000000000000, 1.000000000000000
14, -1.385996820791168, 1.201155791272487, 0.000040147154239, 0.000020493056097, -0.000072240922987, -0.000123078000716, -0.000031698288048, 0.499388772964478, 103.015233451843258, 0.881695470809936, -40.971327676773072, 0.653238182067871, 6.684545492172241, -0.125156879425049, 0.060384348967668, 0.983198842243137, 0.172260752963367, 167.704145537720109, -0.350310908240244, 0.182472778369885, -0.918687080959491, -910.101687002704352, -0.934684972580413, -0.004870499535999, 0.355443779333137, 691.692355021913841, 0.000000000000000, 0.000000000000000, 0.000000000000000, 1.000000000000000
15, -1.385995562463320, 1.386031964522780, 0.000041105885413, -0.000037031305196, -0.000072192926432, -0.000110374730853, -0.000031638346896, 0.498044523239136, 108.566312692642214, 0.933197402954102, -43.144533138275150, 0.700778427124023, 7.052172966003418, -0.125991258621216, 0.027119383826719, 0.983440884796208, 0.179188630030230, 176.118006939075968, -0.175466920784902, 0.181154622314592, -0.967674719378533, -958.127783903321415, -0.984111730816742, -0.005198935016830, 0.177474145563704, 515.499263046748752, 0.000000000000000, 0.000000000000000, 0.000000000000000, 1.000000000000000
16, -1.201187429619384, 0.092389685399822, 0.000035473271591, -0.000042723751086, -0.000073055817214, -0.000197799636524, -0.000031878056960, -0.009409748077393, 10.140347803115844, 0.069549617767334, -4.098145198822022, 0.059865493774414, 0.679852169036865, -0.103796772003174, 0.351500716236826, 0.935421222497368, 0.037873248956586, 35.738746296932050, -0.931726660414371, 0.353483995204853, -0.083273617713528, -84.805419204126721, -0.091283496635929, -0.006016779499425, 0.995806769210962, 1325.445451360198376, 0.000000000000000, 0.000000000000000, 0.000000000000000, 1.000000000000000
17, -1.201187459562689, 0.277188620304070, 0.000036372116155, -0.000065583637270, -0.000072864005529, -0.000119962097131, -0.000031788172504, 0.142490470886230, 30.208651952743530, 0.273356409072876, -12.116599864959717, 0.181797418594360, 1.996168788909912, -0.110304929733276, 0.339399507988410, 0.934922853271576, 0.103572353491465, 100.288496583119112, -0.899584402050580, 0.354787290791121, -0.254703517605072, -254.094918601509221, -0.274874294113738, -0.006725825126512, 0.961456647858780, 1291.425848532918963, 0.000000000000000, 0.000000000000000, 0.000000000000000, 1.000000000000000
18, -1.201201331275943, 0.462036630703418, 0.000037510616241, 0.000014950326731, -0.000072768186953, -0.000003535328020, -0.000031908000265, 0.262800821304321, 49.233146190643311, 0.441067829132080, -19.706752138137816, 0.298887281417847, 3.211692401885986, -0.114143074035645, 0.315265224888397, 0.934570921590309, 0.164878835797408, 160.683757575248677, -0.836531695192843, 0.355716776351338, -0.416749682615357, -414.009534146727162, -0.448132302912719, -0.006539689599130, 0.893943326808859, 1224.638503306542134, 0.000000000000000, 0.000000000000000, 0.000000000000000, 1.000000000000000
19, -1.201193122119816, 0.646789006877343, 0.000038589175176, 0.000020133518271, -0.000072624459089, 0.000122718462891, -0.000031758229199, 0.225161828994751, 66.700999246597291, 0.585449314117432, -26.604049358367917, 0.415096769332886, 4.310236051559448, -0.118148094177246, 0.279653367150308, 0.934142253137048, 0.221748157028497, 216.880248637472505, -0.744317325299474, 0.356828558205102, -0.564504295208022, -559.920458089512977, -0.606453389388280, -0.007185468203804, 0.795086571101638, 1127.235619047913588, 0.000000000000000, 0.000000000000000, 0.000000000000000, 1.000000000000000
20, -1.201200582311528, 0.831631174896110, 0.000039907498717, 0.000009407651907, -0.000072432734671, -0.000103543675793, -0.000031698288048, 0.418061664581299, 81.687367309570320, 0.708701801300049, -32.554063177108759, 0.519861383438110, 5.399267778396606, -0.120150604248047, 0.234658084867606, 0.934057110189025, 0.269207908709226, 264.293250414247836, -0.627264969154670, 0.357065400270194, -0.692129293124685, -685.934009487455569, -0.742613117092378, -0.006450956147277, 0.669689587411308, 1003.131535459825045, 0.000000000000000, 0.000000000000000, 0.000000000000000, 1.000000000000000
21, -1.201205226196330, 1.016368870505757, 0.000040626574368, 0.000018186058077, -0.000072336828829, -0.000150971252833, -0.000031698288048, 0.419405914306641, 94.029596162796025, 0.813906602859497, -37.412412109374998, 0.599975500106811, 6.125678306579590, -0.123654996871948, 0.181923681418094, 0.933628287407489, 0.308613018344735, 303.181699056365801, -0.488466170816076, 0.358193079134543, -0.795674882114796, -788.553178146098276, -0.853407624823898, -0.005994915568613, 0.521209638130146, 856.252313633924928, 0.000000000000000, 0.000000000000000, 0.000000000000000, 1.000000000000000
22, -1.201194949697706, 1.201184253774647, 0.000041465423238, -0.000004973424781, -0.000072240922987, -0.000136859884056, -0.000031638346896, 0.450995782852173, 103.031364448547365, 0.890939407348633, -40.992016487121582, 0.666883993148804, 6.697061180114746, -0.125156879425049, 0.122710943659357, 0.932920537916956, 0.338528129169451, 332.183787875012683, -0.333293087400930, 0.360033936832998, -0.871373216377052, -864.163422843994567, -0.934803584822494, -0.005902055681830, 0.355116070520249, 691.535662178887264, 0.000000000000000, 0.000000000000000, 0.000000000000000, 1.000000000000000
23, -1.201194620157727, 1.385963025271860, 0.000042064616587, -0.000082840962020, -0.000072145017144, -0.000123018114106, -0.000031578460286, 0.366980175018311, 108.610000808715824, 0.938479652404785, -43.107557392120363, 0.695496177673340, 7.043495422363281, -0.127660017013550, 0.060196267517488, 0.932583823584329, 0.355898611075958, 349.033284151254520, -0.166793707767369, 0.360929868619778, -0.917556259303659, -909.789910203269983, -0.984152563592747, -0.004128186883227, 0.177275744665988, 515.506325290806217, 0.000000000000000, 0.000000000000000, 0.000000000000000, 1.000000000000000
24, -1.016387805582790, 0.092431450365193, 0.000036132406090, -0.000076609154850, -0.000072959998638, -0.000197559926460, -0.000031908000265, 0.019491621017456, 10.234445283889769, 0.071750555038452, -4.138642444610596, 0.059865493774414, 0.712059206008911, -0.103963647842407, 0.516094864628399, 0.854915434198238, 0.052589838123275, 51.179124924310813, -0.851657817724210, 0.518730619497365, -0.074816481507199, -77.131841923998678, -0.091241724081864, -0.006176144875107, 0.995809621876115, 1325.382506422244660, 0.000000000000000, 0.000000000000000, 0.000000000000000, 1.000000000000000
25, -1.016388105124923, 0.277234010591001, 0.000036971309503, -0.000049914289430, -0.000072816096241, -0.000120860941695, -0.000031878002419, 0.122326725006104, 30.191176706314089, 0.268514347076416, -12.125403614044188, 0.181357231140137, 2.003511325836182, -0.108636171340942, 0.498462077002963, 0.854178160520558, 0.148037927166006, 144.985478185882386, -0.822270468049777, 0.519941094200260, -0.231370991991296, -231.502771309460087, -0.274603050170773, -0.006397550433693, 0.961536393583392, 1291.341002989385061, 0.000000000000000, 0.000000000000000, 0.000000000000000, 1.000000000000000
26, -1.016395954852307, 0.462018324763038, 0.000038289633043, 0.000019594211533, -0.000072768186953, -0.000003145846890, -0.000031758229199, 0.176096714019775, 49.202900571823122, 0.434024829864502, -19.693546514511109, 0.298006906509399, 3.219869318008423, -0.113642446517944, 0.463358906736685, 0.853228894849604, 0.239372046282576, 235.088282407153258, -0.764224592115936, 0.521488362087217, -0.379487366078006, -377.819912708289962, -0.448619322313490, -0.007095153367970, 0.893694781480607, 1224.463690827042683, 0.000000000000000, 0.000000000000000, 0.000000000000000, 1.000000000000000
27, -1.016396913583481, 0.646807732242159, 0.000039368191978, 0.000021391846119, -0.000072576549802, 0.000119063307109, -0.000031698233506, 0.234571577072144, 66.742670988082892, 0.586769876480103, -26.622097043991090, 0.414656581878662, 4.319581098556519, -0.116813087463379, 0.411440554900098, 0.852975507793488, 0.321168885304821, 316.465649107536365, -0.680353154528269, 0.521906473698542, -0.514522320055201, -510.947672862111688, -0.606495057611299, -0.006812915381465, 0.795058066607133, 1126.996071803401946, 0.000000000000000, 0.000000000000000, 0.000000000000000, 1.000000000000000
28, -1.016403594758392, 0.831617962317355, 0.000040386809762, 0.000020103520425, -0.000072384738117, -0.000104981827095, -0.000031728231353, 0.293046440124512, 81.680646060943602, 0.714864425659180, -32.569469738006589, 0.515899696350098, 5.410281583786011, -0.120317480087280, 0.345196169842526, 0.852863490821749, 0.391744138883264, 386.664893934668214, -0.573562639928742, 0.522089770240802, -0.631227510401661, -626.119137592198399, -0.742876505486627, -0.006792483584609, 0.669394024295654, 1002.754510390271889, 0.000000000000000, 0.000000000000000, 0.000000000000000, 1.000000000000000
29, -1.016390412122942, 1.016357155964914, 0.000041255711021, 0.000005632613822, -0.000072288919541, -0.000157952078959, -0.000031728231353, 0.338750930786133, 94.012793041229244, 0.812145853042602, -37.413292484283446, 0.596894187927246, 6.132853967666627, -0.122486865997314, 0.267118651884143, 0.851674453915074, 0.450886072488449, 443.298382148825169, -0.445952879935830, 0.524021097406092, -0.725622435120534, -719.940869383816448, -0.854267905690327, -0.007246655902893, 0.519782484589167, 856.049118778992465, 0.000000000000000, 0.000000000000000, 0.000000000000000, 1.000000000000000
30, -1.016404523546260, 1.201200312658159, 0.000042184498889, 0.000011624656387, -0.000072145017144, -0.000145428578009, -0.000031578460286, 0.317242935180664, 103.031364448547350, 0.888298282623291, -40.994657611846925, 0.661601743698120, 6.703736213684082, -0.122653741836548, 0.179803743456944, 0.849607088558318, 0.495820944404659, 485.019173935093193, -0.303920257027292, 0.527355038915391, -0.793428724145409, -789.208103338215778, -0.935576341731306, -0.008028574095367, 0.353033214854723, 691.616962656339751, 0.000000000000000, 0.000000000000000, 0.000000000000000, 1.000000000000000
31, -1.016393018663094, 1.385975728541723, 0.000042723751086, -0.000071485849920, -0.000072145017144, -0.000129489576799, -0.000031578460286, 0.366980175018311, 108.609328683853150, 0.940680589675903, -43.135289201736448, 0.699898052215576, 7.047500442504883, -0.124489376068115, 0.086493149108524, 0.849707902731267, 0.520110964307927, 510.360071066679666, -0.151965255601392, 0.527210794091939, -0.836035489487708, -830.879337307260698, -0.984594076890215, -0.006727453379863, 0.174726200450097, 515.349594418656011, 0.000000000000000, 0.000000000000000, 0.000000000000000, 1.000000000000000
32, -0.831588241432806, 0.092389775229737, 0.000036911422893, -0.000035443328286, -0.000072864092795, -0.000197739695373, -0.000031937943570, 0.051081489562988, 10.297625020980835, 0.072630929946899, -4.204670562744140, 0.058985118865967, 0.710891075134277, -0.104130523681641, 0.662302862760383, 0.746376696213847, 0.065396829650257, 64.927035784172134, -0.743734356336899, 0.665488639385800, -0.063119553646838, -66.603494824726013, -0.090631811101514, -0.006833607929949, 0.995861022743194, 1325.331852371078185, 0.000000000000000, 0.000000000000000, 0.000000000000000, 1.000000000000000
33, -0.831588900621847, 0.277247253113060, 0.000037810267457, -0.000066632307442, -0.000072816096241, -0.000131706581279, -0.000031937943570, 0.150555969238281, 30.244946695327759, 0.270715284347534, -12.141690549850463, 0.187079668045044, 2.010186359405518, -0.108302419662476, 0.640023102907555, 0.745267108388004, 0.186942143187587, 185.682686006220990, -0.717791436587823, 0.666740717258171, -0.200579833261595, -201.004456445487079, -0.274127490970488, -0.005809742252659, 0.961675811065862, 1291.169167361534619, 0.000000000000000, 0.000000000000000, 0.000000000000000, 1.000000000000000
34, -0.831592495891019, 0.462008467743391, 0.000038798941935, 0.000018815249272, -0.000072672368377, -0.000008209210669, -0.000031758174658, 0.288341566085815, 49.278178556442263, 0.437106142044067, -19.734483947753905, 0.300648031234741, 3.228880613327027, -0.113809322357178, 0.595321176507274, 0.743613756685598, 0.304353869155507, 301.086910523423001, -0.666643773830207, 0.668575696320722, -0.329533939227331, -328.452266037833624, -0.448529570502788, -0.006717079513761, 0.893742751146766, 1224.236604931420288, 0.000000000000000, 0.000000000000000, 0.000000000000000, 1.000000000000000
35, -0.831596450588934, 0.646796017646774, 0.000039937442022, 0.000021391846119, -0.000072624459089, 0.000111663002006, -0.000031788172504, 0.349504928588867, 66.730572740554805, 0.585449314117432, -26.621656856536866, 0.418618268966675, 4.326923635482788, -0.117146839141846, 0.529022138953273, 0.743123676008930, 0.409759415574894, 405.318235052141119, -0.593626880555664, 0.669120288024760, -0.447085189684711, -444.351654196449090, -0.606417927817982, -0.006726240304701, 0.795117635644128, 1126.799264383299942, 0.000000000000000, 0.000000000000000, 0.000000000000000, 1.000000000000000
36, -0.831596450588934, 0.831576047526377, 0.000040986003110, 0.000023878558509, -0.000072192926432, -0.000139106886382, -0.000031788117963, 0.295734939575195, 81.800284286499021, 0.709582176208496, -32.615689420700072, 0.517660446166992, 5.424966657638549, -0.119316225051880, 0.444779835850401, 0.742086109408161, 0.501476922544148, 494.956679931514032, -0.500283577716353, 0.670267183878562, -0.548140715585723, -544.640769672069268, -0.742891135690968, -0.007078731451433, 0.669374821809741, 1002.797567356603508, 0.000000000000000, 0.000000000000000, 0.000000000000000, 1.000000000000000
37, -0.831596989895672, 1.016426215043595, 0.000041854904369, 0.000013182689991, -0.000072192926432, -0.000182639543034, -0.000031638346896, 0.323964183807373, 94.125710018157960, 0.813466415405273, -37.464794416427608, 0.603056812286377, 6.143367145538329, -0.121819362640381, 0.344843501321076, 0.742505866933902, 0.574254296601563, 568.685250669542825, -0.389472733875583, 0.669815719543369, -0.632185013599720, -626.223969502327918, -0.854045636464528, -0.005651497264771, 0.520167387880638, 855.479103290107105, 0.000000000000000, 0.000000000000000, 0.000000000000000, 1.000000000000000
38, -0.831600105799257, 1.201162322621790, 0.000042603923325, -0.000002336886783, -0.000072049111302, -0.000165562041738, -0.000031578405745, 0.348160678863525, 103.069675565719606, 0.891379594802856, -41.015346422195435, 0.661601743698120, 6.693056159973144, -0.122486865997314, 0.234113119063146, 0.743236797129939, 0.626729695223193, 622.616642356747093, -0.265702580654118, 0.669016380011173, -0.694131991706540, -685.845076656299398, -0.935196870245120, -0.004018291773439, 0.354105446463276, 690.885303072596344, 0.000000000000000, 0.000000000000000, 0.000000000000000, 1.000000000000000
39, -0.831600525278234, 1.386036308810908, 0.000043143175522, -0.000099289272122, -0.000071905296172, -0.000145638344768, -0.000031698233506, 0.375717798233032, 108.562279943466194, 0.938479652404785, -43.127365827560425, 0.697697114944458, 7.056845489501953, -0.123321245193481, 0.111742299601986, 0.741232224849318, 0.661882502657829, 654.751801800240969, -0.133765443677368, 0.671211486432082, -0.729096664756760, -722.672342335448207, -0.984693081400218, -0.007066068678252, 0.174153972438120, 515.009899369201207, 0.000000000000000, 0.000000000000000, 0.000000000000000, 1.000000000000000
40, -0.646788617396213, 0.092378539999939, 0.000037450729631, 0.000012373729884, -0.000072864005529, -0.000197140502024, -0.000031908000265, 0.039655366897583, 10.337952512741090, 0.074831867218018, -4.228440685272217, 0.061186056137085, 0.746769380569458, -0.102128013610840, 0.788547004520551, 0.610368694388873, 0.075124420608006, 76.691550983521026, -0.608308400938787, 0.792095388424636, -0.050455772551031, -53.893401629181788, -0.090302331138029, -0.005912067865623, 0.995896850303579, 1325.199331780685725, 0.000000000000000, 0.000000000000000, 0.000000000000000, 1.000000000000000
41, -0.646789875724060, 0.277204799015343, 0.000038289633043, -0.000068250118574, -0.000072720277665, -0.000114389424460, -0.000031848059114, 0.172736089706421, 30.349798173904418, 0.276437721252441, -12.172943859100343, 0.187079668045044, 2.023870178222656, -0.106466785430908, 0.761745872228572, 0.608947067170512, 0.221193796312564, 220.660776975021150, -0.586946337327356, 0.793186784939816, -0.162322892085003, -163.867849896358479, -0.274294045215594, -0.006180095571238, 0.961626010036124, 1290.975323372313596, 0.000000000000000, 0.000000000000000, 0.000000000000000, 1.000000000000000
42, -0.646790385087494, 0.461995045397877, 0.000039308250827, 0.000015339807861, -0.000072624371823, -0.000002576596847, -0.000031908000265, 0.247341949462891, 49.364882663726803, 0.440187454223633, -19.749010133743287, 0.308131217956543, 3.227712482452393, -0.112140563964844, 0.707769166032291, 0.608074061588836, 0.359595249185541, 356.138691663569205, -0.545843501033356, 0.793853169528135, -0.268052266563413, -267.807478859227899, -0.448461458760509, -0.006563600611746, 0.893778070414242, 1224.190377389405285, 0.000000000000000, 0.000000000000000, 0.000000000000000, 1.000000000000000
43, -0.646797695453599, 0.646845122976097, 0.000040386809762, 0.000019863864902, -0.000072432647405, 0.000122718462891, -0.000031818115809, 0.282964567184448, 66.809883474349974, 0.588530626296997, -26.651589603424071, 0.415977144241333, 4.334766799926758, -0.115478080749512, 0.628938085858419, 0.607502629624567, 0.485157128316162, 479.704293021705894, -0.486255181770182, 0.794288273196132, -0.364228001758177, -362.621350469782953, -0.606624086530032, -0.006833305374650, 0.794959447757721, 1126.823585390649669, 0.000000000000000, 0.000000000000000, 0.000000000000000, 1.000000000000000
44, -0.646804796052945, 0.831575957641920, 0.000041405536629, 0.000024837289683, -0.000072288919541, -0.000124995463063, -0.000031698288048, 0.251374698638916, 81.862119773864748, 0.712223300933838, -32.634177293777469, 0.520741758346558, 5.426301664352417, -0.119816852569580, 0.528240327662225, 0.607354654744726, 0.593365384557626, 587.395412587493297, -0.410076523541866, 0.794403068076450, -0.448063623016354, -444.586747784698332, -0.743504809043710, -0.006639939053791, 0.668697622351268, 1002.356172874599224, 0.000000000000000, 0.000000000000000, 0.000000000000000, 1.000000000000000
45, -0.646796946434643, 1.016428821583747, 0.000042334269956, 0.000008928231778, -0.000072192926432, -0.000180092944034, -0.000031578460286, 0.279603942871094, 94.177463632583624, 0.813906602859497, -37.475799102783199, 0.603056812286377, 6.137025863647461, -0.123988748550415, 0.409138250272885, 0.608582062689124, 0.679877757495194, 674.424760903137326, -0.320351275577012, 0.793467651430739, -0.517478643394265, -511.175760833704487, -0.854389227694160, -0.006079400138108, 0.519598006630258, 855.167196576627930, 0.000000000000000, 0.000000000000000, 0.000000000000000, 1.000000000000000
46, -0.646800272050446, 1.201248009888568, 0.000043023347760, 0.000038109864131, -0.000072240922987, -0.000166880365279, -0.000031638346896, 0.333373931884766, 103.153019048690794, 0.895341281890869, -41.059805355072022, 0.660281181335449, 6.715584398269653, -0.123988748550415, 0.277935386810566, 0.607126337920256, 0.744412204737402, 738.142483482180182, -0.218167484045220, 0.794590024405157, -0.566594777615529, -560.292688707672710, -0.935497124348247, -0.004929799118696, 0.353299911430515, 690.651308700846243, 0.000000000000000, 0.000000000000000, 0.000000000000000, 1.000000000000000
47, -0.646793500991079, 1.386034661001929, 0.000043742423411, -0.000071186307787, -0.000072145017144, -0.000152619116352, -0.000031578460286, 0.313210186004639, 108.601263185501097, 0.943761901855469, -43.151135950088502, 0.700338239669800, 7.039991029739380, -0.123321245193481, 0.134401047183644, 0.606149176126942, 0.783912963789074, 776.566972252449204, -0.110387775777459, 0.795325025182893, -0.596047517633231, -590.314625582224835, -0.984759309412633, -0.006424997934674, 0.173803975577931, 514.526753604419241, 0.000000000000000, 0.000000000000000, 0.000000000000000, 1.000000000000000
48, -0.461989263012988, 0.092428154747237, 0.000037750271764, -0.000012403673189, -0.000072816096241, -0.000197320270937, -0.000031937998112, 0.067884611129761, 10.457590738296510, 0.079673929214478, -4.248689308166504, 0.061626243591309, 0.753611289978027, -0.100459255218506, 0.887528190605852, 0.452984974239705, 0.084251551872695, 85.670734219034131, -0.451589349877454, 0.891497571899721, -0.036043562173583, -39.385067881630093, -0.091437246005998, -0.006057426017447, 0.995792416938833, 1325.193371778960682, 0.000000000000000, 0.000000000000000, 0.000000000000000, 1.000000000000000
49, -0.461991360244248, 0.277242309631584, 0.000038589175176, -0.000081133211891, -0.000072816096241, -0.000126493500975, -0.000031878056960, 0.155260843276978, 30.451289028167722, 0.270275096893311, -12.229728040695191, 0.187079668045044, 2.033382101058960, -0.107468040466309, 0.857397333056801, 0.451192028216466, 0.247579415422599, 246.796783571155231, -0.435319169794490, 0.892407112287995, -0.118771908914684, -120.982807456452250, -0.274530569657589, -0.005941347634456, 0.961560017217733, 1290.954395938420248, 0.000000000000000, 0.000000000000000, 0.000000000000000, 1.000000000000000
50, -0.461997292400203, 0.462038727934678, 0.000039727675262, 0.000015219980100, -0.000072672368377, -0.000010845694126, -0.000031818115809, 0.227178203582764, 49.590716617584235, 0.444149141311646, -19.865659809112550, 0.309011592864990, 3.249906969070435, -0.112307439804077, 0.796642501975784, 0.450053732110970, 0.403500139106235, 400.232763922254037, -0.404717359251024, 0.892978564443040, -0.196959748593779, -198.399326808449018, -0.448959444901921, -0.006397003848226, 0.893529235769667, 1223.887956209470303, 0.000000000000000, 0.000000000000000, 0.000000000000000, 1.000000000000000
51, -0.461998311072528, 0.646786789818322, 0.000040806234197, 0.000018995018185, -0.000072432647405, 0.000108457213964, -0.000031818115809, 0.237932201385498, 66.936242948532112, 0.588090438842773, -26.714096221923828, 0.420379018783569, 4.335768054962158, -0.117313714981079, 0.707662965730246, 0.451255736402569, 0.543673971510176, 538.586907183014546, -0.362054078441278, 0.892373269549699, -0.269419360991776, -268.470296286551331, -0.606737151671060, -0.006181274703039, 0.794878494252509, 1126.592242206959781, 0.000000000000000, 0.000000000000000, 0.000000000000000, 1.000000000000000
52, -0.462006610167653, 0.831618501624094, 0.000041705133303, 0.000027353999920, -0.000072336828829, -0.000154776288764, -0.000031818115809, 0.283636692047119, 81.962266378402717, 0.712663488388062, -32.677315664291385, 0.521181945800781, 5.433644201278686, -0.119483100891113, 0.594490098455014, 0.450417160516301, 0.666112531297364, 659.520187496211065, -0.305529006477350, 0.892792860544364, -0.331018027246215, -329.530236847853530, -0.743796712173368, -0.006729760281410, 0.668372023117846, 1002.022419105525501, 0.000000000000000, 0.000000000000000, 0.000000000000000, 1.000000000000000
53, -0.461996004129050, 1.016407010258651, 0.000042484041022, 0.000021871157164, -0.000072097107857, -0.000164633253869, -0.000031578460286, 0.229866703033447, 94.197627378463750, 0.809944915771484, -37.500009412765507, 0.597334375381470, 6.138360870361328, -0.121986238479614, 0.461118886524848, 0.449609091528575, 0.764997409998840, 757.056460275120116, -0.238473372822433, 0.893200693668617, -0.381212501479943, -379.273090576134450, -0.854692823735392, -0.006647228351065, 0.519091505816144, 855.010680541403076, 0.000000000000000, 0.000000000000000, 0.000000000000000, 1.000000000000000
54, -0.462006370512131, 1.201161064348484, 0.000043382885586, 0.000029181577811, -0.000072145017144, -0.000122179156152, -0.000031578460286, 0.291702190399170, 103.170494295120250, 0.891379594802856, -41.047039918899536, 0.661161556243896, 6.708241861343383, -0.123654996871948, 0.312824151724217, 0.450563306110615, 0.836142187241319, 828.309119058558622, -0.164091936184521, 0.892724826650114, -0.419662031117587, -415.465031737478057, -0.935529201349290, -0.005923771534767, 0.353199691893360, 690.761596549889305, 0.000000000000000, 0.000000000000000, 0.000000000000000, 1.000000000000000
55, -0.461993457475508, 1.386036728235343, 0.000043922192324, -0.000083320327607, -0.000072097107857, -0.000091259884907, -0.000031488575830, 0.268177820205688, 108.622771181106572, 0.942001152038574, -43.145413513183591, 0.704740114212036, 7.044162925720215, -0.123821872711182, 0.153994243405026, 0.450286752675043, 0.879504186097757, 871.956446753729665, -0.083170293340716, 0.892870025429271, -0.442567305610742, -437.807302753630040, -0.984565119889859, -0.004995803768811, 0.174947325332429, 513.886126104382015, 0.000000000000000, 0.000000000000000, 0.000000000000000, 1.000000000000000
56, -0.277189519148633, 0.092385520826065, 0.000037930040676, 0.000054348462014, -0.000072864005529, -0.000197260384327, -0.000031937998112, 0.051753614425659, 10.550343969345093, 0.073951492309570, -4.301071615219116, 0.069549617767334, 0.725409273147583, -0.103129268646240, 0.955751525407390, 0.280017212186321, 0.090163088682938, 91.713576718505863, -0.279370872279963, 0.959975582156318, -0.019969911997103, -23.402013014587091, -0.092146282632450, -0.006102666879325, 0.995726779821644, 1325.206861542326578, 0.000000000000000, 0.000000000000000, 0.000000000000000, 1.000000000000000
57, -0.277190417938656, 0.277204139880844, 0.000038948767543, 0.000088653290214, -0.000072816096241, -0.000136170751710, -0.000031818115809, 0.174752464294434, 30.601172872543334, 0.276877908706665, -12.309842157363892, 0.189720792770386, 2.046732168197632, -0.106633661270142, 0.922223116216588, 0.279485871645134, 0.267193135141092, 265.827822920083236, -0.270425000831389, 0.960125356459462, -0.070919805477279, -73.845502625353703, -0.276359987771583, -0.006851819783941, 0.961029765264604, 1290.939524988228868, 0.000000000000000, 0.000000000000000, 0.000000000000000, 1.000000000000000
58, -0.277195061823458, 0.462009426474564, 0.000039967385327, 0.000020912425990, -0.000072672368377, -0.000013841769949, -0.000031758174658, 0.230538827896118, 49.601470615386965, 0.440187454223633, -19.851133623123168, 0.309011592864990, 3.253244485855102, -0.111473060607910, 0.856971829021183, 0.278478614970948, 0.433646106021894, 430.216854654359338, -0.251333657175702, 0.960423145720732, -0.120078199247745, -121.726560848425834, -0.449922967889811, -0.006086227711575, 0.893046628568446, 1223.810434547120849, 0.000000000000000, 0.000000000000000, 0.000000000000000, 1.000000000000000
59, -0.277194552514566, 0.646832000281798, 0.000041105885413, 0.000019054959336, -0.000072432647405, 0.000105371308226, -0.000031698288048, 0.256751697540283, 67.010848808288586, 0.583688564300537, -26.735665407180786, 0.420379018783569, 4.337269937515259, -0.115144329071045, 0.762097104754615, 0.278426742419794, 0.584539606896004, 579.808806154590343, -0.224703567295448, 0.960438906880802, -0.164515692243356, -165.330698306423272, -0.607220149343986, -0.005971202149648, 0.794511192479725, 1126.114234833692080, 0.000000000000000, 0.000000000000000, 0.000000000000000, 1.000000000000000
60, -0.277201952710586, 0.831598787584799, 0.000042244385499, 0.000025825964161, -0.000072288919541, -0.000118164462545, -0.000031638346896, 0.293718564987183, 82.024101865768444, 0.712663488388061, -32.705047473907470, 0.518981008529663, 5.437816097259521, -0.119149349212646, 0.641288021759411, 0.277353192608847, 0.715419373303227, 709.232917353348171, -0.189835516045290, 0.960748784502380, -0.202297429358404, -203.189563833469464, -0.743446131199645, -0.006081087639551, 0.668768173866999, 1001.624550501301428, 0.000000000000000, 0.000000000000000, 0.000000000000000, 1.000000000000000
61, -0.277201563229455, 1.016429061239269, 0.000042903574540, 0.000022080923923, -0.000072240922987, -0.000177276637123, -0.000031608349050, 0.321947809219360, 94.181496381759644, 0.810825290679932, -37.487684164047238, 0.599535312652588, 6.153379695892333, -0.121819362640381, 0.498833422261373, 0.277934636110155, 0.820924816828754, 813.664960189295357, -0.149218586542119, 0.960584254598414, -0.234545738072516, -233.827098930631990, -0.853755837617160, -0.005497987625002, 0.520644544643172, 854.845462467123184, 0.000000000000000, 0.000000000000000, 0.000000000000000, 1.000000000000000
62, -0.277205458149843, 1.201238901887877, 0.000043622541108, 0.000010186614168, -0.000072049111302, -0.000165112619456, -0.000031548462440, 0.312538061141968, 103.126806179046639, 0.892700157165527, -41.043958606719968, 0.664242868423462, 6.712413757324219, -0.124322500228882, 0.338914194278602, 0.276782840670435, 0.899182088359689, 890.796058721469535, -0.102944607749649, 0.960916924466596, -0.256984575429986, -256.645065758570070, -0.935168207678040, -0.005470227057816, 0.354161686188920, 690.286665325779268, 0.000000000000000, 0.000000000000000, 0.000000000000000, 1.000000000000000
63, -0.277200274958303, 1.385979863117633, 0.000044281730149, -0.000015399694471, -0.000072001202014, -0.000151540502876, -0.000031548462440, 0.321275684356689, 108.685278793334959, 0.935838527679443, -43.186350946426387, 0.703419551849365, 7.054342351913452, -0.124990003585815, 0.167390812237584, 0.277002548863386, 0.946176465518790, 937.696267418038133, -0.053269145243697, 0.960856728264290, -0.271876343057372, -270.623756846046774, -0.984450463021603, -0.004892409675331, 0.175594277196385, 513.556636103101368, 0.000000000000000, 0.000000000000000, 0.000000000000000, 1.000000000000000
64, -0.092390014885260, 0.092389026210781, 0.000038349574195, 0.000046888270301, -0.000072912002083, -0.000197619922153, -0.000031937998112, 0.018819496154785, 10.652506948471069, 0.078793554306030, -4.360937108993530, 0.065587930679321, 0.738926216125488, -0.102962392807007, 0.990725219021624, 0.099556489599627, 0.092477271657178, 94.955513644224212, -0.099666630749622, 0.995014945544481, -0.003438147485411, -6.479496645454000, -0.092358557316442, -0.005810638666476, 0.995708859742000, 1325.176184067309350, 0.000000000000000, 0.000000000000000, 0.000000000000000, 1.000000000000000
65, -0.092390044828565, 0.277225981149244, 0.000039248364217, 0.000090241267124, -0.000072864005529, -0.000125444885345, -0.000031937998112, 0.111572727203369, 30.761810714721680, 0.275117158889771, -12.374109525680542, 0.190601167678833, 2.051905319213867, -0.109303674697876, 0.956437584406388, 0.100198211540115, 0.274203328825592, 275.288821061463693, -0.097837497396131, 0.994952344491790, -0.022308211348121, -23.999447913501935, -0.275054487762217, -0.005490955695761, 0.961412959225853, 1290.663821106179284, 0.000000000000000, 0.000000000000000, 0.000000000000000, 1.000000000000000
66, -0.092394029633408, 0.462021590437689, 0.000040326923152, 0.000013002921079, -0.000072672368377, -0.000012883038776, -0.000031698233506, 0.144506845474243, 49.726485839843747, 0.436665954589844, -19.901314992904663, 0.305930280685425, 3.259752643585205, -0.112974943161011, 0.888713850241531, 0.098051612430785, 0.447854411263969, 445.671358505198498, -0.090113683216419, 0.995165312350443, -0.039057972190269, -41.049288915068196, -0.449518872224564, -0.005646449695876, 0.893252988307225, 1223.550251966418500, 0.000000000000000, 0.000000000000000, 0.000000000000000, 1.000000000000000
67, -0.092394808595669, 0.646831011607320, 0.000041345540936, 0.000021511673880, -0.000072480556693, 0.000108457213964, -0.000031698233506, 0.166014841079712, 67.143257406234738, 0.586769876480102, -26.788487901687624, 0.419938831329346, 4.349785625457764, -0.118148094177246, 0.790081751672092, 0.098966767441701, 0.604959837193263, 600.643543447720049, -0.082438128184494, 0.995070659191728, -0.055121123330145, -56.299856717750551, -0.607432943374160, -0.006321562930195, 0.794345804512068, 1125.899415884720611, 0.000000000000000, 0.000000000000000, 0.000000000000000, 1.000000000000000
68, -0.092397714787037, 0.831554865392475, 0.000042304272109, 0.000022110921770, -0.000072384738117, -0.000116966075849, -0.000031638346896, 0.212391456604004, 82.027462490081788, 0.715304613113403, -32.694923162460327, 0.520301570892334, 5.439484855651855, -0.121151859283447, 0.665706969313890, 0.096583408674666, 0.739936400088344, 734.551813821906876, -0.069038473857078, 0.995307131350415, -0.067804154817340, -69.869164259818049, -0.743012732148246, -0.005946381403059, 0.669250865082599, 1001.400324321616722, 0.000000000000000, 0.000000000000000, 0.000000000000000, 1.000000000000000
69, -0.092397175480299, 1.016431967430637, 0.000043023347760, 0.000015849171295, -0.000072240922987, -0.000167899037604, -0.000031608349050, 0.277587568283081, 94.270888988494875, 0.818748664855957, -37.529501972198489, 0.599535312652588, 6.155549081802368, -0.122987493515015, 0.517685505077188, 0.095675168453429, 0.850204669461645, 843.168874618179416, -0.054409821298182, 0.995397840474106, -0.078884158902701, -80.912798761824249, -0.853839147134445, -0.005422298488154, 0.520508702616804, 854.405329220428712, 0.000000000000000, 0.000000000000000, 0.000000000000000, 1.000000000000000
70, -0.092397954497101, 1.201201241446028, 0.000043682482260, 0.000031518464593, -0.000072192926432, -0.000155794961089, -0.000031698233506, 0.264817195892334, 103.232329782485962, 0.894460906982422, -41.084015665054324, 0.663802680969238, 6.722259431838989, -0.123821872711182, 0.350988775843408, 0.095380571847160, 0.931509219356446, 923.416837847619036, -0.038516544651837, 0.995427310420204, -0.087412501724189, -89.061849413758225, -0.935587171256655, -0.005197709467358, 0.353057543179952, 689.611754335534101, 0.000000000000000, 0.000000000000000, 0.000000000000000, 1.000000000000000
71, -0.092397744730342, 1.386042001311339, 0.000044341616759, -0.000072774175614, -0.000071905296172, -0.000143900542250, -0.000031608349050, 0.241292825698853, 108.653688924789435, 0.941560964584351, -43.176226634979244, 0.702098989486694, 7.055510482788086, -0.125156879425049, 0.173683345153246, 0.095416231356635, 0.980168270456699, 971.695049450639885, -0.020464410699057, 0.995429986277698, -0.093275668391718, -94.101117134064168, -0.984588900765756, -0.003858135933132, 0.174842246828399, 513.115493871736930, 0.000000000000000, 0.000000000000000, 0.000000000000000, 1.000000000000000
72, 0.092409519212336, 0.092392951019932, 0.000038469347415, 0.000034874078243, -0.000072816096241, -0.000196810962045, -0.000031908000265, -0.025540744781494, 10.746604429244995, 0.080554304122925, -4.378984794616699, 0.066908493041992, 0.739760595321655, -0.102962392807007, 0.992003562317077, -0.086427159701751, 0.091974335638356, 94.164885812949564, 0.085539865575128, 0.996242559420961, 0.013553383185142, 10.740299723499533, -0.092800127950439, -0.005577532094243, 0.995669135500403, 1325.166441419663670, 0.000000000000000, 0.000000000000000, 0.000000000000000, 1.000000000000000
73, 0.092409279556813, 0.277237905402305, 0.000039488074281, -0.000081163155196, -0.000072816096241, -0.000139975733099, -0.000031878002419, 0.053769989013672, 30.853891820907592, 0.272035846710205, -12.383793649673461, 0.187960042953491, 2.061417242050171, -0.109303674697876, 0.957446710293426, -0.086242814345840, 0.275423263218642, 275.457018886261380, 0.081252138235092, 0.996256869781346, 0.029501515989860, 26.410626890857937, -0.276936611845602, -0.005867400376959, 0.960870275652387, 1290.692686815581965, 0.000000000000000, 0.000000000000000, 0.000000000000000, 1.000000000000000
74, 0.092404875382076, 0.462024975994643, 0.000040446750913, 0.000014261194385, -0.000072720277665, -0.000021511673880, -0.000031908000265, 0.068556735992432, 49.795714700698852, 0.443708953857422, -19.941372051239014, 0.305490093231201, 3.266260801315307, -0.113976198196411, 0.890699858260557, -0.085675429898678, 0.446445386588663, 446.075972681422456, 0.073749888699934, 0.996303071113958, 0.044058420371630, 41.227066541578473, -0.448569633848939, -0.006317531208682, 0.893725557645106, 1223.231098484617860, 0.000000000000000, 0.000000000000000, 0.000000000000000, 1.000000000000000
75, 0.092405055150988, 0.646842366664879, 0.000041465423238, 0.000020223402727, -0.000072432647405, 0.000096113536468, -0.000031698233506, 0.094097480773926, 67.166109651565563, 0.580607252120972, -26.797291650772095, 0.423020143508911, 4.359965051651001, -0.117981218338013, 0.791270996356933, -0.085195018297943, 0.605501460924348, 600.874529448369117, 0.063734936773639, 0.996343545598483, 0.056898128077318, 54.712856400425828, -0.608134909505092, -0.006430241166225, 0.793807649144160, 1125.828584179366999, 0.000000000000000, 0.000000000000000, 0.000000000000000, 1.000000000000000
76, 0.092405384690967, 0.831552768161215, 0.000042484041022, 0.000006141922714, -0.000072288832275, -0.000094435729644, -0.000031698233506, 0.166686965942383, 82.128281219482432, 0.714864425659180, -32.730578346252443, 0.522942695617676, 5.444991758346557, -0.120150604248047, 0.666563282210181, -0.087358266268733, 0.740312045102410, 735.395769592570900, 0.054174348373684, 0.996160453364188, 0.068771295840211, 66.051649168282850, -0.743477323653841, -0.005734498040486, 0.668736558552578, 1001.021104988863272, 0.000000000000000, 0.000000000000000, 0.000000000000000, 1.000000000000000
77, 0.092402568384056, 1.016419803467512, 0.000043143230063, 0.000014680727903, -0.000072288919541, -0.000146087712508, -0.000031638346896, 0.176096714019775, 94.281642986297612, 0.816547727584839, -37.528621597290041, 0.603937187194824, 6.151710937500000, -0.121485610961914, 0.517716444698255, -0.089023037780204, 0.850908092353917, 844.345058410762135, 0.041761747299822, 0.996015687463226, 0.078795347512546, 74.975880857834838, -0.854532409772423, -0.005258238444701, 0.519371458184789, 853.865709518270933, 0.000000000000000, 0.000000000000000, 0.000000000000000, 1.000000000000000
78, 0.092396456404648, 1.201238542350051, 0.000043742423411, 0.000003535328020, -0.000072145104411, -0.000132964963668, -0.000031608349050, 0.187522836685181, 103.288788270950320, 0.890059032440186, -41.098541851043699, 0.666883993148804, 6.716251901626586, -0.123821872711182, 0.351087351465636, -0.089760802913363, 0.932030401811654, 924.233152642842697, 0.026943298943366, 0.995950801620751, 0.085767472814762, 81.759448057413081, -0.935954983042931, -0.004999901132119, 0.352084181277398, 689.331859008736728, 0.000000000000000, 0.000000000000000, 0.000000000000000, 1.000000000000000
79, 0.092395258017951, 1.386033192961864, 0.000044101961237, 0.000007520078323, -0.000071953292726, -0.000118494057066, -0.000031638346896, 0.209702957153320, 108.708131038665769, 0.944202089309692, -43.205719194412225, 0.701218614578247, 7.059014875411988, -0.125657506942749, 0.174702069711835, -0.092142277353375, 0.980300457799819, 972.646715245048881, 0.011949132078963, 0.995736716780816, 0.091463703714205, 85.273680384132987, -0.984548833263724, -0.004265158695064, 0.175058285551828, 512.708575836471482, 0.000000000000000, 0.000000000000000, 0.000000000000000, 1.000000000000000
80, 0.277209143248930, 0.092390104824258, 0.000038649116327, -0.000082721079718, -0.000072816096241, -0.000197200443176, -0.000031878002419, -0.088048357009888, 10.834652786254882, 0.074831867218018, -4.443252162933350, 0.067788867950439, 0.760286323547363, -0.101794261932373, 0.959455587362520, -0.267509569151058, 0.088789674464189, 91.773185413221327, 0.265854004771336, 0.963540256331370, 0.030196400049034, 27.450702507618054, -0.093630251659834, -0.005367014206632, 0.995592572859311, 1325.152328232267564, 0.000000000000000, 0.000000000000000, 0.000000000000000, 1.000000000000000
81, 0.277208633994579, 0.277180620805618, 0.000039547960891, 0.000001438151302, -0.000072864005529, -0.000145548460311, -0.000031878002419, -0.061163362503052, 30.865317943572997, 0.276437721252441, -12.422089958190917, 0.187519855499268, 2.045730913162231, -0.109470550537109, 0.926026977210973, -0.268640640964702, 0.265153245312182, 266.149890872558103, 0.256698842402472, 0.963225021669710, 0.079393084954657, 76.038234396135678, -0.276730449692004, -0.005455607341119, 0.960932096748673, 1290.629533887090474, 0.000000000000000, 0.000000000000000, 0.000000000000000, 1.000000000000000
82, 0.277207076015516, 0.462043881128372, 0.000040476748760, 0.000014081480014, -0.000072576462535, -0.000010935578582, -0.000031788172504, -0.045032365798950, 49.883763057708741, 0.441067829132080, -19.989352483749393, 0.308571405410767, 3.269431442260742, -0.112474315643311, 0.861348013726445, -0.268434958182938, 0.431302993816218, 430.557458350863442, 0.237183798986524, 0.963278476660608, 0.125850792213395, 122.004946112479558, -0.449247643007538, -0.006103247311316, 0.893386425699668, 1223.362217014294174, 0.000000000000000, 0.000000000000000, 0.000000000000000, 1.000000000000000
83, 0.277192395342154, 0.646837273357795, 0.000041585305541, 0.000024417865248, -0.000072384738117, 0.000110554499766, -0.000031758229199, -0.006721248626709, 67.301206748962400, 0.591171751022339, -26.869922580718992, 0.419498643875122, 4.365138202667237, -0.116312459945679, 0.765495558885473, -0.268898482988394, 0.584559796062951, 581.098261809749602, 0.210232174657728, 0.963152724666394, 0.167747613116804, 163.579511174149104, -0.608127439000495, -0.005516775710760, 0.793820246101381, 1125.564734425381630, 0.000000000000000, 0.000000000000000, 0.000000000000000, 1.000000000000000
84, 0.277195091766762, 0.831557292218256, 0.000042484041022, 0.000021331904967, -0.000072432647405, -0.000145009099032, -0.000031728231353, 0.064523986816406, 82.120887845993039, 0.713103675842285, -32.745984907150266, 0.517220258712769, 5.454003053665161, -0.121986238479614, 0.644357412616905, -0.269741087669813, 0.715571988292131, 710.993355151780520, 0.176210453708205, 0.962916864942045, 0.204306111543762, 199.512274671223196, -0.744146088352009, -0.005554892698320, 0.667993819101280, 1000.955828887155690, 0.000000000000000, 0.000000000000000, 0.000000000000000, 1.000000000000000
85, 0.277196559861369, 1.016427473371442, 0.000043203116673, 0.000020463058250, -0.000072001289281, -0.000187403310139, -0.000031728231353, 0.096113855361938, 94.373051967620853, 0.814346790313721, -37.568678655624389, 0.602616624832153, 6.163559122085571, -0.121819362640381, 0.501409774959315, -0.270223201921341, 0.821929229750729, 815.878451172082464, 0.136137503889688, 0.962783798121496, 0.233482200840733, 228.581781812595580, -0.854432453509307, -0.005174864068319, 0.519536719753224, 853.982553817977987, 0.000000000000000, 0.000000000000000, 0.000000000000000, 1.000000000000000
86, 0.277189549091938, 1.201235186736402, 0.000043772366716, 0.000010665925213, -0.000072097107857, -0.000176827269382, -0.000031638346896, 0.180129463195801, 103.301558643341068, 0.897982406616211, -41.107345600128170, 0.666003618240356, 6.726097576141358, -0.124489376068115, 0.340057373913581, -0.271249012269562, 0.900435980950220, 893.654704283613910, 0.091453217277972, 0.962498663135235, 0.255406798093539, 249.779908582037081, -0.935947269613255, -0.004505197628621, 0.352111362636624, 689.012027581128905, 0.000000000000000, 0.000000000000000, 0.000000000000000, 1.000000000000000
87, 0.277198597151478, 1.385965362158643, 0.000044161847847, 0.000025885905313, -0.000072097107857, -0.000163404923868, -0.000031548462440, 0.088720481872559, 108.734343908309938, 0.943761901855469, -43.212322006225584, 0.702539176940918, 7.066691164016723, -0.125490631103516, 0.168324932244335, -0.271344639884995, 0.947649093066955, 940.297390549964575, 0.043400045651409, 0.962474093769687, 0.267880672799803, 262.449737547838026, -0.984775686754296, -0.003962982197972, 0.173784756378984, 512.756596977475510, 0.000000000000000, 0.000000000000000, 0.000000000000000, 1.000000000000000
88, 0.462007958379957, 0.092392022286605, 0.000038709057479, 0.000022979768487, -0.000072864005529, -0.000197290327632, -0.000031967886875, -0.106867853164673, 10.894471899032593, 0.079233741760254, -4.457778348922729, 0.062066431045532, 0.754111917495728, -0.104297399520874, 0.894313150709850, -0.439725021341213, 0.082739918261329, 85.475751903025539, 0.437387284990995, 0.898121145957645, 0.045505715156796, 43.433644037038789, -0.094320471773776, -0.004506971288479, 0.995531684987564, 1325.186791856477384, 0.000000000000000, 0.000000000000000, 0.000000000000000, 1.000000000000000
89, 0.462008467743391, 0.277244796343975, 0.000039547960891, 0.000094405731797, -0.000072768186953, -0.000127811769974, -0.000031967886875, -0.108884227752686, 30.952694175720215, 0.275997533798218, -12.451142330169677, 0.189720792770386, 2.074266681671142, -0.108302419662476, 0.864001309212844, -0.439501569100701, 0.245642236670554, 248.144055654584520, 0.420927386786110, 0.898222118318679, 0.126558923891291, 123.364604342826496, -0.276264135804682, -0.005949531168613, 0.961063333161226, 1290.445070582605922, 0.000000000000000, 0.000000000000000, 0.000000000000000, 1.000000000000000
90, 0.462005052243131, 0.462044959741848, 0.000040746347587, 0.000022020982772, -0.000072672368377, -0.000008568693953, -0.000031878002419, -0.113589101791382, 49.919385675430298, 0.439307079315186, -19.987151546478273, 0.310332155227661, 3.270933324813843, -0.114143074035645, 0.802896064082079, -0.440435119587989, 0.401714843782277, 401.718102158229669, 0.390984088617507, 0.897765684526349, 0.202850235727922, 198.735595663712019, -0.449988169543871, -0.005803543783733, 0.893015658401412, 1223.143182605603442, 0.000000000000000, 0.000000000000000, 0.000000000000000, 1.000000000000000
91, 0.462004872474219, 0.646843984530552, 0.000041615248846, 0.000029181577811, -0.000072432647405, 0.000111752886462, -0.000031818115809, -0.112916976928711, 67.345566989898686, 0.589411001205444, -26.868161830902096, 0.415536956787109, 4.370478229522705, -0.118314970016479, 0.713533008526458, -0.440971795618935, 0.544439639640423, 541.416194571172127, 0.347312804031296, 0.897508026835264, 0.271759375040107, 267.202081353159656, -0.608477166292294, -0.004818426598334, 0.793556753399539, 1125.479273579149776, 0.000000000000000, 0.000000000000000, 0.000000000000000, 1.000000000000000
92, 0.462003554205220, 0.831566010737817, 0.000042543982173, 0.000026185556529, -0.000072336828829, -0.000135721329428, -0.000031698233506, -0.036294742584229, 82.230444198608396, 0.716625175476074, -32.778998966217046, 0.521181945800781, 5.455838687896728, -0.121986238479614, 0.600908102303646, -0.440652894498333, 0.666884157223781, 662.457119535989364, 0.290996107715160, 0.897664729768359, 0.330937000386065, 326.528106009255453, -0.744466733897800, -0.004802030835026, 0.667642286422453, 1000.840642985702630, 0.000000000000000, 0.000000000000000, 0.000000000000000, 1.000000000000000
93, 0.462003314549697, 1.016421241509731, 0.000043382885586, 0.000019624154838, -0.000072240922987, -0.000185545788943, -0.000031698233506, -0.012770372390747, 94.393887838363653, 0.813906602859497, -37.569118843078613, 0.600855875015259, 6.161055984497070, -0.121318735122681, 0.467202983608185, -0.441358044021542, 0.766109945820499, 760.848868285231674, 0.225506913522347, 0.897319773216733, 0.379425693051876, 374.363539337589827, -0.854908184579628, -0.004505726550687, 0.518759765563036, 853.426499258193189, 0.000000000000000, 0.000000000000000, 0.000000000000000, 1.000000000000000
94, 0.462000498242786, 1.201153783871142, 0.000043802364563, 0.000042663809935, -0.000072097107857, -0.000173381771277, -0.000031608403591, -0.025540744781494, 103.335837011337276, 0.890499219894409, -41.108666162490849, 0.661601743698120, 6.722926935195924, -0.125490631103516, 0.318094733040522, -0.443292692747896, 0.838037785167351, 832.746854096852530, 0.152490895815783, 0.896365025170448, 0.416264661416847, 409.439290059678399, -0.935714843050584, -0.004618463759951, 0.352727093214172, 688.712169754320371, 0.000000000000000, 0.000000000000000, 0.000000000000000, 1.000000000000000
95, 0.461996693261396, 1.385956014502429, 0.000044251786845, -0.000099439152271, -0.000071953292726, -0.000159659829088, -0.000031698233506, -0.065868236541748, 108.747786405563346, 0.942001152038574, -43.182829446792596, 0.704740114212036, 7.062018640518188, -0.125156879425049, 0.157936750215627, -0.444010855566054, 0.881992257942680, 875.822706500945856, 0.073802452529381, 0.896012208255955, 0.437853081132170, 430.426498417810137, -0.984687351869605, -0.004059900957818, 0.174282346415917, 512.838458325558122, 0.000000000000000, 0.000000000000000, 0.000000000000000, 1.000000000000000
96, 0.646808301492202, 0.092371679056116, 0.000038649116327, 0.000045180574713, -0.000072768186953, -0.000197290327632, -0.000032057771332, -0.090064731597900, 10.981176006317138, 0.080114116668701, -4.477146596908569, 0.062066431045532, 0.755280048370361, -0.104464275360107, 0.799314565786212, -0.596767338590859, 0.070462532690658, 76.304756103115523, 0.593788546002674, 0.802391874565395, 0.059853506726523, 58.000878854686597, -0.092257181606800, -0.006001934905841, 0.995717123092375, 1324.954935795545452, 0.000000000000000, 0.000000000000000, 0.000000000000000, 1.000000000000000
97, 0.646808271548897, 0.277246294436428, 0.000039607847501, -0.000046498843712, -0.000072768186953, -0.000116306886808, -0.000031937943570, -0.067212486267090, 30.985628293991091, 0.268954534530640, -12.468749828338623, 0.189280605316162, 2.076936695098877, -0.111139308929443, 0.771742400068830, -0.597387262839452, 0.218041569736576, 220.991683520124695, 0.572802904041048, 0.801929805290815, 0.169721597059355, 166.536955091400984, -0.276243553876184, -0.006086508311322, 0.961068391613433, 1290.406024898451278, 0.000000000000000, 0.000000000000000, 0.000000000000000, 1.000000000000000
98, 0.646808151666594, 0.461998670664895, 0.000040806288739, 0.000027923249963, -0.000072672368377, -0.000012763156473, -0.000031758174658, -0.100818729400635, 49.981893287658693, 0.441067829132080, -20.015763731002806, 0.310332155227661, 3.271934579849243, -0.114643701553345, 0.716871451083627, -0.598333451886651, 0.357899990185330, 358.621210630593112, 0.532355373400679, 0.801229627811527, 0.273182795813401, 268.645779202194376, -0.450214481145019, -0.005306964330624, 0.892904674137679, 1223.114175835679134, 0.000000000000000, 0.000000000000000, 0.000000000000000, 1.000000000000000
99, 0.646808091779984, 0.646839460473511, 0.000041705133303, 0.000028762153375, -0.000072528553247, 0.000114449365612, -0.000031818115809, -0.088048357009888, 67.449746343612674, 0.589411001205444, -26.919223575592042, 0.420379018783569, 4.372480739593506, -0.117480590820313, 0.637913587338817, -0.598270264637925, 0.484911275944981, 483.484652375291375, 0.472379576896526, 0.801277779730259, 0.367166794579256, 361.836188646027608, -0.608213605914552, -0.005158503718503, 0.793756637402047, 1125.258630352246428, 0.000000000000000, 0.000000000000000, 0.000000000000000, 1.000000000000000
100, 0.646806413973160, 0.831612449585836, 0.000042603923325, 0.000030020535765, -0.000072336828829, -0.000127062696477, -0.000031698233506, -0.047048740386963, 82.247919445037837, 0.716184988021851, -32.792204589843749, 0.523382883071899, 5.455671812057496, -0.120484355926514, 0.536754990093216, -0.599110834665499, 0.594104610650718, 591.429938412868069, 0.397271994327494, 0.800652303657952, 0.448476143368039, 442.169363217805028, -0.744358141712097, -0.004700684378186, 0.667764075428807, 1000.681123821645315, 0.000000000000000, 0.000000000000000, 0.000000000000000, 1.000000000000000
101, 0.646806683626529, 1.016446947700672, 0.000043442772196, 0.000024387921943, -0.000072097107857, -0.000184137580946, -0.000031788172504, -0.030245618820190, 94.438248079299925, 0.813466415405273, -37.590688028335570, 0.602176437377930, 6.166229135513305, -0.123321245193481, 0.417669876680505, -0.599681884529077, 0.682593225487440, 679.243135852095861, 0.308560107827360, 0.800227701867272, 0.514223963873518, 507.249188046654524, -0.854600803867665, -0.004154820318583, 0.519268912507634, 853.282156716044824, 0.000000000000000, 0.000000000000000, 0.000000000000000, 1.000000000000000
102, 0.646805814779811, 1.201235905812053, 0.000043982133475, 0.000027683539899, -0.000072192926432, -0.000171853735518, -0.000031698233506, -0.024868619918823, 103.325083013534552, 0.897982406616211, -41.119670848846440, 0.667764368057251, 6.728100086212159, -0.124322500228882, 0.284248150343180, -0.600715680288149, 0.747223969424447, 743.510553543972946, 0.208465113540549, 0.799450765040157, 0.563401074469365, 555.063654596051265, -0.935812633737656, -0.004375583692990, 0.352470663749961, 688.517565217621950, 0.000000000000000, 0.000000000000000, 0.000000000000000, 1.000000000000000
103, 0.646803417897336, 1.385957752250405, 0.000044341616759, -0.000013482232124, -0.000071905383438, -0.000158491385697, -0.000031698233506, -0.103507228851318, 108.710147413253793, 0.939800214767456, -43.206599569320680, 0.706060676574707, 7.066858039855957, -0.124155624389648, 0.140682410886734, -0.601469237686533, 0.786411606847125, 782.326534736156987, 0.101991214431947, 0.798889612346301, 0.592767390688686, 583.625426665431974, -0.984787414341691, -0.003184870791405, 0.173734294692353, 512.329940565644165, 0.000000000000000, 0.000000000000000, 0.000000000000000, 1.000000000000000
104, 0.831607895585491, 0.092399692135994, 0.000038768998630, -0.000031009210243, -0.000072816096241, -0.000197500039850, -0.000031937943570, -0.109556352615356, 11.028896871566772, 0.080554304122925, -4.487270908355713, 0.067788867950439, 0.763456964492798, -0.104130523681641, 0.677134798490998, -0.733401403883541, 0.060090310818025, 64.774755959621928, 0.729894904317861, 0.679779235131053, 0.071788718720018, 70.733933025674403, -0.093498092618926, -0.004751027919454, 0.995608122912992, 1325.031384725778480, 0.000000000000000, 0.000000000000000, 0.000000000000000, 1.000000000000000
105, 0.831607835698881, 0.277174628708512, 0.000039757673109, -0.000083080617543, -0.000072768186953, -0.000124845691997, -0.000031967886875, -0.030917743682861, 31.048135906219482, 0.273356409072876, -12.459946079254150, 0.189280605316162, 2.080941715240479, -0.109136798858643, 0.652939189473193, -0.734803115503812, 0.183670346806396, 187.701768719460887, 0.705147002873566, 0.678258475223085, 0.206719967894938, 203.743524333815287, -0.276474445814649, -0.005460973717967, 0.961005753665156, 1290.351586108712354, 0.000000000000000, 0.000000000000000, 0.000000000000000, 1.000000000000000
106, 0.831599626488212, 0.462027882131469, 0.000040896173195, 0.000025676193095, -0.000072528553247, -0.000013931654406, -0.000031818115809, -0.079310733795166, 50.012811031341556, 0.443268766403198, -20.017084293365478, 0.307250843048096, 3.273269586563111, -0.112974943161011, 0.607111633246329, -0.734888533349795, 0.302248752401001, 303.855714329239731, 0.654585695017873, 0.678169695498992, 0.334070998419158, 329.535294806414129, -0.450480890443694, -0.004970679811793, 0.892772232816000, 1223.002099878086256, 0.000000000000000, 0.000000000000000, 0.000000000000000, 1.000000000000000
107, 0.831596959952367, 0.646781306975566, 0.000041765074454, 0.000032597078070, -0.000072432647405, 0.000110464560768, -0.000031818115809, -0.101490854263306, 67.430926847457883, 0.591611938476562, -26.887530078887941, 0.422579956054687, 4.373815746307373, -0.117480590820312, 0.539355283953830, -0.736560413628243, 0.408135559277645, 409.422545300310730, 0.582789983456461, 0.676352577103143, 0.450447584774027, 443.764039778840299, -0.607825396683868, -0.005093969152700, 0.794054367549458, 1125.074434308235595, 0.000000000000000, 0.000000000000000, 0.000000000000000, 1.000000000000000
108, 0.831596180990106, 0.831550311392130, 0.000042723805628, 0.000028941922288, -0.000072336828829, -0.000128890328909, -0.000031758174658, -0.030245618820190, 82.333279302597049, 0.716184988021851, -32.819056024551386, 0.518100633621216, 5.461512466430664, -0.120317480087280, 0.454073951278325, -0.737352051997480, 0.500128781600895, 500.519606721530067, 0.490209620853331, 0.675490547546168, 0.550823971699319, 542.576697886651800, -0.743983450349081, -0.004946876881917, 0.668179731820557, 1000.529163170189236, 0.000000000000000, 0.000000000000000, 0.000000000000000, 1.000000000000000
109, 0.831591477164153, 1.016416417910557, 0.000043562654498, 0.000025676193095, -0.000072192926432, -0.000180752078533, -0.000031668290201, -0.030245618820190, 94.494706567764283, 0.819629039764404, -37.608295526504520, 0.601296062469482, 6.160889108657837, -0.123654996871948, 0.353459861878473, -0.736745693363798, 0.576430316127412, 574.643024489708409, 0.380052693644473, 0.676157999165803, 0.631165834165378, 622.837249801603662, -0.854766679330934, -0.004017894223947, 0.518996898287045, 853.327191842505499, 0.000000000000000, 0.000000000000000, 0.000000000000000, 1.000000000000000
110, 0.831600555221539, 1.201163371291962, 0.000044042074627, -0.000026784695335, -0.000072097107857, -0.000168438289801, -0.000031728231353, -0.163326341629028, 103.319706014633169, 0.899743156433105, -41.096340913772579, 0.664683055877686, 6.726598203659058, -0.123488121032715, 0.240656857605338, -0.737345067339865, 0.631194525132383, 628.893069748760468, 0.257331359180875, 0.675505220291931, 0.690994405867713, 681.728072915947905, -0.935876513472609, -0.003866397279148, 0.352306971975339, 688.623138656068249, 0.000000000000000, 0.000000000000000, 0.000000000000000, 1.000000000000000
111, 0.831605948125297, 1.385950801367584, 0.000044461499062, -0.000012283845428, -0.000071905383438, -0.000155974675460, -0.000031638346896, -0.089392606735230, 108.796179395675665, 0.939360027313232, -43.228168754577638, 0.695936365127563, 7.077371217727661, -0.124823127746582, 0.119428078586461, -0.737575493799679, 0.664619684474742, 661.783438855825352, 0.126286345676149, 0.675258647824000, 0.726689422954997, 717.069701707218314, -0.984778499430664, -0.002854730295869, 0.173790556630755, 512.360178913470463, 0.000000000000000, 0.000000000000000, 0.000000000000000, 1.000000000000000
112, 1.016407219970868, 0.092400860633927, 0.000039038597458, 0.000008508807343, -0.000072816096241, -0.000197290327632, -0.000031997884722, -0.131736473083496, 11.055109741210938, 0.077913179397583, -4.526887779235840, 0.066468305587769, 0.768129487991333, -0.105966157913208, 0.529843370380645, -0.846904394944278, 0.044932712890996, 50.786349353863564, 0.842984653956356, 0.531718398137512, 0.081562358206228, 80.928784271776678, -0.092967069749247, -0.005337687340444, 0.995654876468796, 1324.944451903261324, 0.000000000000000, 0.000000000000000, 0.000000000000000, 1.000000000000000
113, 1.016406231296390, 0.277152517841284, 0.000040027271936, -0.000076818921610, -0.000072816096241, -0.000133624098168, -0.000032027828027, -0.007393373489380, 30.992349542617799, 0.278198471069336, -12.428252582550048, 0.186639480590820, 2.080774839401245, -0.110304929733276, 0.511582802065838, -0.847188185171590, 0.143370901985493, 147.262387982475929, 0.813067545129990, 0.531267276112863, 0.238067739074218, 234.275327492002361, -0.277856444385868, -0.005221133716650, 0.960608419740300, 1290.458600154485566, 0.000000000000000, 0.000000000000000, 0.000000000000000, 1.000000000000000
114, 1.016405182735302, 0.462008557573306, 0.000041105885413, 0.000025316709811, -0.000072624371823, -0.000018126116926, -0.000031818115809, -0.009409748077393, 50.065908895492555, 0.440627641677856, -20.052739477157594, 0.308571405410767, 3.276773979187012, -0.114476825714111, 0.476652959506541, -0.847167059556407, 0.234755041258343, 238.247871213152990, 0.754690327784011, 0.531289114390254, 0.384934262023637, 379.208368804188353, -0.450826424849873, -0.006312696172825, 0.892589314592165, 1222.983152806184307, 0.000000000000000, 0.000000000000000, 0.000000000000000, 1.000000000000000
115, 1.016401197930457, 0.646832449704080, 0.000042064616587, 0.000033376040331, -0.000072288919541, 0.000101925810120, -0.000031878056960, -0.003360624313354, 67.319354120254516, 0.593812875747681, -26.861118831634521, 0.420819206237793, 4.375651380538940, -0.119483100891113, 0.423951382727929, -0.847562978976268, 0.319221273965179, 320.988326937928150, 0.671288755543300, 0.530670449174081, 0.517455583653812, 511.204554702023302, -0.607977492810552, -0.005086358447289, 0.793937968101753, 1125.025798175494174, 0.000000000000000, 0.000000000000000, 0.000000000000000, 1.000000000000000
116, 1.016402576140608, 0.831611520797967, 0.000042933517845, 0.000026065674226, -0.000072384738117, -0.000150581771702, -0.000031788172504, 0.049065114974976, 82.399819664001456, 0.717065362930298, -32.854271020889286, 0.519861383438110, 5.470857513427735, -0.121151859283447, 0.355375985688632, -0.848395977350835, 0.392341910087050, 392.568755520968125, 0.564636318053635, 0.529350544043251, 0.633224944120136, 625.054676316667383, -0.744911898905279, -0.003502447149640, 0.667153652267074, 1000.610603773717685, 0.000000000000000, 0.000000000000000, 0.000000000000000, 1.000000000000000
117, 1.016399100699198, 1.016411324603474, 0.000043622595650, 0.000023459134074, -0.000072097107857, -0.000180901904141, -0.000031728231353, 0.014786746978760, 94.518230937957767, 0.813466415405273, -37.615338525772096, 0.602616624832153, 6.162057239532471, -0.122987493515015, 0.278133048486831, -0.848471058208861, 0.450265333688212, 450.557589552242518, 0.437866841885277, 0.529218316701729, 0.726774106614154, 717.526929241276548, -0.854935457281329, -0.004983638161410, 0.518710446428295, 853.219094671995435, 0.000000000000000, 0.000000000000000, 0.000000000000000, 1.000000000000000
118, 1.016407219970868, 1.201231291870556, 0.000044101961237, 0.000040267036542, -0.000071953292726, -0.000163015388196, -0.000031638346896, -0.067884611129761, 103.386918500900265, 0.890939407348633, -41.146962471008301, 0.660721368789673, 6.720090045928956, -0.125490631103516, 0.189570927842189, -0.849058189204419, 0.493115660532055, 492.716351878127909, 0.296341546733126, 0.528278371289210, 0.795678107093464, 785.455804072022374, -0.936079350801453, -0.004706779465028, 0.351757438059521, 688.753690216275118, 0.000000000000000, 0.000000000000000, 0.000000000000000, 1.000000000000000
119, 1.016403654699543, 1.385998139060167, 0.000044461499062, -0.000016058883512, -0.000072001289281, -0.000143301348902, -0.000031638346896, -0.000672124862671, 108.733671783447264, 0.940240402221680, -43.217164068222047, 0.706060676574707, 7.073533073425293, -0.124489376068115, 0.095072799217395, -0.849149129922258, 0.519525666354648, 518.561191493958404, 0.145279288983499, 0.528137509182163, 0.836638930236521, 826.285879684694123, -0.984812211054177, -0.004065285615151, 0.173575293205714, 512.451868149707593, 0.000000000000000, 0.000000000000000, 0.000000000000000, 1.000000000000000
120, 1.201206424637568, 0.092388217305215, 0.000039068540763, -0.000064175538356, -0.000072816096241, -0.000197649810916, -0.000031937998112, -0.154588718414307, 11.086027484893798, 0.080114116668701, -4.522485904693603, 0.062506618499756, 0.769798246383667, -0.104798027038574, 0.367806158004609, -0.929418186343272, 0.030007749470300, 35.692714749923610, 0.924990736636982, 0.368985210314885, 0.090785746153535, 88.409648777288780, -0.095450339285214, -0.005634666206963, 0.995418245395911, 1325.142223728242016, 0.000000000000000, 0.000000000000000, 0.000000000000000, 1.000000000000000
121, 1.201205915274135, 0.277223254726790, 0.000040027271936, -0.000094645441861, -0.000072768186953, -0.000121250422825, -0.000031937998112, -0.012770372390747, 31.139544887542726, 0.273356409072876, -12.489438638687133, 0.180917043685913, 2.081442342758179, -0.110304929733276, 0.355420553772941, -0.929622037785452, 0.097360653342915, 102.125531002816487, 0.892092993416189, 0.368463868646166, 0.261542479532570, 256.946251302850271, -0.279009535775177, -0.006102816228977, 0.960268938673222, 1290.517881560751221, 0.000000000000000, 0.000000000000000, 0.000000000000000, 1.000000000000000
122, 1.201204327351767, 0.462047955763130, 0.000041045998803, 0.000023548963989, -0.000072576549802, -0.000013092805535, -0.000031818115809, 0.012098247528076, 50.053810647964482, 0.444149141311646, -20.034251604080200, 0.313413467407227, 3.275772724151611, -0.114476825714111, 0.329694436386591, -0.930228341210459, 0.161173235447348, 165.009821181684543, 0.828729343152268, 0.366936193896027, 0.422570118924076, 416.058727889628358, -0.452226994344808, -0.005750027646482, 0.891884343829359, 1223.171987394926418, 0.000000000000000, 0.000000000000000, 0.000000000000000, 1.000000000000000
123, 1.201199473809289, 0.646820615280935, 0.000042064616587, 0.000030469903505, -0.000072480556693, 0.000112861388702, -0.000031788172504, 0.053769989013672, 67.463860965728756, 0.589851188659668, -26.913941326141355, 0.422579956054688, 4.376986387252808, -0.118481845855713, 0.293605175711698, -0.930477397244904, 0.219106855236552, 222.105278849973217, 0.736192212538180, 0.366303743028067, 0.569071694992614, 560.895315424101113, -0.609768010798731, -0.005777634461980, 0.792558888630102, 1125.316296390532216, 0.000000000000000, 0.000000000000000, 0.000000000000000, 1.000000000000000
124, 1.201200911851507, 0.831618142086268, 0.000042843578847, 0.000024327926250, -0.000072384738117, -0.000132905077058, -0.000031818115809, 0.026884994506836, 82.365541296005247, 0.715744800567627, -32.843706521987912, 0.521181945800781, 5.467186244964600, -0.119149349212646, 0.247097336879882, -0.930920640624273, 0.268941753854927, 271.315188479039421, 0.618857465026047, 0.365181473829206, 0.695455195647760, 686.136726305464776, -0.745626142304845, -0.005408514733520, 0.666342557458228, 1000.714049636204777, 0.000000000000000, 0.000000000000000, 0.000000000000000, 1.000000000000000
125, 1.201203128965070, 1.016443112775978, 0.000043712480106, 0.000019773980446, -0.000072192926432, -0.000185096312119, -0.000031698288048, 0.073261610031128, 94.569984552383417, 0.819188852310181, -37.638668460845949, 0.604377374649048, 6.176575437545776, -0.122820617675781, 0.192841389743766, -0.931391892647224, 0.308741543548506, 311.559618048252389, 0.480260026721445, 0.363974674098601, 0.798043071111036, 787.689442996117918, -0.855664949109878, -0.005619512953809, 0.517499677235602, 853.316759032227878, 0.000000000000000, 0.000000000000000, 0.000000000000000, 1.000000000000000
126, 1.201204656946287, 1.201157169428096, 0.000044281730149, 0.000032057771332, -0.000072097107857, -0.000171973617821, -0.000031698288048, -0.001344249725342, 103.396328248977653, 0.892700157165527, -41.146082096099853, 0.662922306060791, 6.735776374816894, -0.124656251907349, 0.131813356093240, -0.931754785496193, 0.338316802509690, 340.523391980793576, 0.325409575852004, 0.363053818127783, 0.873098237935834, 862.275570305358542, -0.936340668292933, -0.004994481733132, 0.351057271756279, 688.708494253761501, 0.000000000000000, 0.000000000000000, 0.000000000000000, 1.000000000000000
127, 1.201198455082422, 1.385955475195691, 0.000044581272282, -0.000004793710410, -0.000072001289281, -0.000159749768086, -0.000031638346896, 0.020835870742798, 108.779376274108898, 0.942001152038574, -43.234771566390990, 0.706060676574707, 7.079707479476928, -0.126658761978149, 0.068413187539222, -0.931535746322300, 0.357156533041856, 358.522642364137027, 0.159957981826437, 0.363605812327401, 0.917716872075339, 907.206107412404435, -0.984750262665990, -0.005653898255696, 0.173882010610005, 512.175658468975712, 0.000000000000000, 0.000000000000000, 0.000000000000000, 1.000000000000000
128, 1.386006438155292, 0.092361312727577, 0.000039428078588, -0.000066063057399, -0.000072720277665, -0.000197859523134, -0.000031997884722, -0.150555969238281, 11.113584604263306, 0.079233741760254, -4.507519531250000, 0.061186056137085, 0.765960102081299, -0.103963647842407, 0.193380307725106, -0.981036224308436, 0.013114235730342, 19.237362667477964, 0.976474395631944, 0.193746445897938, 0.094657642993829, 93.215437520467489, -0.095403413248023, -0.005499208721720, 0.995423501553013, 1325.146347593251676, 0.000000000000000, 0.000000000000000, 0.000000000000000, 1.000000000000000
129, 1.386003951388360, 0.277241440784867, 0.000040326923152, -0.000081402810718, -0.000072576549802, -0.000123137887326, -0.000031937998112, 0.005376998901367, 31.181888753890991, 0.276877908706665, -12.523773260116577, 0.191041355133057, 2.078605453491211, -0.109303674697876, 0.185195387567879, -0.981538739566262, 0.047795095504214, 53.594293693738912, 0.942445573300311, 0.191176767532471, 0.274313297020915, 271.005215178231538, -0.278386439666576, -0.005757281173399, 0.960451895684140, 1290.555843496686293, 0.000000000000000, 0.000000000000000, 0.000000000000000, 1.000000000000000
130, 1.385991607656323, 0.462041933668178, 0.000041345540936, 0.000020612883858, -0.000072528553247, -0.000010246500778, -0.000031788172504, 0.081999233245850, 50.094138139724734, 0.444589328765869, -20.064184350967409, 0.311212530136108, 3.285618398666382, -0.111973688125610, 0.176839234197479, -0.980907484281923, 0.080922138677614, 86.070672383329722, 0.874844004001963, 0.194323539308671, 0.443718751837654, 439.277125666529344, -0.450972120990049, -0.007672636460906, 0.892505056982579, 1223.077649318643580, 0.000000000000000, 0.000000000000000, 0.000000000000000, 1.000000000000000
131, 1.385994274192167, 0.646765457858813, 0.000042214442194, 0.000032297481396, -0.000072384738117, 0.000112292193200, -0.000031848059114, 0.100818729400635, 67.448402093887324, 0.589411001205444, -26.909539451599123, 0.422139768600464, 4.376652635574341, -0.116646211624146, 0.156686027958146, -0.981462961063797, 0.110362786765213, 115.587550168362512, 0.778924285767594, 0.191501048346130, 0.597163550062943, 592.040550350210879, -0.607228495448083, -0.007602929844333, 0.794490874569142, 1125.248670322632051, 0.000000000000000, 0.000000000000000, 0.000000000000000, 1.000000000000000
132, 1.385987682847172, 0.831555584468126, 0.000043083288912, 0.000023249421856, -0.000072288832275, -0.000107887963921, -0.000031758229199, 0.065868236541748, 82.354115173339835, 0.713984050750732, -32.832261648178104, 0.520741758346558, 5.462013093948364, -0.120317480087280, 0.131672739009697, -0.981729802503095, 0.137364058905227, 140.903077824967539, 0.655796394008706, 0.190181992016510, 0.730590103627068, 724.214199474104703, -0.743366248498587, -0.006115945541507, 0.668856648171543, 1000.697950043357423, 0.000000000000000, 0.000000000000000, 0.000000000000000, 1.000000000000000
133, 1.386005119886293, 1.016358983542805, 0.000043742423411, 0.000020582940553, -0.000072192926432, -0.000154686349766, -0.000031758229199, -0.041671741485596, 94.523607936859122, 0.813906602859497, -37.627663774490358, 0.603937187194824, 6.158219095230103, -0.123154369354248, 0.104333248970011, -0.981815237861334, 0.158598271940943, 161.642776405381056, 0.509359573812800, 0.189717449036893, 0.839380792070069, 831.506238483387392, -0.854205711596805, -0.006791776956406, 0.519890828964284, 853.293255625553797, 0.000000000000000, 0.000000000000000, 0.000000000000000, 1.000000000000000
134, 1.385995892057841, 1.201158248041573, 0.000044401503369, 0.000028282733247, -0.000072049111302, -0.000143571002271, -0.000031758229199, 0.034278367996216, 103.384230001449595, 0.890499219894409, -41.128474597930904, 0.664683055877686, 6.725263196945191, -0.124322500228882, 0.070493964101257, -0.982637209866714, 0.171623759458448, 176.657666266745167, 0.346994389704561, 0.185462905074579, 0.919346726950642, 909.927013753734059, -0.935214143679858, -0.005255913494180, 0.354043614311135, 688.651313711051216, 0.000000000000000, 0.000000000000000, 0.000000000000000, 1.000000000000000
135, 1.386003112484948, 1.386033492503997, 0.000044701154585, -0.000002576596847, -0.000071905296172, -0.000128171253258, -0.000031758229199, 0.024196495056152, 108.779376274108884, 0.940680589675903, -43.234331378936766, 0.702539176940918, 7.068359922409058, -0.124990003585815, 0.037053601550673, -0.982723662040218, 0.181331835810447, 185.905273271654977, 0.171771317119447, 0.185019081283797, 0.967606611271311, 957.344895905393628, -0.984439762112022, -0.004705701558996, 0.175659361110256, 512.201270938034440, 0.000000000000000, 0.000000000000000, 0.000000000000000, 1.000000000000000
136, 1.570805732651907, 0.092366675633489, 0.000039547960891, 0.000064864616161, -0.000072768186953, -0.000197979405437, -0.000031967886875, -0.166014841079712, 11.096781482696533, 0.079233741760254, -4.525567216873169, 0.067348680496216, 0.766627605438232, -0.105799282073975, 0.007930664137993, -0.999959272954790, -0.004307783427507, 2.282776065325152, 0.995819874511581, 0.007505681566280, 0.091029897681831, 94.690352115040668, -0.090993857452409, -0.005011703897233, 0.995838842750160, 1325.255392219567739, 0.000000000000000, 0.000000000000000, 0.000000000000000, 1.000000000000000
137, 1.570805912420820, 0.277231913305199, 0.000040446805455, -0.000077657770480, -0.000072576549802, -0.000136170751710, -0.000031967941417, -0.016803121566772, 31.148282510757447, 0.273356409072876, -12.511448011398315, 0.187519855499268, 2.090286762237549, -0.109136798858643, 0.010361786054621, -0.999944227862963, -0.002043172361927, 3.202810405144601, 0.961149392983117, 0.009396101047187, 0.275868732648874, 276.047563676142772, -0.275834149006143, -0.004822286662293, 0.961193148016258, 1290.690433442479616, 0.000000000000000, 0.000000000000000, 0.000000000000000, 1.000000000000000
138, 1.570798302348957, 0.462027462707034, 0.000041465423238, 0.000030619674571, -0.000072480556693, -0.000016418366796, -0.000031878002419, 0.071245235443115, 50.089433265686040, 0.439747266769409, -20.062863788604737, 0.318255529403687, 3.278943365097046, -0.115811832427979, 0.008770640367621, -0.999960144373487, -0.001668991340887, 4.246827386398596, 0.893648612861304, 0.007089257743758, 0.448711376227201, 447.040775848369094, -0.448681660644391, -0.005426977906410, 0.893675173266101, 1223.266012036335269, 0.000000000000000, 0.000000000000000, 0.000000000000000, 1.000000000000000
139, 1.570792010655177, 0.646801081010553, 0.000042364267802, 0.000023369249617, -0.000072528553247, 0.000100967078946, -0.000031818115809, 0.033606243133545, 67.477303462982178, 0.585449314117432, -26.911740388870239, 0.425221080780029, 4.376652635574342, -0.117480590820312, 0.008832371510683, -0.999952047974158, -0.004229771363034, 5.152243357501812, 0.794575141216832, 0.004450092571591, 0.607149521647144, 602.562969596069024, -0.607101584723470, -0.008723441315819, 0.794576344599977, 1125.203326027128242, 0.000000000000000, 0.000000000000000, 0.000000000000000, 1.000000000000000
140, 1.570789194348266, 0.831561486680776, 0.000043143230063, 0.000028372617703, -0.000072336828829, -0.000133174730427, -0.000031758229199, -0.054442113876343, 82.364869171142573, 0.715744800567627, -32.834022397995000, 0.521622133255005, 5.465851238250732, -0.122486865997314, 0.007549265607505, -0.999971341799647, -0.000569357708785, 5.659838393042916, 0.669195489091027, 0.004628993388221, 0.743071981574082, 737.220595102544166, -0.743048050915288, -0.005990659364796, 0.669211256653208, 1000.763636392544186, 0.000000000000000, 0.000000000000000, 0.000000000000000, 1.000000000000000
141, 1.570790332848353, 1.016349246350919, 0.000043742423411, 0.000020493056097, -0.000072145104411, -0.000180242715100, -0.000031728231353, -0.040999616622925, 94.567968177795407, 0.814786977767944, -37.631625461578366, 0.607458686828613, 6.161222860336304, -0.122153114318848, 0.006386930708779, -0.999979322116088, -0.000749970913233, 6.223841139386498, 0.520319623314601, 0.002682850157794, 0.853967383398677, 846.400129741134265, -0.853947713100675, -0.005844455088395, 0.520325999383893, 853.438847821940158, 0.000000000000000, 0.000000000000000, 0.000000000000000, 1.000000000000000
142, 1.570805612769604, 1.201200492427072, 0.000044401503369, 0.000036312175003, -0.000071857386884, -0.000167269791868, -0.000031608403591, -0.090736856460571, 103.378180877685537, 0.890499219894409, -41.132436285018926, 0.669525117874145, 6.736110126495362, -0.126658761978149, 0.005307024840859, -0.999985647107710, -0.000735571827170, 6.433661969437783, 0.354078459081332, 0.001191202496487, 0.935214962375604, 926.472683249496981, -0.935200663120984, -0.005223659175978, 0.354079698772586, 688.725992849310614, 0.000000000000000, 0.000000000000000, 0.000000000000000, 1.000000000000000
143, 1.570798362290109, 1.386029298041477, 0.000044701154585, -0.000033316153721, -0.000071953292726, -0.000155735019937, -0.000031788117963, -0.104851478576660, 108.802228519439694, 0.938919839859009, -43.229489316940303, 0.707381238937378, 7.056845489501953, -0.123321245193481, 0.002833065169581, -0.999995774968109, 0.000650989765854, 6.631841295930493, 0.176275663355550, 0.001140200642942, 0.984340180248198, 974.817689485647861, -0.984336763638495, -0.002673946226866, 0.176278148847978, 512.398130245916718, 0.000000000000000, 0.000000000000000, 0.000000000000000, 1.000000000000000
144, 1.755604188190568, -1.570855646886795, 0.000023818671899, 0.000049075386018, -0.000076603111648, -0.000200496061132, -0.000032836733593, -0.480569276809692, -109.676662965774540, -0.977216148376465, 43.477314853668211, -0.691974678039551, -6.921342308044434, -0.080434154510498, 0.009628475892061, -0.984371008754050, 0.175843707810459, 177.835933541975834, -0.010341076580311, -0.175940477396247, -0.984346489072187, -974.066650604981305, 0.999900172310794, 0.007659343190832, -0.011873494630011, 334.580978216737662, 0.000000000000000, 0.000000000000000, 0.000000000000000, 1.000000000000000
145, 1.755590256536162, -1.386036638405428, 0.000032896729286, 0.000081282982957, -0.000074877417352, 0.000063486406010, -0.000033615804937, -0.409324041366577, -108.111284160614019, -0.954766588211060, 42.889224414825435, -0.684931678771973, -6.947708690643310, -0.082603540420532, -0.026163581626542, -0.984585907282401, 0.172933681442805, 175.423964339934031, 0.169477924058009, -0.174857448016073, -0.969897987486464, -958.445784337805094, 0.985186632193849, 0.003932436165615, 0.171440472737170, 516.455533503111496, 0.000000000000000, 0.000000000000000, 0.000000000000000, 1.000000000000000
146, 1.755593672036421, -1.201184313715798, 0.000033196271418, 0.000047817003628, -0.000074877417352, 0.000112142422134, -0.000033615804937, -0.266161445617676, -102.476189311981202, -0.912948780059814, 40.666717958450320, -0.641793308258057, -6.599605690002441, -0.085607305526733, -0.055929277830759, -0.984872620085295, 0.164005603830042, 166.518444492427449, 0.346309019979832, -0.173200944459190, -0.921993218803183, -910.153596407575606, 0.936451802583528, 0.005230205041064, 0.350757275609915, 692.865394508008194, 0.000000000000000, 0.000000000000000, 0.000000000000000, 1.000000000000000
147, 1.755588488899422, -1.016392808950876, 0.000034095115982, 0.000085327674411, -0.000074733602222, 0.000050453596168, -0.000033615804937, -0.297751314163208, -93.412585538864136, -0.839437475204468, 37.078309831619265, -0.588970813751221, -5.975323175430297, -0.086775436401367, -0.086059404191269, -0.984963746221950, 0.149800525962580, 152.464848878941069, 0.509868059250544, -0.172718185247838, -0.842735421494064, -830.634267374761521, 0.855937112822156, 0.003853195182594, 0.517065577833757, 857.101297458155614, 0.000000000000000, 0.000000000000000, 0.000000000000000, 1.000000000000000
148, 1.755594960307574, -0.831636807509932, 0.000034874078243, 0.000043622541108, -0.000074733602222, 0.000019654098143, -0.000033615804937, -0.176768838882446, -81.090520431518556, -0.733352298736572, 32.238448772430417, -0.518981008529663, -5.238399469375610, -0.089111698150635, -0.112218076767269, -0.985341702838752, 0.128486699286283, 132.702885545697598, 0.658463573272145, -0.170576171466353, -0.733027620490225, -722.444115041324153, 0.744199453050279, 0.002344861341289, 0.667953348449542, 1003.813309093178532, 0.000000000000000, 0.000000000000000, 0.000000000000000, 1.000000000000000
149, 1.755589237918378, -0.646844404009529, 0.000036432002764, 0.000028702266765, -0.000074589787091, 0.000050753192842, -0.000033525920480, -0.135097097396851, -66.095414745330814, -0.608779249191284, 26.269066705703736, -0.426541643142700, -4.276860883712768, -0.093450469970703, -0.136371073802755, -0.985006937399099, 0.105661078479883, 108.799538063844466, 0.780564494272637, -0.172513876289896, -0.600797830196097, -589.490473270263124, 0.610018032939016, 0.000543841045745, 0.792387344501495, 1128.037474209460242, 0.000000000000000, 0.000000000000000, 0.000000000000000, 1.000000000000000
150, 1.755604787438457, -0.462025185706861, 0.000037930095218, 0.000017257270209, -0.000074541877803, 0.000116007290134, -0.000033615804937, -0.104851478576660, -48.737118041992190, -0.465718326568603, 19.381453609466554, -0.324858341217041, -3.169806566238403, -0.097622365951538, -0.152191190393857, -0.985414791160817, 0.076128384509222, 80.899965973442718, 0.879195455838840, -0.170167714006269, -0.445037413643184, -435.819484310793257, 0.451501043186873, -0.000799044031300, 0.892270233466186, 1225.186331295573154, 0.000000000000000, 0.000000000000000, 0.000000000000000, 1.000000000000000
151, 1.755603319343850, -0.277181639477943, 0.000040087213088, 0.000028402615550, -0.000074398149940, -0.000135421732754, -0.000033525920480, -0.092081106185913, -29.693132183074951, -0.291844282150269, 11.792181711196900, -0.203366603851318, -1.840807382583618, -0.102628641128540, -0.165429477459396, -0.985138209984974, 0.046214664502875, 50.272695983602901, 0.945987953471193, -0.171754409012007, -0.274967661502804, -267.180131858029711, 0.278818722246006, -0.001769240667209, 0.960342121284163, 1291.906810412292543, 0.000000000000000, 0.000000000000000, 0.000000000000000, 1.000000000000000
152, 1.755603169518242, -0.092405684287641, 0.000043023347760, -0.000057224655535, -0.000074110519679, -0.000147346040356, -0.000033346151567, -0.126359474182129, -9.489058811187745, -0.125013236999512, 3.769325170516968, -0.073951492309570, -0.615938722610474, -0.106466785430908, -0.172668741409271, -0.984918775636810, 0.010977756520609, 18.122444833723662, 0.980349104223620, -0.172925732014106, -0.094933266326040, -88.890214827616816, 0.095399893019246, -0.005629973843024, 0.995423107932724, 1325.549894081483217, 0.000000000000000, 0.000000000000000, 0.000000000000000, 1.000000000000000
153, 1.940400306842446, -1.570845759923843, 0.000038709002937, 0.000013931654406, -0.000075021232482, -0.000197140502024, -0.000033705634851, -0.525601642608643, -109.716318332672117, -0.976775960922241, 43.518692474365238, -0.692414865493774, -7.026640962600707, -0.079266023635864, 0.007505518104754, -0.935751242219369, 0.352580884171119, 353.550533430613882, -0.006210343762636, -0.352627635201669, -0.935743117806606, -924.853991433258216, 0.999952548288332, 0.004833588417260, -0.008457989990739, 334.289212840086009, 0.000000000000000, 0.000000000000000, 0.000000000000000, 1.000000000000000
154, 1.940390929188385, -1.386038376098863, 0.000038709002937, -0.000099199442207, -0.000074973323194, -0.000190788867093, -0.000033675691546, -0.475192277908325, -108.046088048934934, -0.951245088577271, 42.844765481948855, -0.677888679504395, -6.900315952301026, -0.079099147796631, -0.057659717646258, -0.936144933820892, 0.346854464930801, 348.315716159448186, 0.165804338461254, -0.351587024226879, -0.921355244052322, -909.954650301412016, 0.984471573133719, 0.004384891876228, 0.175489300001038, 516.375897711045468, 0.000000000000000, 0.000000000000000, 0.000000000000000, 1.000000000000000
155, 1.940388772015974, -1.201167805410004, 0.000039008654153, 0.000024028384117, -0.000074781511510, -0.000183478500988, -0.000033795519308, -0.369668674468994, -102.485599060058604, -0.905465593338013, 40.655273084640498, -0.647075557708740, -6.558387357711792, -0.079266023635864, -0.121454138102731, -0.936410776243829, 0.329216874525216, 330.628786203300365, 0.332132586414341, -0.350892890382087, -0.875535335963675, -864.236042188030751, 0.935380584243357, 0.003006262419352, 0.353629926627856, 692.493197103597822, 0.000000000000000, 0.000000000000000, 0.000000000000000, 1.000000000000000
156, 1.940393236186405, -1.016390981427526, 0.000039308305369, 0.000029601002246, -0.000074877417352, -0.000158880866828, -0.000033675691546, -0.252046823501587, -93.424011661529534, -0.826672039031982, 37.078750019073482, -0.595573625564575, -5.992344511032105, -0.083604795455933, -0.181643037357230, -0.936578166459627, 0.299711770023740, 302.353560183562308, 0.487319633899026, -0.350457896451185, -0.799811751121181, -788.635735081750227, 0.854122579842120, 0.000775194255542, 0.520071165974145, 856.699676545402212, 0.000000000000000, 0.000000000000000, 0.000000000000000, 1.000000000000000
157, 1.940396951283338, -0.831596450588934, 0.000039907498717, 0.000033555863785, -0.000074877417352, -0.000097461694231, -0.000033675691546, -0.177440963745117, -81.226961778640742, -0.723668174743652, 32.265300207138061, -0.514138946533203, -5.228053167343139, -0.086107933044434, -0.233568121995111, -0.936910218739459, 0.260086859355211, 263.591148921442141, 0.626591952607895, -0.349569972577327, -0.696551045652300, -686.133996984152532, 0.743524348837819, 0.000276213444298, 0.668708805379016, 1003.432735696071632, 0.000000000000000, 0.000000000000000, 0.000000000000000, 1.000000000000000
158, 1.940393176190712, -0.646807133048811, 0.000040566578675, -0.000079305634000, -0.000074685605667, -0.000018275942534, -0.000033615804937, -0.130392223358154, -66.123643989562993, -0.593812875747681, 26.292836828231813, -0.426541643142700, -4.283202165603638, -0.092782966613770, -0.276473524265391, -0.936835467713472, 0.214246812845264, 215.533129247488773, 0.743027189052953, -0.349767406087438, -0.570590359160521, -559.731427679850412, 0.609485837988334, 0.001438079603006, 0.792795651614408, 1127.983239652627617, 0.000000000000000, 0.000000000000000, 0.000000000000000, 1.000000000000000
159, 1.940396621743359, -0.461965474338935, 0.000041525309848, 0.000018635480359, -0.000074589787091, 0.000092548156060, -0.000033675691546, -0.069900985717773, -48.751904788970947, -0.452952890396118, 19.378372297286987, -0.316494779586792, -3.170474069595337, -0.096454235076904, -0.313243797103469, -0.936659300221905, 0.156676989006080, 159.578173363153354, 0.835764732344345, -0.350238552277123, -0.422883280194678, -413.757456839234067, 0.450971879107319, -0.001520462638567, 0.892536863355110, 1225.042945988744805, 0.000000000000000, 0.000000000000000, 0.000000000000000, 1.000000000000000
160, 1.940398449266708, -0.277160517285194, 0.000042244385499, 0.000030649617876, -0.000074493968516, -0.000081972115303, -0.000033465979329, -0.053097864151001, -29.696492807388303, -0.295365781784058, 11.789980773925780, -0.195443229675293, -1.840974258422852, -0.099958627700806, -0.337508142620080, -0.936484484766080, 0.095315599235137, 98.928457044308189, 0.899238044547593, -0.350699769235596, -0.261496866322182, -253.723108340057735, 0.278314916781988, -0.002545908582285, 0.960486504562207, 1291.726545535168952, 0.000000000000000, 0.000000000000000, 0.000000000000000, 1.000000000000000
161, 1.940398449266708, -0.092418058017526, 0.000043682536801, -0.000077567886024, -0.000074206338255, -0.000094166076274, -0.000033465979329, -0.080654983520508, -9.570385919570922, -0.124132862091064, 3.806741104125977, -0.077472991943359, -0.617440605163574, -0.104464275360107, -0.349931908091350, -0.936297225015696, 0.029919326988656, 34.408392568698112, 0.931958230267004, -0.351189684929820, -0.090109168437443, -84.369210061494357, 0.094876323374908, -0.003648510216712, 0.995482381379027, 1325.585840594738102, 0.000000000000000, 0.000000000000000, 0.000000000000000, 1.000000000000000
162, 2.125203675973819, -1.570845550211626, 0.000039248364217, 0.000034664366025, -0.000075069229036, -0.000197410155394, -0.000033825462613, -0.449651533126831, -109.747236076354980, -0.967532024383545, 43.516051349639895, -0.694175615310669, -7.014459026336670, -0.077263513565063, 0.009687802734208, -0.855624360575365, 0.517506618381042, 517.662399309268949, -0.005007329382307, -0.517565926484265, -0.855628680208267, -844.483046447165520, 0.999940534797265, 0.005697835771831, -0.009298469598654, 333.833301454777768, 0.000000000000000, 0.000000000000000, 0.000000000000000, 1.000000000000000
163, 2.125188905416001, -1.385952778771083, 0.000039188423066, 0.000041585251000, -0.000075117138324, -0.000191477999439, -0.000033735578156, -0.349504928588867, -108.097169538497923, -0.947283401489258, 42.809110298156739, -0.678328866958618, -6.895643428802490, -0.080100402832031, -0.085562426346130, -0.855976024085751, 0.509886376939131, 509.828780138061234, 0.152264044711500, -0.516985573287403, -0.842342909806208, -830.926144481278016, 0.984629235746054, 0.005564458917566, 0.174568911639780, 515.918104872687650, 0.000000000000000, 0.000000000000000, 0.000000000000000, 1.000000000000000
164, 2.125201069433667, -1.201186291119297, 0.000039488019740, 0.000042424154412, -0.000074973235928, -0.000184676887684, -0.000033825462613, -0.275571193695068, -102.499041557312012, -0.907666530609131, 40.658794584274290, -0.643994245529175, -6.545037290573120, -0.082436664581299, -0.180665522905266, -0.855823521349394, 0.484691725882019, 483.898770383803026, 0.302539811864945, -0.517264038538284, -0.800567034464815, -789.007112970867297, 0.935857698087744, 0.002003681658537, 0.352372465141249, 692.296450952675968, 0.000000000000000, 0.000000000000000, 0.000000000000000, 1.000000000000000
165, 2.125186029222480, -1.016367372467845, 0.000039787616414, 0.000089192596952, -0.000074925326640, -0.000162625907066, -0.000033855460459, 0.018147371292114, -93.497945396423347, -0.831954288482666, 37.119247264862061, -0.592492313385010, -5.988339490890503, -0.084772926330566, -0.267058318372384, -0.855938364607252, 0.442774627301042, 442.055993360297236, 0.444747513543947, -0.517075333856882, -0.731322602080142, -719.976162318572051, 0.854914910259840, 0.001617130253248, 0.518765728537606, 856.639582175168471, 0.000000000000000, 0.000000000000000, 0.000000000000000, 1.000000000000000
166, 2.125201908337079, -0.831631324776259, 0.000040296979847, 0.000095214691905, -0.000074973235928, -0.000099319269968, -0.000033735578156, -0.110900602340698, -81.243764900207509, -0.723227987289429, 32.302716140747066, -0.511497821807861, -5.222379388809204, -0.088277318954468, -0.344458800472734, -0.856102938844257, 0.385273789504440, 384.962884185329642, 0.571584604619681, -0.516804892909308, -0.637341150740137, -626.293551734288144, 0.744741011720617, 0.000678798368362, 0.667353253303022, 1003.455106500893976, 0.000000000000000, 0.000000000000000, 0.000000000000000, 1.000000000000000
167, 2.125186328764612, -0.646798264703642, 0.000041045998803, 0.000020612883858, -0.000074637696379, -0.000032057771332, -0.000033675691546, -0.065868236541748, -66.211020221710214, -0.592052125930786, 26.308683576583860, -0.419058456420898, -4.272855863571166, -0.089779201507568, -0.410094849995859, -0.855696149470407, 0.315604679604712, 314.989366913284300, 0.678642734713574, -0.517478413708108, -0.521210255047445, -511.102995603124384, 0.609316217269290, 0.000437181495358, 0.792927207406193, 1127.665204116333825, 0.000000000000000, 0.000000000000000, 0.000000000000000, 1.000000000000000
