Zhangzhongqiu/robot-calibration/0kg/20161216_run1_0kg.csv
number, theta_1, theta_2, theta_3, theta_4, theta_5, theta_6, theta_7, tau_1, tau_2, tau_3, tau_4, tau_5, tau_6, tau_7, m_00, m_01, m_02, m_03, m_10, m_11, m_12, m_13, m_20, m_21, m_22, m_23, m_30, m_31, m_32, m_33
0, 0.000331543616995, 0.000283097367630, 0.001158574972507, 0.001609031961920, -0.002139519715094, 0.000873949623660, -0.000002277000173, -0.004032749176025, 0.159293592453003, 0.009243936538696, -0.230658226013184, -0.033454246520996, -0.040717704772949, -0.022361362457275, 0.954878818485388, -0.296994743840623, 0.000751091866126, 2.402905556711266, 0.296984633261019, 0.954862030132068, 0.006215385658525, 2.500145721663168, -0.002563125975630, -0.005711877371637, 0.999980402229026, 1327.855596387197693, 0.000000000000000, 0.000000000000000, 0.000000000000000, 1.000000000000000
1, -1.570803515538344, 0.277246054726364, 0.000027503770986, -0.000049375037233, -0.000054935634407, 0.000074422039134, -0.000002696424608, 0.206342332839966, 23.596959678649903, 0.311652717590332, -8.232385768890381, 0.074391679763794, 1.055656558990478, -0.035377677917480, 0.296147953603260, 0.955123434430130, 0.005967795153504, 1.536696223159258, -0.917786720334395, 0.286290404345730, -0.275146034602342, -271.207495793105409, -0.264506948026769, 0.076006771947974, 0.961383921783391, 1289.971799945443991, 0.000000000000000, 0.000000000000000, 0.000000000000000, 1.000000000000000
2, -1.570801538189387, 0.462042802514895, 0.000025106943052, 0.000009827076342, -0.000047361603594, 0.000068609656399, -0.000002636537998, 0.293718564987183, 38.609540611267093, 0.485086574554443, -13.476338911056519, 0.204687166213989, 1.600839925765991, -0.039048946380615, 0.296713437061655, 0.954952673261116, 0.005150543515713, 0.603823654960903, -0.853040517572576, 0.267465075669970, -0.448089621254910, -441.957423188585039, -0.429281972189110, 0.128560589327776, 0.893973804551970, 1223.569492869223268, 0.000000000000000, 0.000000000000000, 0.000000000000000, 1.000000000000000
3, -1.570801538189387, 0.646773097819439, 0.000025526422029, -0.000083050728780, -0.000043334954481, 0.000072234923417, -0.000002636537998, 0.342111555099487, 52.385411796569826, 0.640472745895386, -18.223320417404175, 0.327939653396606, 2.130837591171264, -0.040050201416016, 0.296738862229047, 0.954949468905148, 0.004190403415742, -0.297718472314273, -0.759084647733611, 0.238534201779653, -0.605716049115824, -597.497860889453364, -0.579427773944389, 0.176558620347803, 0.795669848846071, 1126.731246360517844, 0.000000000000000, 0.000000000000000, 0.000000000000000, 1.000000000000000
4, -1.570797014077804, 0.831626411238088, 0.000026185556529, 0.000037330847328, -0.000040458826410, 0.000076998690522, -0.000002576596847, 0.415373165130615, 64.327726356506346, 0.775610294342041, -22.431512479782103, 0.426981830596924, 2.620785055160523, -0.041718959808350, 0.297608301339560, 0.954686551668665, 0.001699128239531, -0.885065064582932, -0.639506070901832, 0.200676644774025, -0.742132649545849, -732.220774336202794, -0.708845035429806, 0.219778234375546, 0.670250880970166, 1003.008940621312490, 0.000000000000000, 0.000000000000000, 0.000000000000000, 1.000000000000000
5, -1.570794886848698, 1.016447367125108, 0.000026724808725, 0.000078616501654, -0.000037918063354, 0.000081432808565, -0.000002456769086, 0.450323657989502, 74.017078376770030, 0.880374908447266, -25.800267066955566, 0.517220258712769, 2.960210512161255, -0.042052711486816, 0.297962644682389, 0.954577368242563, 0.000557147179086, -1.723488675401434, -0.498158728224235, 0.155993541545164, -0.852938389621554, -841.835309045812437, -0.814282594599620, 0.253866230592609, 0.522011295947522, 856.660420375354533, 0.000000000000000, 0.000000000000000, 0.000000000000000, 1.000000000000000
6, -1.570791351520678, 1.201200132889247, 0.000027264115463, 0.000003954806997, -0.000036096463216, 0.000086556058954, -0.000002396882476, 0.541060514450073, 81.177896663665763, 0.961809587478638, -28.262675685882567, 0.577085752487183, 3.254579492568970, -0.044388973236084, 0.299198026515351, 0.954190283193069, 0.001201827462777, -2.106172958320197, -0.339231032174034, 0.107547107911271, -0.934535139194916, -922.595578724456686, -0.891853602190101, 0.279203372185675, 0.355868837102504, 692.817628726729367, 0.000000000000000, 0.000000000000000, 0.000000000000000, 1.000000000000000
7, -1.570797823037912, 1.386034511230863, 0.000027683539899, -0.000063965826139, -0.000034993938729, 0.000091559481581, -0.000002366884629, 0.533667140960693, 85.557462268829340, 1.013751707077026, -29.747868156433107, 0.619783935546875, 3.442648563385010, -0.043387718200684, 0.300727200855903, 0.953710161303782, -0.000280875930839, -2.626728427471183, -0.169095092777029, 0.053029804789103, -0.984172083226687, -971.606561215782563, -0.938600021449020, 0.296014810490869, 0.177215212964220, 517.005132881716804, 0.000000000000000, 0.000000000000000, 0.000000000000000, 1.000000000000000
8, -1.385988431811586, 0.092387707941782, 0.000001557979063, -0.000013242576601, -0.000034418765475, -0.000039577904196, -0.000002816306911, -0.247341949462891, 7.994253116607666, 0.101243114471436, -2.856816577911377, -0.015406560897827, 0.444557235717773, -0.035043926239014, 0.465211274148226, 0.884906914625687, 0.022764508627071, 19.408881541637797, -0.880631015684885, 0.465266600680960, -0.089532142298683, -89.049178208072604, -0.089819177346445, 0.021604229642165, 0.995723743134800, 1323.667222363996871, 0.000000000000000, 0.000000000000000, 0.000000000000000, 1.000000000000000
9, -1.385987233424890, 0.277214416379468, -0.000000778962261, 0.000063816000531, -0.000034179044502, -0.000046918213606, -0.000002816306911, -0.070573110580444, 23.725335527420043, 0.306370468139648, -8.386451377868653, 0.117970237731934, 1.025452032089234, -0.037880815505981, 0.459620377110316, 0.886328858162057, 0.056305098651150, 51.581632345037484, -0.847839741724822, 0.456769619640964, -0.269312619320070, -266.638155732252415, -0.264418004865322, 0.076043867354276, 0.961405455019290, 1289.934088369271876, 0.000000000000000, 0.000000000000000, 0.000000000000000, 1.000000000000000
10, -1.385996910675624, 0.462025455360230, 0.000000239655523, 0.000002996075824, -0.000033555874693, -0.000041165826564, -0.000002636537998, -0.001344249725342, 38.772194828033449, 0.479804325103760, -13.585505399703980, 0.242543287277222, 1.609517469406128, -0.038548318862915, 0.447596900338382, 0.889997940875309, 0.086952171020519, 82.069946800421064, -0.784405351728748, 0.437451667909043, -0.439709315824553, -434.696579518424869, -0.429377757908781, 0.128606778520052, 0.893921158454101, 1223.460174778815144, 0.000000000000000, 0.000000000000000, 0.000000000000000, 1.000000000000000
11, -1.385996910675624, 0.646778490777738, 0.000001557979063, -0.000048805787190, -0.000033028523461, -0.000033795519308, -0.000002636537998, 0.159293592453003, 52.470771654129024, 0.634310121536255, -18.293310222625735, 0.351709775924683, 2.138347003936768, -0.040217077255249, 0.430611867078530, 0.895216105907066, 0.114723771101424, 109.168620883743998, -0.692042819441547, 0.409099578400248, -0.594738825882533, -587.588980527458034, -0.579353222128380, 0.176707834227374, 0.795691011217379, 1126.694654370423905, 0.000000000000000, 0.000000000000000, 0.000000000000000, 1.000000000000000
12, -1.386001494619275, 0.831605738467621, 0.000002786363606, -0.000022979768487, -0.000032213541967, -0.000024387867401, -0.000002516655695, 0.176096714019775, 64.366709598541263, 0.769447669982910, -22.431952667236327, 0.451632328033447, 2.600092451095581, -0.041885835647583, 0.409252915496395, 0.901766038881934, 0.139032594296761, 133.698649495195866, -0.573866657480536, 0.372859016350497, -0.729145536472834, -720.401553452439998, -0.709358238543698, 0.218618766452761, 0.670087102073197, 1002.912288616896490, 0.000000000000000, 0.000000000000000, 0.000000000000000, 1.000000000000000
13, -1.385993585005280, 1.016447367125108, 0.000003864922541, -0.000079994657263, -0.000031350651186, -0.000014321135536, -0.000002456769086, 0.291030065536499, 74.039930622100826, 0.872011346817017, -25.782219381332396, 0.529545507431030, 2.990915666580200, -0.044889600753784, 0.384116070558610, 0.909586146698903, 0.158454681445691, 153.081646148594274, -0.434225231871887, 0.329427173436816, -0.838406933062481, -828.309278253214643, -0.814802609436432, 0.253240555865115, 0.521503526853566, 856.503971859528747, 0.000000000000000, 0.000000000000000, 0.000000000000000, 1.000000000000000
14, -1.386003232312709, 1.201165019155481, 0.000004793655868, 0.000099409154425, -0.000030631662802, -0.000005992097106, -0.000002456769086, 0.264817195892334, 81.161093542098996, 0.954326400756836, -28.307574806213378, 0.590731563568115, 3.251075099945068, -0.045390228271484, 0.356310280373745, 0.917984225870957, 0.174206616269542, 167.354562596550835, -0.277991072744036, 0.282150354592206, -0.918211381370386, -907.747400590170855, -0.892056022665956, 0.278740270602567, 0.355724491664271, 692.760550521114055, 0.000000000000000, 0.000000000000000, 0.000000000000000, 1.000000000000000
15, -1.385994783501059, 1.386028728791433, 0.000005213189387, -0.000039188423066, -0.000030104311569, 0.000002336941324, -0.000002426771239, 0.284308816909790, 85.591740636825563, 1.004947957992554, -29.772518653869628, 0.628587684631348, 3.456666133880615, -0.043888345718384, 0.326891306206946, 0.927286743698208, 0.182431819833851, 175.564178245179335, -0.110721459206865, 0.229285073365280, -0.967041422899237, -955.983761903007576, -0.938553585256281, 0.295918316589987, 0.177621838491580, 516.992270590479961, 0.000000000000000, 0.000000000000000, 0.000000000000000, 1.000000000000000
16, -1.201187729270599, 0.092386209903870, -0.000005542674824, -0.000029001808898, -0.000030152308123, -0.000074811574806, -0.000002876248062, -0.162654216766357, 8.035924858093262, 0.100802927017212, -2.878825950622558, -0.011885061264038, 0.420193363189697, -0.034376422882080, 0.616574360662933, 0.786371968160371, 0.038146893250693, 36.018103489164680, -0.782308046312659, 0.617393776367834, -0.082577512536623, -84.229968259600639, -0.088488295539958, 0.021072555465557, 0.995854291027851, 1323.588041449474076, 0.000000000000000, 0.000000000000000, 0.000000000000000, 1.000000000000000
17, -1.201188418348404, 0.277218850552052, -0.000005392849216, 0.000006171866019, -0.000029912674417, -0.000075230999241, -0.000002816306911, -0.048392990112305, 23.747515647888182, 0.306810655593872, -8.383370065689085, 0.118410425186157, 1.032627693176269, -0.037547063827515, 0.606409652572813, 0.788333226401427, 0.103913701781990, 100.175529825372493, -0.749967564182128, 0.610471161809958, -0.254702990310530, -252.904078818145166, -0.264227148380417, 0.076522446052878, 0.961419954707014, 1289.808033849381218, 0.000000000000000, 0.000000000000000, 0.000000000000000, 1.000000000000000
18, -1.201194440388815, 0.461999479515919, -0.000004254349130, -0.000077987365001, -0.000029720862732, -0.000069448559811, -0.000002636537998, 0.018147371292114, 38.739932834625243, 0.472761325836182, -13.551170778274535, 0.238141412734985, 1.631044452667236, -0.039883325576782, 0.584051628467017, 0.794741970491267, 0.165132963470908, 160.340851265782163, -0.689096283148875, 0.592969572604214, -0.416573401114355, -412.417684810275318, -0.428987188428083, 0.129507861943721, 0.893978582438827, 1223.361564023150549, 0.000000000000000, 0.000000000000000, 0.000000000000000, 1.000000000000000
19, -1.201192942350903, 0.646781366916718, -0.000003055962434, -0.000011055460885, -0.000029529138314, -0.000062737441596, -0.000002576596847, 0.146523220062256, 52.480181402206419, 0.637391433715820, -18.318841094970704, 0.355671463012695, 2.145522665023804, -0.041218332290649, 0.550064183326544, 0.805027379960582, 0.222171806796233, 216.289197362148911, -0.601125187759204, 0.566345833653436, -0.563827017217919, -557.907027500006393, -0.579722263556234, 0.176587978688229, 0.795448793399073, 1126.489704334449925, 0.000000000000000, 0.000000000000000, 0.000000000000000, 1.000000000000000
20, -1.201204656946287, 0.831613348430400, -0.000001917462347, -0.000080773728607, -0.000029145689478, -0.000054857770906, -0.000002516655695, 0.156605093002319, 64.354611351013176, 0.768567295074463, -22.434153604507447, 0.452512702941895, 2.640977031707764, -0.044722724914551, 0.507770844018540, 0.818117391832162, 0.269912399023165, 263.743107071951329, -0.489108700293966, 0.531686502652985, -0.691434843057092, -683.760118483402493, -0.709183649883052, 0.219073951163479, 0.670123238412290, 1002.830105556742069, 0.000000000000000, 0.000000000000000, 0.000000000000000, 1.000000000000000
21, -1.201197676120161, 1.016447367125108, -0.000000778962261, 0.000022380575139, -0.000028810062663, -0.000046558730322, -0.000002486712390, 0.214407831192017, 74.053373119354248, 0.875092658996582, -25.807750253677369, 0.533947381973267, 2.991416294097900, -0.044388973236084, 0.456614984302136, 0.834038824267426, 0.309648180562022, 303.051504119453568, -0.356609874865123, 0.490450610429016, -0.795165137489369, -786.373172277802837, -0.815065735544957, 0.252660717849878, 0.521373578536679, 856.366583647810330, 0.000000000000000, 0.000000000000000, 0.000000000000000, 1.000000000000000
22, -1.201198245370204, 1.201188927657296, -0.000000029943305, 0.000091948962712, -0.000028378704539, -0.000037450729631, -0.000002486712390, 0.317915060043335, 81.216207780838005, 0.956967525482178, -28.304493494033814, 0.591171751022339, 3.243231935501099, -0.046057731628418, 0.400407235866870, 0.851316606169346, 0.339019293736742, 331.689415572926919, -0.208155377227384, 0.444802702206546, -0.871103837117643, -861.792675203610315, -0.892381860190344, 0.278227590598167, 0.355308349793754, 692.528194317395787, 0.000000000000000, 0.000000000000000, 0.000000000000000, 1.000000000000000
23, -1.201190365699514, 1.386033162964017, 0.000000599193348, -0.000083919575497, -0.000027803444018, -0.000023429190769, -0.000002486712390, 0.237260076522827, 85.594429136276247, 1.000986270904541, -29.769877529144289, 0.629027872085571, 3.444817949295044, -0.045557104110718, 0.339966155717477, 0.870048508208294, 0.356985442744102, 348.837375351516698, -0.048823580902505, 0.395411700581712, -0.917205454078275, -907.805395006980916, -0.939169458039675, 0.294389504581261, 0.176905479502086, 516.645792077031956, 0.000000000000000, 0.000000000000000, 0.000000000000000, 1.000000000000000
24, -1.016387805582790, 0.092358676189579, -0.000008089382908, -0.000026125615377, -0.000028186892855, -0.000084908249976, -0.000002666481303, -0.120982475280762, 8.138087837219238, 0.101243114471436, -2.885428762435913, -0.011004686355591, 0.414185832977295, -0.035878305435181, 0.751689049181861, 0.657414144808680, 0.052632837141287, 51.342061923684213, -0.653475561228517, 0.753204746178497, -0.075181787763131, -76.676449221748584, -0.089068873447144, 0.022119053769509, 0.995779836732598, 1323.487495707672906, 0.000000000000000, 0.000000000000000, 0.000000000000000, 1.000000000000000
25, -1.016387835526095, 0.277200874151651, -0.000007729845082, 0.000067650979767, -0.000027947171882, -0.000084488770999, -0.000002636537998, -0.035622617721558, 23.760286020278933, 0.304169530868530, -8.400537376403808, 0.116649675369263, 1.044309001922608, -0.039215822219849, 0.733288838516445, 0.663232885743607, 0.149698425427291, 145.333927449815150, -0.626420056615222, 0.744618850999166, -0.230522622332091, -230.532766810141595, -0.264358453576550, 0.075265569850292, 0.961483074223216, 1289.780851910510364, 0.000000000000000, 0.000000000000000, 0.000000000000000, 1.000000000000000
26, -1.016389243625009, 0.461991180475336, -0.000006591344996, 0.000020433114945, -0.000027707450910, -0.000078856211718, -0.000002516655695, 0.010081872940063, 38.799751947402953, 0.478043575286865, -13.602232522964478, 0.242983474731445, 1.634381969451904, -0.039215822219849, 0.699701563913606, 0.673260640639494, 0.239035209169176, 234.181191185817141, -0.570970230431808, 0.728075388058218, -0.379340513608187, -376.202456530852885, -0.429430689887788, 0.128943162166799, 0.893847270797940, 1223.231255396287224, 0.000000000000000, 0.000000000000000, 0.000000000000000, 1.000000000000000
27, -1.016389423393922, 0.646821124589826, -0.000005213189387, -0.000078436732741, -0.000027515813758, -0.000072504576787, -0.000002486712390, 0.098130229949951, 52.571590383529660, 0.634750308990478, -18.329405593872067, 0.358312587738037, 2.161208993911743, -0.044889600753784, 0.650745853258331, 0.688020993334203, 0.321180552335449, 315.450669798002707, -0.490362694831443, 0.703767625335558, -0.514057931606151, -509.073768969324249, -0.579719123356072, 0.177026106156595, 0.795353692236543, 1126.230242249898311, 0.000000000000000, 0.000000000000000, 0.000000000000000, 1.000000000000000
28, -1.016390561894008, 0.831594473239976, -0.000003834924695, -0.000043832307868, -0.000027228183498, -0.000065014387227, -0.000002486712390, 0.135769222259521, 64.394266717910767, 0.769887857437134, -22.462325601577760, 0.456034202575684, 2.629796350479126, -0.044722724914551, 0.588383117847868, 0.707042497444784, 0.392296078795933, 385.665939514325146, -0.387693869014775, 0.672446849940603, -0.630482908517999, -624.081676805432380, -0.709576472665192, 0.218874714875892, 0.669772415547267, 1002.505721396663716, 0.000000000000000, 0.000000000000000, 0.000000000000000, 1.000000000000000
29, -1.016391011316290, 1.016447427066259, -0.000002816306911, 0.000086705884562, -0.000026988462525, -0.000057344483296, -0.000002456769086, 0.127031599044800, 74.097733360290533, 0.877733783721924, -25.861893310546876, 0.536148319244385, 3.001095092773438, -0.044555849075317, 0.514318378100514, 0.729811616274036, 0.450390509113520, 442.419282112634448, -0.266575826312404, 0.635208750797102, -0.724877349443783, -717.793447759345213, -0.815115902662876, 0.252754520557525, 0.521249669125862, 856.154130379185972, 0.000000000000000, 0.000000000000000, 0.000000000000000, 1.000000000000000
30, -1.016393198486548, 1.201168554483502, -0.000002097231260, -0.000022590232815, -0.000026557017134, -0.000048895617105, -0.000002516655695, 0.172063964843750, 81.233683027267460, 0.958288087844849, -28.293048620223999, 0.596894187927246, 3.258417636871338, -0.045557104110718, 0.431985342834458, 0.755112501909924, 0.493146806778196, 484.289280237787182, -0.130542283994053, 0.593392073915220, -0.794257237111637, -786.724150638402875, -0.892382975894213, 0.278730974371221, 0.354910789157302, 692.224885493200873, 0.000000000000000, 0.000000000000000, 0.000000000000000, 1.000000000000000
31, -1.016399490234869, 1.386027380579129, -0.000001498037912, -0.000022889884031, -0.000026269474141, -0.000038139807436, -0.000002396827934, 0.188194961547852, 85.589724262237553, 1.001426458358765, -29.783523340225219, 0.634750308990478, 3.423290966033936, -0.046558359146118, 0.341724967939175, 0.782699869171517, 0.520197040635430, 509.426599762682713, 0.014824514310868, 0.548960676413884, -0.835716704108909, -828.854025849066147, -0.939683074266221, 0.293296932391221, 0.175990424135755, 516.627254581518969, 0.000000000000000, 0.000000000000000, 0.000000000000000, 1.000000000000000
32, -0.831588181546196, 0.092376802361046, -0.000009587420819, -0.000003115849044, -0.000026652922977, -0.000091978906017, -0.000002756420301, -0.074605859756470, 8.159595832824706, 0.103003864288330, -2.951897068023682, -0.009243936538696, 0.407177047729492, -0.035210802078247, 0.859691174847674, 0.506508971331748, 0.066179648302791, 64.904106166883508, -0.502916416289005, 0.861959939793923, -0.064032338841245, -66.422326693369953, -0.089477159745102, 0.021765205050968, 0.995751029993461, 1323.497107793967416, 0.000000000000000, 0.000000000000000, 0.000000000000000, 1.000000000000000
33, -0.831588121605045, 0.277156352820520, -0.000008988172930, -0.000010785807516, -0.000026365292716, -0.000091439653820, -0.000002696479150, 0.003360624313354, 23.797925012588500, 0.304169530868530, -8.407580375671387, 0.121051549911499, 1.047980270385742, -0.038047691345215, 0.837201387302091, 0.513172121116678, 0.189071973618683, 185.614198227723563, -0.478849485838822, 0.854843764628115, -0.199863223201087, -200.377795772709050, -0.264191231897181, 0.076788750380780, 0.961408592016739, 1289.601119812273737, 0.000000000000000, 0.000000000000000, 0.000000000000000, 1.000000000000000
34, -0.831589499760654, 0.461987615149469, -0.000007669958472, 0.000060040962446, -0.000026269474141, -0.000085687157695, -0.000002636537998, 0.069228860855103, 38.773539077758791, 0.478043575286865, -13.628643770217895, 0.246945161819458, 1.635550100326538, -0.041718959808350, 0.793739077513265, 0.526293616936585, 0.304948037541149, 299.753258477952897, -0.430988833919912, 0.840400578187424, -0.328596246507165, -327.247229740877742, -0.429216614152743, 0.129390482470894, 0.893885451935093, 1223.059292267280625, 0.000000000000000, 0.000000000000000, 0.000000000000000, 1.000000000000000
35, -0.831589409876198, 0.646820345627565, -0.000006411576083, 0.000000539306738, -0.000026125571744, -0.000079335577305, -0.000002486712390, 0.104179353713989, 52.643507743835450, 0.639152183532715, -18.387510337829589, 0.363154649734497, 2.167049648284912, -0.043554594039917, 0.730407298337544, 0.545969622519122, 0.410392921261537, 403.302451901631173, -0.361519120414014, 0.818823530335684, -0.445905765542099, -442.643186654562271, -0.579490383104266, 0.177327937604130, 0.795453140313580, 1126.288784781300137, 0.000000000000000, 0.000000000000000, 0.000000000000000, 1.000000000000000
36, -0.831604659854144, 0.831636268257736, -0.000005123304930, -0.000079215695002, -0.000025981843880, -0.000072324807874, -0.000002486712390, 0.127031599044800, 64.423840211868281, 0.775610294342041, -22.475971412658694, 0.463517389297485, 2.646984561920166, -0.044055221557617, 0.649197017200413, 0.571091881680555, 0.502391575901358, 493.592790668849261, -0.272582692412460, 0.791312631147417, -0.547286940812337, -542.850151719243286, -0.710099928640513, 0.218353801123577, 0.669387562537298, 1002.553295686088973, 0.000000000000000, 0.000000000000000, 0.000000000000000, 1.000000000000000
37, -0.831596510584627, 1.016437270449938, -0.000004134575910, 0.000011864366451, -0.000025598220511, -0.000064894614007, -0.000002456769086, 0.215079956054687, 74.149486974716183, 0.879494533538818, -25.860572748184204, 0.540110006332397, 2.990581914901734, -0.044889600753784, 0.554161807862127, 0.601397857025896, 0.575521770458458, 567.149266087848218, -0.167211297229448, 0.757725012185293, -0.630787751932172, -624.443101293674886, -0.815441642783727, 0.253324739165872, 0.520462778439265, 855.886825720395450, 0.000000000000000, 0.000000000000000, 0.000000000000000, 1.000000000000000
38, -0.831597379431344, 1.201206454580873, -0.000003175790195, 0.000081372921955, -0.000025502401935, -0.000056745344490, -0.000002456769086, 0.199621084213257, 81.237715776443480, 0.960489025115967, -28.352033739089965, 0.596894187927246, 3.267428932189941, -0.046558359146118, 0.449843855172024, 0.634182491699876, 0.628850596871234, 621.056749445721266, -0.048548392688163, 0.720438148058602, -0.691817843358560, -684.247206635791827, -0.891786723119024, 0.280680320014120, 0.354873214578678, 691.838947731582380, 0.000000000000000, 0.000000000000000, 0.000000000000000, 1.000000000000000
39, -0.831602832221712, 1.386026661503478, -0.000002486712390, 0.000039158479761, -0.000025118953099, -0.000044820982346, -0.000002426771239, 0.159293592453003, 85.654920373916624, 1.013311519622803, -29.840747709274293, 0.634750308990478, 3.416282180786133, -0.045890855789185, 0.334304321815197, 0.670792808202027, 0.662025398969042, 653.378972432101023, 0.077219070205255, 0.680583396076242, -0.728590046721724, -720.973374037465987, -0.939296457787592, 0.294691787211262, 0.175723973714219, 516.213914316235105, 0.000000000000000, 0.000000000000000, 0.000000000000000, 1.000000000000000
40, -0.646788557455061, 0.092381176592479, -0.000010186614168, 0.000041585251000, -0.000025598307777, -0.000097012271949, -0.000002756420301, -0.095441730499268, 8.233529567718506, 0.107845926284790, -3.001198062896728, -0.005722436904907, 0.410514564514160, -0.034543298721313, 0.937856323803552, 0.338112685026569, 0.078136599144136, 76.341556350931597, -0.334955414813832, 0.940858785493269, -0.050888268265136, -53.817092595212920, -0.090721474792804, 0.021553607221403, 0.995643036447885, 1323.538349547815642, 0.000000000000000, 0.000000000000000, 0.000000000000000, 1.000000000000000
41, -0.646788677282823, 0.277203121208519, -0.000009467538517, -0.000075021232482, -0.000025310764784, -0.000096293196298, -0.000002636537998, 0.030917743682861, 23.902104366302492, 0.303729343414307, -8.459082307815551, 0.122812299728394, 1.050650283813477, -0.038047691345215, 0.911360526261546, 0.345972718406842, 0.222990738127077, 219.712039648702927, -0.315342519481638, 0.935056789171564, -0.161950290000170, -163.370331075940129, -0.264539385686236, 0.077276640340702, 0.961273756158152, 1289.473498805975169, 0.000000000000000, 0.000000000000000, 0.000000000000000, 1.000000000000000
42, -0.646788946990733, 0.461980903976712, -0.000008179212822, -0.000072864060071, -0.000025214858941, -0.000090420981495, -0.000002636537998, 0.099474479675293, 38.829325441360474, 0.481124887466431, -13.615878334045410, 0.246504974365234, 1.643893892288208, -0.039716449737549, 0.859585302038489, 0.361958981962866, 0.360692117873132, 355.125073292127638, -0.276740923190190, 0.923144053723665, -0.266869851250530, -267.035979093312960, -0.429566723514801, 0.129579132004518, 0.893689923070477, 1222.907078899426551, 0.000000000000000, 0.000000000000000, 0.000000000000000, 1.000000000000000
43, -0.646806533800921, 0.646827745878127, -0.000006831000518, -0.000014800501123, -0.000025023047257, -0.000084249115476, -0.000002576596847, 0.141818346023560, 52.605868751525882, 0.637831621170044, -18.376945838928222, 0.360953712463379, 2.170887792587280, -0.042219587326050, 0.784348004533054, 0.385341984810469, 0.486117025547701, 478.867949848289015, -0.219631227366235, 0.905401528550166, -0.363332074092867, -361.538532004563933, -0.580138200561398, 0.178212308332931, 0.794783015299164, 1125.825841435402253, 0.000000000000000, 0.000000000000000, 0.000000000000000, 1.000000000000000
44, -0.646804496510812, 0.831629646914893, -0.000005452790368, 0.000064235424966, -0.000024831322839, -0.000077118463742, -0.000002456769086, 0.100146604537964, 64.487692073822018, 0.771208419799805, -22.537157468795776, 0.463957576751709, 2.646150182723999, -0.042720214843750, 0.687891503489885, 0.416632481061343, 0.594325378181931, 585.656598284783058, -0.148521897208774, 0.882313857566683, -0.446613370596208, -443.306841300524013, -0.710455153740144, 0.218951210251208, 0.668815252557535, 1002.090565806450513, 0.000000000000000, 0.000000000000000, 0.000000000000000, 1.000000000000000
45, -0.646804885991943, 1.016443502257108, -0.000004524057041, -0.000002756365760, -0.000024735416996, -0.000069927979940, -0.000002456769086, 0.216424205780029, 74.187125967025764, 0.879494533538818, -25.854410123825073, 0.541870756149292, 3.006435119628907, -0.046558359146118, 0.575140095909609, 0.451858511969656, 0.681936767770777, 672.374507523251509, -0.062378718530749, 0.855404635972244, -0.514190435764469, -510.055992575392736, -0.815673197764612, 0.253193194848838, 0.520163859308479, 855.619826793595621, 0.000000000000000, 0.000000000000000, 0.000000000000000, 1.000000000000000
46, -0.646794429778948, 1.201206814118699, -0.000003655210323, -0.000050094112884, -0.000024591601866, -0.000061119521381, -0.000002576596847, 0.120310350418091, 81.259223772048955, 0.959168462753296, -28.297450494766235, 0.599095125198364, 3.285618398666382, -0.046725234985352, 0.448860184337639, 0.491970014595546, 0.745982600102200, 736.350492304344812, 0.033508208141057, 0.824950537779167, -0.564210785261181, -558.964610092525731, -0.892973535388119, 0.278248297311449, 0.353802416808765, 691.615006781009583, 0.000000000000000, 0.000000000000000, 0.000000000000000, 1.000000000000000
47, -0.646794130127732, 1.386037417367689, -0.000003115849044, -0.000075979963656, -0.000024256062318, -0.000050932961755, -0.000002336886783, 0.190883460998535, 85.637445127487183, 1.014191894531250, -29.788805589675903, 0.635190496444702, 3.423457841873169, -0.047058986663818, 0.313005911995269, 0.535476225849750, 0.784405832847843, 774.861347466062966, 0.136943097821738, 0.791830526733232, -0.595189889776665, -588.888799423903492, -0.939826519638064, 0.293716918959533, 0.174517862988072, 515.950044171810760, 0.000000000000000, 0.000000000000000, 0.000000000000000, 1.000000000000000
48, -0.461989113187381, 0.092372428075072, -0.000010635981908, 0.000077897426003, -0.000024639511154, -0.000100367885598, -0.000002756420301, -0.065196111679077, 8.301414178848267, 0.106085176467896, -2.996356000900269, -0.002200937271118, 0.405508289337158, -0.036045181274414, 0.983049037422252, 0.161539760337535, 0.086715026686701, 85.241146156177265, -0.158969221449983, 0.986633576418833, -0.035818605703884, -39.133492348581271, -0.091342085890184, 0.021426425578611, 0.995589037521082, 1323.537539608253155, 0.000000000000000, 0.000000000000000, 0.000000000000000, 1.000000000000000
49, -0.461990581281987, 0.277155004553675, -0.000009707194039, -0.000070317461070, -0.000024447874002, -0.000099349267815, -0.000002636537998, 0.055114238739014, 23.982087224960328, 0.304609718322754, -8.464804744720460, 0.123252487182617, 1.052152166366577, -0.038214567184448, 0.953083683350278, 0.171706962234702, 0.249295430466742, 246.325685304330477, -0.145694985735832, 0.982094606209708, -0.119428453834232, -120.225167804103805, -0.265338394626378, 0.077504216491298, 0.961035188098317, 1289.421861711381098, 0.000000000000000, 0.000000000000000, 0.000000000000000, 1.000000000000000
50, -0.461990790994205, 0.461979945300079, -0.000008568693953, -0.000035263559373, -0.000024256062318, -0.000093536885080, -0.000002636537998, 0.129047973632813, 38.967111038208003, 0.480684700012207, -13.660337266921998, 0.248265724182129, 1.647231409072876, -0.041218332290649, 0.895994893941759, 0.187423375618729, 0.402573755108274, 398.884154145011166, -0.115020937099728, 0.973579491669350, -0.197264181821107, -197.399670139922989, -0.428909470703313, 0.130443289105001, 0.893879865680212, 1222.557350258730594, 0.000000000000000, 0.000000000000000, 0.000000000000000, 1.000000000000000
51, -0.461997921591398, 0.646819896259825, -0.000007130597192, 0.000074362097982, -0.000024208153030, -0.000087784498038, -0.000002396827934, 0.169375465393066, 52.689212234497070, 0.634750308990478, -18.451337518692014, 0.359192962646484, 2.183570356369019, -0.042887090682983, 0.811818123126936, 0.212392917363114, 0.543912294048079, 537.458620330299368, -0.071968698438864, 0.960792884962531, -0.267763960701197, -267.794274428366123, -0.579458230943072, 0.178230976149944, 0.795274718404253, 1125.528056706909865, 0.000000000000000, 0.000000000000000, 0.000000000000000, 1.000000000000000
52, -0.461994985456725, 0.831645166491667, -0.000005872269345, -0.000028882035678, -0.000023968432057, -0.000081013329588, -0.000002516655695, 0.188194961547852, 64.491052698135377, 0.770328044891357, -22.523071470260618, 0.463517389297485, 2.646150182723999, -0.042887090682983, 0.703726798102592, 0.245792139298002, 0.666599443362793, 657.461133091746433, -0.017927568364521, 0.944094996848639, -0.329185721467234, -328.726858674937830, -0.710244462086688, 0.219706306656590, 0.668791404617696, 1001.724137781070112, 0.000000000000000, 0.000000000000000, 0.000000000000000, 1.000000000000000
53, -0.462005471667567, 1.016410815240040, -0.000005033420474, 0.000098510309861, -0.000023872526215, -0.000074182383611, -0.000002336941324, 0.176768838882446, 74.230814083099375, 0.875532846450806, -25.901950368881224, 0.541870756149292, 2.999926961898804, -0.046892110824585, 0.576629585156767, 0.285689365841143, 0.765427924606373, 754.795045155528669, 0.045340111336158, 0.924236142106375, -0.379119806826746, -378.417104636254521, -0.815746649288834, 0.253316284256678, 0.519988715554896, 855.397638140276740, 0.000000000000000, 0.000000000000000, 0.000000000000000, 1.000000000000000
54, -0.462001666686177, 1.201148570790838, -0.000004074634759, 0.000001258327848, -0.000023584983221, -0.000065493807355, -0.000002456769086, 0.204998083114624, 81.310977386474605, 0.957407712936401, -28.321660804748532, 0.596454000473022, 3.287454032897949, -0.045557104110718, 0.435780207643231, 0.331660050101228, 0.836718125651210, 826.259570012683753, 0.115639248582565, 0.901295743883984, -0.417484785643592, -414.492127504982932, -0.892593510403074, 0.278689061901373, 0.354413927439161, 691.604748426300375, 0.000000000000000, 0.000000000000000, 0.000000000000000, 1.000000000000000
55, -0.461993337647747, 1.386007606598683, -0.000003505384716, -0.000008508807343, -0.000023393171537, -0.000055906441078, -0.000002396827934, 0.217768455505371, 85.677100494384760, 1.008029270172119, -29.798049526214598, 0.636951246261597, 3.424292221069336, -0.046892110824585, 0.284011459796824, 0.380095179079835, 0.880264247566801, 869.634745330213036, 0.192210558193211, 0.876863471697540, -0.440642205560920, -436.869858695907055, -0.939357542165459, 0.294343518431791, 0.175980968101845, 515.887092460892632, 0.000000000000000, 0.000000000000000, 0.000000000000000, 1.000000000000000
56, -0.277189579035243, 0.092368712978139, -0.000010755864211, 0.000083140558695, -0.000023872526215, -0.000104292694749, -0.000002756420301, -0.081999233245850, 8.406937782287597, 0.103003864288330, -3.059302806854248, 0.001320562362671, 0.409012681961060, -0.037213312149048, 0.995473834902314, -0.023886811980830, 0.091985130528106, 91.333084133178048, 0.025791704393151, 0.999475651100699, -0.019575771793977, -23.285506430308338, -0.091469295445939, 0.021859621914069, 0.995567940886205, 1323.487212214939291, 0.000000000000000, 0.000000000000000, 0.000000000000000, 1.000000000000000
57, -0.277190328054199, 0.277152877324568, -0.000009767135191, -0.000022829997421, -0.000023776620373, -0.000103094308053, -0.000002636537998, 0.022852245330811, 24.047955461502077, 0.303289155960083, -8.491656179428102, 0.125893611907959, 1.054321552276611, -0.039716449737549, 0.963634035325005, -0.014345487524790, 0.266840126200919, 264.590044853225265, 0.034382198858647, 0.996914180175710, -0.070568985866579, -73.521685083458109, -0.265004359143186, 0.077177226901911, 0.961153663720240, 1289.303957043393666, 0.000000000000000, 0.000000000000000, 0.000000000000000, 1.000000000000000
58, -0.277191406667676, 0.461989263012988, -0.000008568748494, -0.000022050926077, -0.000023584983221, -0.000097431750926, -0.000002576596847, 0.102162979125977, 39.106240884780888, 0.480244512557983, -13.720202760696409, 0.246504974365234, 1.646230154037476, -0.042219587326050, 0.901109566528064, 0.006049382378126, 0.433549252201464, 428.651861273992949, 0.051047957622314, 0.991468500402491, -0.119934643586527, -121.052308158878446, -0.430575957450246, 0.130206058547519, 0.893112942008638, 1222.544961965055563, 0.000000000000000, 0.000000000000000, 0.000000000000000, 1.000000000000000
59, -0.277194852111240, 0.646781366971259, -0.000007370307257, -0.000016837845773, -0.000023489164645, -0.000091829080409, -0.000002516655695, 0.145851095199585, 52.801457086563111, 0.637391433715820, -18.433289833068848, 0.366676149368286, 2.178730957031250, -0.043387718200684, 0.811442874641667, 0.032290580925920, 0.583539012900367, 577.952374201321277, 0.078461154205807, 0.983414577516547, -0.163522524468785, -164.744921592858816, -0.579141009145408, 0.178474331799894, 0.795451195495123, 1125.192578281720898, 0.000000000000000, 0.000000000000000, 0.000000000000000, 1.000000000000000
60, -0.277198117785891, 0.831639084510105, -0.000006111924867, 0.000006711172757, -0.000023297352961, -0.000085297731106, -0.000002456769086, 0.180129463195801, 64.581789554595943, 0.770328044891357, -22.568850965499877, 0.462196826934814, 2.652491464614868, -0.044055221557617, 0.696454396369483, 0.070335009527955, 0.714145825593290, 707.061724600651360, 0.109670461143024, 0.973061709267426, -0.202788806175864, -202.275669011379165, -0.709171110332546, 0.219553857611882, 0.669979432428673, 1001.237389168514028, 0.000000000000000, 0.000000000000000, 0.000000000000000, 1.000000000000000
61, -0.277198597206020, 1.016444850469412, -0.000005123304930, -0.000017976345860, -0.000023105541276, -0.000077987310459, -0.000002486712390, 0.196260459899902, 74.267108825683593, 0.879054346084595, -25.868496122360227, 0.541430568695068, 3.023289579391480, -0.045723979949951, 0.559533301150859, 0.111594249027004, 0.821260743301007, 811.794900436609055, 0.150538316334101, 0.960728160242769, -0.233108595791400, -233.404779957288923, -0.815021901680266, 0.254063231697629, 0.520760188648134, 854.804923392733940, 0.000000000000000, 0.000000000000000, 0.000000000000000, 1.000000000000000
62, -0.277200155130541, 1.201212566560282, -0.000004194462520, -0.000066212883006, -0.000023009722700, -0.000070347349834, -0.000002456769086, 0.264145071029663, 81.329124757766721, 0.960489025115967, -28.311536493301393, 0.600855875015259, 3.293461563110352, -0.047058986663818, 0.406987551576284, 0.159574361218618, 0.899387100254174, 888.982034688592080, 0.194601628173755, 0.946870473329100, -0.256059588864876, -256.037565394606020, -0.892463634650771, 0.279235259197680, 0.354311065092157, 690.726618618439261, 0.000000000000000, 0.000000000000000, 0.000000000000000, 1.000000000000000
63, -0.277202402187409, 1.385976537501830, -0.000003775038085, 0.000099648864489, -0.000022817911016, -0.000061568943663, -0.000002456769086, 0.213063581466675, 85.695919990539551, 1.008469457626343, -29.862316894531247, 0.637831621170044, 3.429298496246338, -0.045723979949951, 0.244241807677986, 0.211119286173354, 0.946453689510397, 935.472607461147390, 0.241830742679699, 0.931914691392129, -0.270282999580993, -270.021888489634534, -0.939076051913356, 0.294896007048530, 0.176557395057976, 515.185200532535191, 0.000000000000000, 0.000000000000000, 0.000000000000000, 1.000000000000000
64, -0.092389925055345, 0.092376622592134, -0.000010905635277, 0.000045180574713, -0.000023153537831, -0.000107198886117, -0.000002636537998, -0.096785980224609, 8.476838768005370, 0.106965551376343, -3.069427118301391, -0.001760749816895, 0.420026487350464, -0.036712684631348, 0.973256398614241, -0.208906462147781, 0.095551413539181, 94.129865655764746, 0.210092726103853, 0.977678482530514, -0.002414795039416, -6.593754409319661, -0.092914094704136, 0.022424871676977, 0.995421567043623, 1323.537806136119343, 0.000000000000000, 0.000000000000000, 0.000000000000000, 1.000000000000000
65, -0.092389984941955, 0.277202522015171, -0.000009887017494, -0.000084279058781, -0.000023105541276, -0.000106000444879, -0.000002636537998, -0.031589868545532, 24.148102066040039, 0.304609718322754, -8.509263677597046, 0.126333799362183, 1.071176012039185, -0.037880815505981, 0.940531645811245, -0.198019742627303, 0.276022471471813, 274.019125820279783, 0.211686840693307, 0.977126354946323, -0.020316691329988, -24.194653507683793, -0.265685725444326, 0.077538816080259, 0.960936432494884, 1289.211728254640093, 0.000000000000000, 0.000000000000000, 0.000000000000000, 1.000000000000000
66, -0.092390044828565, 0.462005172070893, -0.000008748462866, 0.000093626769536, -0.000023009722700, -0.000100307944447, -0.000002576651388, 0.032934118270874, 39.144552001953123, 0.480244512557983, -13.765101881027221, 0.255308723449707, 1.651069553375244, -0.039883325576782, 0.875991836550810, -0.177615999429927, 0.448431554468290, 443.929525949938181, 0.216986146374112, 0.975453639436071, -0.037512792386544, -40.996239834353261, -0.430761319732925, 0.130164334813465, 0.893029636330462, 1222.436192831827611, 0.000000000000000, 0.000000000000000, 0.000000000000000, 1.000000000000000
67, -0.092391662748779, 0.646827925647040, -0.000007490135018, 0.000094435729644, -0.000022817911016, -0.000094975036382, -0.000002516710237, 0.071917360305786, 52.874046571731569, 0.636951246261597, -18.501959075927736, 0.371078023910522, 2.184237859725952, -0.044222097396851, 0.781825790828540, -0.147709344504841, 0.605747787731229, 598.597380728895587, 0.225171721317768, 0.972854778759730, -0.053397334794456, -56.276918977808222, -0.581417344696666, 0.178144685551682, 0.793862924122024, 1125.283745713297549, 0.000000000000000, 0.000000000000000, 0.000000000000000, 1.000000000000000
68, -0.092395917097909, 0.831628927893784, -0.000006261750475, -0.000045869597976, -0.000022722092440, -0.000088203922473, -0.000002576651388, 0.128375848770142, 64.628166170120238, 0.774289731979370, -22.553444404602050, 0.467479076385498, 2.656329608917236, -0.044388973236084, 0.663047226761762, -0.111584930014755, 0.740214278757941, 732.441185559459996, 0.237389600057015, 0.969132349462912, -0.066548230699751, -69.709157613509376, -0.709939823413441, 0.219843791402211, 0.669069618585087, 1001.069154864240886, 0.000000000000000, 0.000000000000000, 0.000000000000000, 1.000000000000000
69, -0.092401429938512, 1.016444820526107, -0.000005392849216, 0.000068849421005, -0.000022530368022, -0.000081342924109, -0.000002336886783, 0.135769222259521, 74.312141191482539, 0.880374908447266, -25.933203678131100, 0.540550193786621, 2.998591955184937, -0.045890855789185, 0.521970972595691, -0.066860776605910, 0.850338720933701, 841.032571169432572, 0.250830115164333, 0.964875238046410, -0.078102678132893, -80.749997528836545, -0.815248770066019, 0.254057890167847, 0.520407562732620, 854.622512020445015, 0.000000000000000, 0.000000000000000, 0.000000000000000, 1.000000000000000
70, -0.092400710862861, 1.201241688196941, -0.000004613886955, -0.000028162905486, -0.000022386552892, -0.000072145038961, -0.000002306943478, 0.173408214569092, 81.351977003097531, 0.958728275299072, -28.362598237991332, 0.607458686828613, 3.289122791290283, -0.047893365859985, 0.363259124251195, -0.017179168135191, 0.931529755204007, 921.000097559125948, 0.266231751769924, 0.960054662949890, -0.086114449993544, -88.879807037753594, -0.892840110544868, 0.279284658243799, 0.353322256123036, 690.594262825734404, 0.000000000000000, 0.000000000000000, 0.000000000000000, 1.000000000000000
71, -0.092402089018470, 1.385951670268843, -0.000004104632605, -0.000044551328977, -0.000022242737761, -0.000060819924707, -0.000002336886783, 0.176096714019775, 85.742296606063846, 1.008909645080566, -29.824900960922243, 0.637831621170044, 3.425293476104736, -0.046558359146118, 0.194056638923051, 0.035303340396976, 0.980354882196597, 969.454066327170153, 0.283386198814432, 0.954728469278443, -0.090475478836796, -94.250565328180258, -0.939166802656161, 0.295376410882886, 0.175266918391773, 514.709931912090838, 0.000000000000000, 0.000000000000000, 0.000000000000000, 1.000000000000000
72, 0.092409609151334, 0.092368203614705, -0.000010935633124, 0.000085447556714, -0.000022770001728, -0.000108816751790, -0.000002756420301, -0.157277217864990, 8.544051254272460, 0.109606676101685, -3.114766426086426, 0.001320562362671, 0.418190853118896, -0.036545808792114, 0.918139119608380, -0.384460890303366, 0.095970729245394, 94.428643717959858, 0.384946267611312, 0.922830505189602, 0.014150255956117, 10.486951899840617, -0.094004936555850, 0.023951670477168, 0.995283572347341, 1323.619933556644355, 0.000000000000000, 0.000000000000000, 0.000000000000000, 1.000000000000000
73, 0.092409279556813, 0.277157850803891, -0.000010006845255, -0.000058542924534, -0.000022482371467, -0.000107348711724, -0.000002696479150, -0.108884227752686, 24.211281803131104, 0.308571405410767, -8.533914175033569, 0.132056236267090, 1.064000350952149, -0.039883325576782, 0.886339306770131, -0.373098859111550, 0.274225955379691, 273.836162490543757, 0.379679965525401, 0.924605315164386, 0.030791800018804, 26.342334506330740, -0.265039161357100, 0.076826118601860, 0.961172196043819, 1289.083119613730787, 0.000000000000000, 0.000000000000000, 0.000000000000000, 1.000000000000000
74, 0.092407362094466, 0.462006969705479, -0.000008778460712, -0.000050753192842, -0.000022434462180, -0.000101686154597, -0.000002636537998, -0.050409364700317, 39.226551235198976, 0.478043575286865, -13.768183193206788, 0.254868535995483, 1.664920248031616, -0.041218332290649, 0.821299813406233, -0.354059031333135, 0.447335242106330, 443.564003158930120, 0.374418721616330, 0.926137931256156, 0.045597732309424, 41.070513345218551, -0.430438424634790, 0.130041280445906, 0.893203240017584, 1222.392081247060560, 0.000000000000000, 0.000000000000000, 0.000000000000000, 1.000000000000000
75, 0.092404575785402, 0.646823431587846, -0.000007490189559, -0.000054228579711, -0.000022434462180, -0.000096413078601, -0.000002486712390, -0.006049123764038, 52.921095312118524, 0.639152183532715, -18.481710453033450, 0.372838773727417, 2.178063453674317, -0.041718959808350, 0.726897727460537, -0.324725776964160, 0.605122188973211, 599.199588441196397, 0.365891063826727, 0.928792412306812, 0.058892989846316, 54.285796163516700, -0.581156969522395, 0.178599620985922, 0.793951353773788, 1124.940930140882529, 0.000000000000000, 0.000000000000000, 0.000000000000000, 1.000000000000000
76, 0.092399512421623, 0.831634170971934, -0.000006321691627, 0.000079934770653, -0.000022146831919, -0.000089881729298, -0.000002456769086, 0.075950109481812, 64.684624658584596, 0.768127107620239, -22.614630460739136, 0.465718326568603, 2.651657085418701, -0.044722724914551, 0.608082857928803, -0.287449902612348, 0.740005264428092, 732.408030608833428, 0.354910386713027, 0.932239700807372, 0.070482321484130, 65.860979623220260, -0.710122422752830, 0.219776463086324, 0.668897937638409, 1001.262245800597725, 0.000000000000000, 0.000000000000000, 0.000000000000000, 1.000000000000000
77, 0.092403227518556, 1.016444431044977, -0.000005512731519, -0.000012643383253, -0.000022146831919, -0.000082151884216, -0.000002396827934, 0.013442497253418, 74.341714685440053, 0.875532846450806, -25.909873743057251, 0.544952068328857, 3.026960847854614, -0.045390228271484, 0.466404241859152, -0.243110891810636, 0.850508187767071, 841.276470266697856, 0.342478022751567, 0.936132714710994, 0.079776841125741, 74.921522954355311, -0.815583157690230, 0.254072105377316, 0.519876406621008, 854.742678820083484, 0.000000000000000, 0.000000000000000, 0.000000000000000, 1.000000000000000
78, 0.092398194098082, 1.201242676871420, -0.000004583943651, -0.000053209961928, -0.000022050926077, -0.000073702963483, -0.000002336886783, 0.096113855361938, 81.373484998703006, 0.962249774932861, -28.344550552368162, 0.603056812286377, 3.298968465805054, -0.046391483306885, 0.307012143612985, -0.193351406719459, 0.931857702223771, 921.773187262188458, 0.328958349733792, 0.940352862845907, 0.086734638282097, 81.558034339281576, -0.893045322374279, 0.279913784685771, 0.352304307848070, 690.367452410544956, 0.000000000000000, 0.000000000000000, 0.000000000000000, 1.000000000000000
79, 0.092397564961429, 1.385981001617720, -0.000004314344823, -0.000084938193281, -0.000021859201659, -0.000062887267204, -0.000002336886783, 0.079310733795166, 85.759771852493287, 1.009790019989014, -29.810374774932860, 0.639592370986938, 3.424459096908569, -0.046057731628418, 0.140545252379737, -0.140478131455948, 0.980057613926937, 970.433905054989623, 0.314359536990699, 0.944992652433699, 0.090371280555914, 85.343239418358351, -0.938842432752435, 0.295389203304670, 0.176974871195102, 514.004637809595465, 0.000000000000000, 0.000000000000000, 0.000000000000000, 1.000000000000000
80, 0.277209263131233, 0.092369941362682, -0.000011055460885, -0.000012553444255, -0.000022386552892, -0.000109925308571, -0.000002756420301, -0.204998083114624, 8.630755361557007, 0.110046863555908, -3.133694486618042, 0.005722436904907, 0.422529624938965, -0.037046436309814, 0.833431833479249, -0.545717236096376, 0.087086607298431, 91.602336958779020, 0.545189506563025, 0.837707763115031, 0.031845023950008, 27.377986992919343, -0.090331505450667, 0.020938047763434, 0.995691627603081, 1323.179444068281782, 0.000000000000000, 0.000000000000000, 0.000000000000000, 1.000000000000000
81, 0.277209203244623, 0.277170733842666, -0.000010096675170, 0.000085417558867, -0.000022194741207, -0.000108307388356, -0.000002546653542, -0.194916210174561, 24.288576162338259, 0.306810655593872, -8.608305854797363, 0.135137548446655, 1.077684169769287, -0.038715194702148, 0.800754264190650, -0.537145856677008, 0.265079114671856, 264.812772809113142, 0.536735693385094, 0.839896254293107, 0.080554810351903, 75.746024261386637, -0.265908638120151, 0.077772814524950, 0.960855860935424, 1289.091122221546357, 0.000000000000000, 0.000000000000000, 0.000000000000000, 1.000000000000000
82, 0.277207944862233, 0.462008947108977, -0.000008928231778, -0.000002456769086, -0.000022098922631, -0.000102884595835, -0.000002516655695, -0.166686965942383, 39.284353973388676, 0.482885637283325, -13.794594440460205, 0.256189098358154, 1.646563905715942, -0.041718959808350, 0.738306677673661, -0.517884026520204, 0.432087242090879, 429.514425999594323, 0.518850403123604, 0.845419281506053, 0.126730018686430, 121.415003441657674, -0.430926338114712, 0.130623020685520, 0.892883036901270, 1222.133078801420197, 0.000000000000000, 0.000000000000000, 0.000000000000000, 1.000000000000000
83, 0.277202701729542, 0.646824689915693, -0.000007460191713, -0.000050363711712, -0.000021955107501, -0.000097222038708, -0.000002486712390, -0.128375848770142, 52.979570175170899, 0.638271808624268, -18.508561887741088, 0.369757461547852, 2.190245389938354, -0.044722724914551, 0.647766626205160, -0.488652114716269, 0.584480546090375, 579.448139156869729, 0.492441588048509, 0.853943245736638, 0.168173170931151, 163.166117185858127, -0.581291390212385, 0.178885560747909, 0.793788558635648, 1124.754855594782839, 0.000000000000000, 0.000000000000000, 0.000000000000000, 1.000000000000000
84, 0.277202971437452, 0.831594533126586, -0.000006381632778, -0.000007789731692, -0.000021859201659, -0.000090480922646, -0.000002456769086, -0.038311117172241, 64.714198152542110, 0.767246732711792, -22.602305212020873, 0.467038888931274, 2.640476404190063, -0.046224607467651, 0.532572213550527, -0.453311238555601, 0.714755733347470, 708.696150142674128, 0.460598108396117, 0.863709870718421, 0.204584070165511, 198.972292023031883, -0.710081840280267, 0.220259347639901, 0.668782176707360, 1000.743164584939109, 0.000000000000000, 0.000000000000000, 0.000000000000000, 1.000000000000000
85, 0.277202372244104, 1.016447187356195, -0.000005512731519, -0.000047098037060, -0.000021667564507, -0.000083050728780, -0.000002456769086, -0.117621850967407, 74.370616054534906, 0.875532846450806, -25.923959741592405, 0.544952068328857, 3.013277029037476, -0.046057731628418, 0.395349920828075, -0.410929351819099, 0.821483723463083, 813.922637715760857, 0.422606388809949, 0.875441024892330, 0.234535396203816, 227.855476173549704, -0.815538031141558, 0.254440719518324, 0.519766909309114, 854.079330965857139, 0.000000000000000, 0.000000000000000, 0.000000000000000, 1.000000000000000
86, 0.277203241036280, 1.201220775716410, -0.000004703825953, -0.000062917155967, -0.000021571658665, -0.000074212326916, -0.000002277000173, -0.044360240936279, 81.432631986618048, 0.957847900390625, -28.357315988540648, 0.607018499374390, 3.294629693984986, -0.047225862503052, 0.241875790776204, -0.362766881500114, 0.899942382335152, 891.227891495752147, 0.379866407323744, 0.888854519775281, 0.256201395901752, 249.238563478882753, -0.892859235503188, 0.279888964344322, 0.352795341827136, 690.087861908284367, 0.000000000000000, 0.000000000000000, 0.000000000000000, 1.000000000000000
87, 0.277203271034126, 1.386019411023983, -0.000004254349130, -0.000072684345699, -0.000021331937692, -0.000065373979594, -0.000002396827934, -0.057802738189697, 85.673739870071415, 1.010230207443237, -29.796288776397702, 0.642673683166504, 3.430800378799439, -0.048227117538452, 0.077912076263701, -0.310776452498732, 0.947284384408707, 938.114486033594289, 0.334503904229318, 0.903241702609499, 0.268815112526132, 261.931371282312227, -0.939168167277630, 0.295926381452207, 0.174329373121629, 514.198977156526212, 0.000000000000000, 0.000000000000000, 0.000000000000000, 1.000000000000000
88, 0.462008617514457, 0.092369132402574, -0.000010965576429, 0.000085507497865, -0.000021859201659, -0.000111513230939, -0.000002636537998, -0.213735706329346, 8.693935098648071, 0.106965551376343, -3.146459922790527, 0.007923374176025, 0.422028997421265, -0.038882070541382, 0.718327483101354, -0.690919275423414, 0.081462763700102, 85.111562609613742, 0.689663818805038, 0.722588902250840, 0.047213296593004, 43.200664263966736, -0.091484665668765, 0.022267312193254, 0.995557493445337, 1323.292031478996250, 0.000000000000000, 0.000000000000000, 0.000000000000000, 1.000000000000000
89, 0.462008587516610, 0.277156682305958, -0.000009946958645, -0.000056715346643, -0.000021859201659, -0.000109895365266, -0.000002606594693, -0.224489704132080, 24.352428024291992, 0.302408781051636, -8.597741355895996, 0.130735673904419, 1.070174757003784, -0.039883325576782, 0.688769449700867, -0.681817920107510, 0.246416251450739, 246.798670010146083, 0.674272375926423, 0.727338654437946, 0.127809408194135, 122.821339005320155, -0.266370809626920, 0.078120455584105, 0.960699633703496, 1289.021137603451734, 0.000000000000000, 0.000000000000000, 0.000000000000000, 1.000000000000000
90, 0.462007928436652, 0.462030758434073, -0.000008718519561, -0.000059142172424, -0.000021619567953, -0.000104322692596, -0.000002576651388, -0.192227710723877, 39.321992965698243, 0.481565074920654, -13.795915002822877, 0.253988161087036, 1.670927778244019, -0.042219587326050, 0.630566716069048, -0.663905949909256, 0.402013067276409, 400.234677369173085, 0.645238401038521, 0.736279921920833, 0.203860938881151, 197.934628344162434, -0.431338640062712, 0.130846345960981, 0.892651226032603, 1222.033231380867846, 0.000000000000000, 0.000000000000000, 0.000000000000000, 1.000000000000000
91, 0.462007299299999, 0.646787478896126, -0.000007550076169, -0.000012223904276, -0.000021475752822, -0.000099049616599, -0.000002576651388, -0.188867086410522, 53.020569791793825, 0.634750308990478, -18.526169385910034, 0.369317274093628, 2.190746017456055, -0.042553339004517, 0.546774942315515, -0.638109536154211, 0.542082449748120, 539.893029559748470, 0.603432634463041, 0.749151912415335, 0.273204077183049, 266.240050067932998, -0.580436230882308, 0.177729097205562, 0.794673612173977, 1124.479976988660383, 0.000000000000000, 0.000000000000000, 0.000000000000000, 1.000000000000000
92, 0.461999329744853, 0.831643368857081, -0.000006471462693, 0.000083949518802, -0.000021379934247, -0.000092518212755, -0.000002456769086, -0.112244852066040, 64.741755271911614, 0.770328044891357, -22.641922082901001, 0.467919263839722, 2.659667125701904, -0.046558359146118, 0.438296042254932, -0.604518941102173, 0.665171729098862, 660.524092975959093, 0.550771079993829, 0.765460586628248, 0.332748114586948, 325.419011467232167, -0.710315279848388, 0.220515169925893, 0.668449895688870, 1000.496215927160733, 0.000000000000000, 0.000000000000000, 0.000000000000000, 1.000000000000000
93, 0.461993127935529, 1.016440865719110, -0.000005452844909, 0.000016298539035, -0.000021188122562, -0.000085447502172, -0.000002396827934, -0.174752464294434, 74.433795791625982, 0.874652471542358, -25.949930801391602, 0.547153005599976, 3.013610780715942, -0.047225862503052, 0.310130285283259, -0.565414349301630, 0.764281243884697, 758.496599308214627, 0.488884541643894, 0.784328219831148, 0.381865353911745, 373.061159612421591, -0.815359498069265, 0.255217274455153, 0.519666269569152, 853.961023255935629, 0.000000000000000, 0.000000000000000, 0.000000000000000, 1.000000000000000
94, 0.462006400455436, 1.201215952117236, -0.000004733769258, -0.000029900653462, -0.000021092216720, -0.000077118463742, -0.000002336886783, -0.170719715118408, 81.433304111480709, 0.956967525482178, -28.356875801086424, 0.604377374649048, 3.282781509399414, -0.046391483306885, 0.168576285238834, -0.520581394594447, 0.837004807427757, 830.073564645257875, 0.417937799977324, 0.806797455683989, 0.417619277395040, 408.437966133091379, -0.892698174863817, 0.279415241359419, 0.353577560785280, 690.089614515714857, 0.000000000000000, 0.000000000000000, 0.000000000000000, 1.000000000000000
95, 0.461993487418813, 1.386020190040785, -0.000004284346976, -0.000045420230236, -0.000021092303986, -0.000066152887314, -0.000002456769086, -0.110228477478027, 85.767165225982666, 1.008909645080566, -29.823580398559571, 0.645754995346069, 3.416115304946899, -0.046892110824585, 0.015623166846409, -0.472409732894043, 0.881240580616138, 873.841796009547920, 0.343042614791466, 0.830386780780507, 0.439066690540309, 429.474683887063577, -0.939189906831799, 0.295443460871898, 0.175029941248097, 514.323900425029251, 0.000000000000000, 0.000000000000000, 0.000000000000000, 1.000000000000000
96, 0.646808241605592, 0.092361881923079, -0.000010935633124, -0.000054498287622, -0.000021475752822, -0.000112412075503, -0.000002696479150, -0.223817579269409, 8.755770586013794, 0.106525363922119, -3.159225358963013, -0.002200937271118, 0.427702775955200, -0.038214567184448, 0.578982388111969, -0.812108937217684, 0.072515297333221, 76.051966631245165, 0.810118963249291, 0.583044023875707, 0.061375333862377, 57.657031940890668, -0.092123067904061, 0.023210780124495, 0.995477071582242, 1323.335230900342822, 0.000000000000000, 0.000000000000000, 0.000000000000000, 1.000000000000000
97, 0.646807372704333, 0.277213217938230, -0.000009976901950, 0.000036791595132, -0.000021475752822, -0.000110794155288, -0.000002696424608, -0.180801588058472, 24.403509513854978, 0.307250843048096, -8.647482538223267, 0.136458110809326, 1.080687934875488, -0.040383953094482, 0.552867776958683, -0.804183739038390, 0.218233212566280, 220.389537976758646, 0.789712563800495, 0.589246006210536, 0.170713827033961, 165.653170170896885, -0.265878332656899, 0.077959335753760, 0.960849131858077, 1288.918830531461708, 0.000000000000000, 0.000000000000000, 0.000000000000000, 1.000000000000000
98, 0.646805694897509, 0.462027882131469, -0.000008718519561, 0.000010186614168, -0.000021475752822, -0.000105521079292, -0.000002636537998, -0.182145837783813, 39.334763338088990, 0.480244512557983, -13.808240251541138, 0.261911535263062, 1.667590261459351, -0.041385208129883, 0.500748158252288, -0.788489900440679, 0.357120370337496, 357.396539932145231, 0.750731923528274, 0.600985571482200, 0.274258859229291, 267.651906169558799, -0.430874530463893, 0.130767043911157, 0.892886957696358, 1221.869976205230842, 0.000000000000000, 0.000000000000000, 0.000000000000000, 1.000000000000000
99, 0.646796287354685, 0.646750867069908, -0.000007520132864, -0.000001198441238, -0.000021188122562, -0.000100068288924, -0.000002516710237, -0.184834337234497, 53.083749528884887, 0.633869934082031, -18.535413322448733, 0.374159336090088, 2.192081024169922, -0.044555849075317, 0.425724692389261, -0.765656055358060, 0.482212910635545, 481.985513016387415, 0.694310280107770, 0.618156889391338, 0.368531267377268, 360.350966883746366, -0.580251429318997, 0.177912520614937, 0.794767521846295, 1124.391936832739702, 0.000000000000000, 0.000000000000000, 0.000000000000000, 1.000000000000000
100, 0.646795688052254, 0.831647803084207, -0.000006411576083, -0.000022230694990, -0.000021092303986, -0.000093656712841, -0.000002456769086, -0.126359474182129, 64.800902259826671, 0.761524295806885, -22.626515522003174, 0.467038888931274, 2.646650810241699, -0.045390228271484, 0.327164582611818, -0.736006728525909, 0.592669749058466, 589.893687392174456, 0.623156233507032, 0.639526602260003, 0.450202214169484, 440.616682188756329, -0.710379929703651, 0.222035629047156, 0.667877634681586, 1000.391220023549977, 0.000000000000000, 0.000000000000000, 0.000000000000000, 1.000000000000000
101, 0.646795028972296, 1.016447067582975, -0.000005482788214, -0.000073493251265, -0.000020900492302, -0.000085807039998, -0.000002456769086, -0.202981708526611, 74.437156415939342, 0.871571159362793, -25.932323303222656, 0.548473567962646, 3.010940767288208, -0.044889600753784, 0.215056386362855, -0.699916077737687, 0.681078728789002, 676.778126530568784, 0.537119015830440, 0.667215031128825, 0.516069050679365, 505.991287218509513, -0.815630991023447, 0.254836391357383, 0.519427088359913, 853.837916832832434, 0.000000000000000, 0.000000000000000, 0.000000000000000, 1.000000000000000
102, 0.646801170895009, 1.201160435157289, -0.000004703825953, -0.000056745344490, -0.000020756677171, -0.000078017308306, -0.000002336941324, -0.163326341629028, 81.489090475082406, 0.954766588211060, -28.356875801086424, 0.608779249191284, 3.277441482543945, -0.048727745056152, 0.087305947149299, -0.659815491699999, 0.746338521386276, 741.353876540418923, 0.442161052265300, 0.697022820015009, 0.564493394326246, 553.726195689904443, -0.892676467401268, 0.280718195511108, 0.352598949597104, 689.703280708534066, 0.000000000000000, 0.000000000000000, 0.000000000000000, 1.000000000000000
103, 0.646797365913620, 1.385949153504064, -0.000004254403671, -0.000067411269703, -0.000020660771329, -0.000069089076527, -0.000002336941324, -0.147867469787598, 85.788673221588141, 1.008909645080566, -29.848230895996092, 0.643113870620728, 3.422456586837769, -0.046558359146118, -0.048247547616860, -0.616912943455687, 0.785551140503150, 780.348380601068698, 0.340304505289098, 0.729261347392438, 0.593608230131042, 582.461854837629744, -0.939076683678655, 0.295966733597218, 0.174753182445677, 513.819040829027244, 0.000000000000000, 0.000000000000000, 0.000000000000000, 1.000000000000000
104, 0.831607865587644, 0.092350137438931, -0.000010935633124, -0.000000419478977, -0.000021283941138, -0.000113550575590, -0.000002756365760, -0.250702573776245, 8.835753444671631, 0.104324426651001, -3.149981422424316, 0.002641124725342, 0.426200893402100, -0.037380187988281, 0.422211510512100, -0.904544637331803, 0.059467970079428, 64.628275175955437, 0.901615178877105, 0.425832363432608, 0.075874023695900, 70.076094666020168, -0.093954827494375, 0.021582338327345, 0.995342500380058, 1323.406690998971953, 0.000000000000000, 0.000000000000000, 0.000000000000000, 1.000000000000000
105, 0.831607835698881, 0.277215944360685, -0.000010066731865, 0.000049315096082, -0.000021188122562, -0.000111573117549, -0.000002696424608, -0.168031215667725, 24.416952011108400, 0.307250843048096, -8.645721788406373, 0.131175861358643, 1.082356693267822, -0.037713939666748, 0.399145794108172, -0.898316842888502, 0.183601429266198, 186.457974716994812, 0.876769218659526, 0.432535430284218, 0.210211414437968, 202.786734346090753, -0.268250577365495, 0.077071079736052, 0.960261254248758, 1289.069580137504545, 0.000000000000000, 0.000000000000000, 0.000000000000000, 1.000000000000000
106, 0.831607565990970, 0.461994745746661, -0.000008838401864, -0.000027773424355, -0.000020900492302, -0.000106599692768, -0.000002546653542, -0.157949342727661, 39.391221826553348, 0.481124887466431, -13.800757064819337, 0.259270410537720, 1.652237684249878, -0.041552083969116, 0.355281560504222, -0.884966979653936, 0.301012387930922, 302.197317094859557, 0.828398836022940, 0.447268059132820, 0.337204169243798, 328.181879295706494, -0.433047781707197, 0.129555888332995, 0.892011709876459, 1222.084873248943268, 0.000000000000000, 0.000000000000000, 0.000000000000000, 1.000000000000000
107, 0.831606517429882, 0.646753144124622, -0.000007729845082, -0.000080204424022, -0.000020804673726, -0.000100847305727, -0.000002516710237, -0.188194961547852, 53.102569025039671, 0.629908246994018, -18.531891822814941, 0.369757461547852, 2.192247900009155, -0.043554594039917, 0.289738116804355, -0.865934296556569, 0.407688137818292, 407.823983496541473, 0.760258004753928, 0.466988838187309, 0.451585198180856, 442.262848444409542, -0.581428920744610, 0.179106725321937, 0.793637947093138, 1124.540200024385967, 0.000000000000000, 0.000000000000000, 0.000000000000000, 1.000000000000000
108, 0.831596930009062, 0.831601244353885, -0.000006591290454, 0.000026005733074, -0.000020756677171, -0.000094495616254, -0.000002516655695, -0.120982475280762, 64.841901876449583, 0.769887857437134, -22.627395896911622, 0.474962263107300, 2.652491464614868, -0.044889600753784, 0.208992063483248, -0.840298305551468, 0.500221026235749, 498.961265892721826, 0.671979103413586, 0.495023131684204, 0.550814109907359, 541.084517939125703, -0.710469142170501, 0.221022299293295, 0.668118807727053, 1000.340366992097529, 0.000000000000000, 0.000000000000000, 0.000000000000000, 1.000000000000000
109, 0.831606966797622, 1.016415489122689, -0.000005632613822, 0.000086346346736, -0.000020612862041, -0.000086885653474, -0.000002516655695, -0.210375082015991, 74.503696777343748, 0.869810409545898, -25.988227109909058, 0.546272630691528, 2.994086307525635, -0.045056476593018, 0.111371434427568, -0.810067917451998, 0.575661682508510, 573.132834766970632, 0.567915715780452, 0.527238056967902, 0.632053614066314, 621.137911490503029, -0.815517101821368, 0.256534598835505, 0.518769559859851, 853.717259560986577, 0.000000000000000, 0.000000000000000, 0.000000000000000, 1.000000000000000
110, 0.831600285622711, 1.201210559158937, -0.000004973424781, 0.000034125059287, -0.000020469046911, -0.000078137136067, -0.000002336941324, -0.169375465393066, 81.472287353515625, 0.955646963119507, -28.387688922882081, 0.611860561370850, 3.282114006042480, -0.047392738342285, 0.004677416537356, -0.776115998827217, 0.630572817475481, 627.349645063851540, 0.450765613580535, 0.564517000856229, 0.691470113134076, 680.151240925659295, -0.892630093256944, 0.281006249234281, 0.352486885576444, 689.512776320833609, 0.000000000000000, 0.000000000000000, 0.000000000000000, 1.000000000000000
111, 0.831600525278234, 1.385961407460728, -0.000004554000346, 0.000011385000864, -0.000020421050357, -0.000067650979767, -0.000002336941324, -0.140474096298218, 85.780607723236088, 1.006268520355225, -29.847350521087648, 0.645314807891846, 3.417784063339234, -0.047559614181519, -0.109823910428155, -0.739362422922626, 0.664290536036946, 660.249950817207036, 0.326011927421571, 0.604565218602328, 0.726785470159655, 715.728677719023608, -0.938964819296837, 0.296385060396612, 0.174645252144328, 513.646940295454669, 0.000000000000000, 0.000000000000000, 0.000000000000000, 1.000000000000000
112, 1.016407489678779, 0.092374645134093, -0.000011145345341, 0.000088024099019, -0.000020996310878, -0.000113850117722, -0.000002816306911, -0.289685815811157, 8.804163576126097, 0.107845926284790, -3.206765604019165, 0.007923374176025, 0.430372789382935, -0.037713939666748, 0.248724678748731, -0.967516204460689, 0.045259565699676, 50.918352894685476, 0.964007207111459, 0.251813896641472, 0.085322131334153, 80.250082729472538, -0.093947532264053, 0.022408827818978, 0.995324924643844, 1323.448426834758948, 0.000000000000000, 0.000000000000000, 0.000000000000000, 1.000000000000000
113, 1.016406920374195, 0.277154555131393, -0.000010036788560, -0.000055307193188, -0.000020804673726, -0.000112202308744, -0.000002696424608, -0.158621467590332, 24.406870138168337, 0.301088218688965, -8.603463792800904, 0.139099235534668, 1.078852300643921, -0.039716449737549, 0.230622698137736, -0.962627477715097, 0.141991233009444, 146.632855628090368, 0.935339717447473, 0.259540825986069, 0.240370906333839, 233.211483288987807, -0.268240161178287, 0.077375052790549, 0.960239718579015, 1289.014632753783189, 0.000000000000000, 0.000000000000000, 0.000000000000000, 1.000000000000000
114, 1.016406321235388, 0.462042682741675, -0.000008808404017, -0.000063666174923, -0.000020708767884, -0.000107138999507, -0.000002516655695, -0.126359474182129, 39.395926700592042, 0.471440763473511, -13.824527187347412, 0.258830223083496, 1.657577711105347, -0.041718959808350, 0.195363093801777, -0.952350242392251, 0.234226978368461, 237.280217716589988, 0.880052148625875, 0.275637873363070, 0.386693649374883, 377.745230456038712, -0.432829616915454, 0.130586287883934, 0.891967344770825, 1222.004065688019182, 0.000000000000000, 0.000000000000000, 0.000000000000000, 1.000000000000000
115, 1.016395085951049, 0.646750567473233, -0.000007729845082, 0.000034934019394, -0.000020564952753, -0.000101326616772, -0.000002696479150, -0.108212102890015, 53.121388521194461, 0.635190496444702, -18.572389068603513, 0.377240648269653, 2.189077259063721, -0.042553339004517, 0.146151570205649, -0.936933135829889, 0.317483885434196, 319.747907810204310, 0.799565571976705, 0.300856381079123, 0.519788739848737, 509.269106580303458, -0.582524346818215, 0.177881243946471, 0.793110111154856, 1124.664593792451342, 0.000000000000000, 0.000000000000000, 0.000000000000000, 1.000000000000000
116, 1.016392359583136, 0.831627250086959, -0.000006591290454, 0.000006111924867, -0.000020421137623, -0.000094555502863, -0.000002486766932, -0.055786363601685, 64.899032489776602, 0.767686920166016, -22.648084707260132, 0.470560388565063, 2.650822706222534, -0.045557104110718, 0.081956153108833, -0.917449727743127, 0.389318874486793, 390.639884822305646, 0.698389941238787, 0.331548809376652, 0.634292422292280, 623.222412837332854, -0.711009619445535, 0.219912218998824, 0.667910126432388, 1000.468115871927353, 0.000000000000000, 0.000000000000000, 0.000000000000000, 1.000000000000000
117, 1.016402845793977, 1.016399849663612, -0.000005692500432, -0.000057134825620, -0.000020229413205, -0.000086286460126, -0.000002456769086, -0.139801971435547, 74.533942396163951, 0.868489847183228, -25.943327989578247, 0.556396942138672, 3.003931982040405, -0.047392738342285, 0.006271479948046, -0.893704892200551, 0.448611451253826, 448.896936592598422, 0.578077345095559, 0.369302609229877, 0.727627766033757, 715.622585035813700, -0.815957873683765, 0.254768813775955, 0.518946625290753, 853.760874438584892, 0.000000000000000, 0.000000000000000, 0.000000000000000, 1.000000000000000
118, 1.016391640507485, 1.201214124484804, -0.000005033420474, 0.000087245191300, -0.000020133420096, -0.000077837539393, -0.000002396882476, -0.121654600143433, 81.494467473983775, 0.953446025848389, -28.439190855026247, 0.610980186462402, 3.263423912048339, -0.046391483306885, -0.075956057508321, -0.866891287010002, 0.492676540778973, 491.943406451016301, 0.443665500522418, 0.413114265534502, 0.795297131428299, 783.633265913826222, -0.892967861109226, 0.278991218711327, 0.353231225839370, 689.391672865795840, 0.000000000000000, 0.000000000000000, 0.000000000000000, 1.000000000000000
119, 1.016405841815260, 1.385947535638391, -0.000004673882648, 0.000003804981390, -0.000019941782945, -0.000066512425139, -0.000002396882476, -0.105523603439331, 85.829000713348393, 0.999225521087647, -29.872001018524170, 0.646195182800293, 3.405268375396728, -0.047058986663818, -0.166697378461903, -0.838531401054249, 0.518726395568924, 517.666407719215158, 0.300378788406471, 0.457893591673550, 0.836723396457728, 824.579120227365593, -0.939140334289498, 0.295294002902692, 0.175547384942970, 513.425085630884382, 0.000000000000000, 0.000000000000000, 0.000000000000000, 1.000000000000000
120, 1.201207023830916, 0.092375154497527, -0.000011115402036, 0.000079874884043, -0.000020612862041, -0.000114239653394, -0.000002756365760, -0.323964183807373, 8.814245449066163, 0.106525363922119, -3.212047853469849, 0.012325248718262, 0.435379064559937, -0.036545808792114, 0.068342578137434, -0.997170055615783, 0.031323668315600, 35.755365325532281, 0.993589702787791, 0.070863961021051, 0.088078382946530, 88.094975491620389, -0.090048845231893, 0.025103370523178, 0.995620924981380, 1323.717090102373959, 0.000000000000000, 0.000000000000000, 0.000000000000000, 1.000000000000000
121, 1.201206664347632, 0.277153566456914, -0.000009916960798, -0.000043922192324, -0.000020421137623, -0.000112651731026, -0.000002636537998, -0.152572343826294, 24.436443632125854, 0.298006906509399, -8.636037664413452, 0.140859985351563, 1.076349163055420, -0.040217077255249, 0.057820505345097, -0.993608410769730, 0.096949034081255, 101.830564980830175, 0.962421077441269, 0.081287692684390, 0.259109978030245, 256.115218431909909, -0.265334616773657, 0.078323923967706, 0.960969772717060, 1289.143150072540266, 0.000000000000000, 0.000000000000000, 0.000000000000000, 1.000000000000000
122, 1.201200612254834, 0.462013620937084, -0.000008988118388, 0.000011924307602, -0.000020421137623, -0.000107858075158, -0.000002606594693, -0.075277984619141, 39.468516185760492, 0.473201513290405, -13.857101058959961, 0.264552659988403, 1.636050727844238, -0.041885835647583, 0.033883886545693, -0.986486838953386, 0.160298467878873, 164.252342893954392, 0.902133570541310, 0.099216901115462, 0.419894066920969, 414.858984540063545, -0.430124288008647, 0.130382986255110, 0.893304748537840, 1222.051718772135246, 0.000000000000000, 0.000000000000000, 0.000000000000000, 1.000000000000000
123, 1.201196178082249, 0.646764049705357, -0.000007729845082, -0.000067321385246, -0.000020277322493, -0.000101776039054, -0.000002606540152, -0.021507995605469, 53.175158510208128, 0.635190496444702, -18.572829256057737, 0.377680835723877, 2.182569101333618, -0.044055221557617, -0.002174682078022, -0.975960538336725, 0.217936454883871, 221.119183501196432, 0.814142640067850, 0.124819819746963, 0.567090622583099, 559.198435599378286, -0.580660858316807, 0.178664602559728, 0.794299645858516, 1124.506754116685443, 0.000000000000000, 0.000000000000000, 0.000000000000000, 1.000000000000000
124, 1.201194620157727, 0.831624343950133, -0.000006531403844, -0.000002936134672, -0.000019989692233, -0.000094855154079, -0.000002516655695, -0.059819112777710, 64.882901493072509, 0.763285045623779, -22.657328643798827, 0.474522075653076, 2.632466363906860, -0.043053966522217, -0.045671724475914, -0.962366602495204, 0.267889186017716, 270.410721212347937, 0.702238887898990, 0.159796407920560, 0.693776370553276, 684.245225173277504, -0.710474938267203, 0.219808167313055, 0.668513075172573, 1000.311097708715693, 0.000000000000000, 0.000000000000000, 0.000000000000000, 1.000000000000000
125, 1.201194799926640, 1.016444490931587, -0.000005722443737, -0.000036432002764, -0.000019941782945, -0.000085267733260, -0.000002396882476, -0.061163362503052, 74.444549789428720, 0.864968347549439, -25.959614925384521, 0.549794130325317, 3.009438884735108, -0.046391483306885, -0.098263359681595, -0.946234052400884, 0.308197063939757, 310.509373103721884, 0.570116369345942, 0.200310621036818, 0.796770343639650, 785.682755574747944, -0.815666376374487, 0.254001521997104, 0.519780327903306, 853.530022421493186, 0.000000000000000, 0.000000000000000, 0.000000000000000, 1.000000000000000
126, 1.201193182060967, 1.201217929466194, -0.000005033420474, -0.000044461499062, -0.000019893786390, -0.000076579157004, -0.000002516655695, -0.035622617721558, 81.518663969039920, 0.945962839126587, -28.381086111068726, 0.609219436645508, 3.277775234222412, -0.048060241699219, -0.156510307986213, -0.928140785867991, 0.337726524132188, 339.823112794510962, 0.422375855446242, 0.246199313923010, 0.872344275249110, 860.235535830361528, -0.892806339712099, 0.279178400726466, 0.353491527957456, 689.342859341000576, 0.000000000000000, 0.000000000000000, 0.000000000000000, 1.000000000000000
127, 1.201195878540117, 1.386022167389743, -0.000004613886955, -0.000086556058954, -0.000019845789836, -0.000063875941682, -0.000002336941324, -0.067212486267090, 85.810181217193616, 1.004947957992554, -29.840747709274289, 0.650156869888306, 3.404934623718262, -0.048227117538452, -0.218428764912585, -0.908413563480354, 0.356473943428811, 357.572396649180803, 0.264240689570842, 0.296589375042672, 0.917720872916664, 905.346180520450048, -0.939396472547076, 0.294651557431352, 0.175256175552789, 513.401494274619722, 0.000000000000000, 0.000000000000000, 0.000000000000000, 1.000000000000000
128, 1.386006528039749, 0.092369072515964, -0.000011025463038, -0.000095214691905, -0.000020373141069, -0.000115348155634, -0.000002816306911, -0.307833187103271, 8.800130826950074, 0.105204801559448, -3.125330924987793, 0.008803749084473, 0.423364004135132, -0.035711429595947, -0.114631393137769, -0.993325864642448, 0.012781640725207, 19.467211167872090, 0.989280160106180, -0.112973890164024, 0.092529265432607, 92.887333312161076, -0.090467720915169, 0.023251382185607, 0.995627924828786, 1323.543854984437075, 0.000000000000000, 0.000000000000000, 0.000000000000000, 1.000000000000000
129, 1.386003352195012, 0.277174778479579, -0.000010066731865, -0.000015669402382, -0.000020373141069, -0.000113370752135, -0.000002636537998, -0.139129846572876, 24.525164113998414, 0.295805969238281, -8.646602163314819, 0.143501110076904, 1.075681659698486, -0.038548318862915, -0.119419517753492, -0.991712509511361, 0.047384356682372, 53.390979719249771, 0.956698281667048, -0.102180304598839, 0.272557486060110, 270.077066462004211, -0.265456920487755, 0.077881216161327, 0.960971976456333, 1289.106901232783912, 0.000000000000000, 0.000000000000000, 0.000000000000000, 1.000000000000000
130, 1.386003651846228, 0.462036960188855, -0.000008928231778, -0.000049434923843, -0.000020133507363, -0.000108217558442, -0.000002636537998, -0.040327491760254, 39.481958683013914, 0.476723012924194, -13.839933748245238, 0.265433034896851, 1.652404560089111, -0.040717704772949, -0.134331861216771, -0.987698917256171, 0.080036241247490, 85.812696173480546, 0.892737029547675, -0.085569332633587, 0.442378215316979, 437.495116863725059, -0.430087836536249, 0.130876805292729, 0.893250085194476, 1221.959452309027029, 0.000000000000000, 0.000000000000000, 0.000000000000000, 1.000000000000000
131, 1.385997509868972, 0.646778940145478, -0.000007819674997, -0.000016178711274, -0.000020037601520, -0.000102225406794, -0.000002516710237, -0.023524370193481, 53.142224391937255, 0.625066184997559, -18.563145132064818, 0.375479898452759, 2.182402225494385, -0.042887090682983, -0.152035263642387, -0.982211915733852, 0.110204497184219, 114.999459011054100, 0.799923454901795, -0.056789602918916, 0.597408911298022, 589.930319757066172, -0.580523681607534, 0.178982383464822, 0.794328371331458, 1124.505516231945649, 0.000000000000000, 0.000000000000000, 0.000000000000000, 1.000000000000000
132, 1.385988971118324, 0.831607416219904, -0.000006591344996, -0.000044641267975, -0.000019845789836, -0.000094915095230, -0.000002456769086, 0.014786746978760, 64.906425863265994, 0.760203733444214, -22.652486581802368, 0.478043575286865, 2.649821451187134, -0.046057731628418, -0.174446391812946, -0.975256823199884, 0.135803480019894, 140.559340302093432, 0.681859054968877, -0.020145994078427, 0.731206105061727, 721.858424754256589, -0.710377847022550, 0.220155099247466, 0.668502091795489, 1000.306706072781594, 0.000000000000000, 0.000000000000000, 0.000000000000000, 1.000000000000000
133, 1.385996251541125, 1.016411833912366, -0.000005872269345, -0.000032507193614, -0.000019749971260, -0.000086286460126, -0.000002396882476, -0.062507612228394, 74.508401651382457, 0.864968347549439, -25.945969114303587, 0.557717504501343, 3.011441394805908, -0.047058986663818, -0.201822500655176, -0.966688543723943, 0.157419622862508, 161.228926602847622, 0.542712722935501, 0.023416644136831, 0.839591901545807, 828.994131092904126, -0.815310111916457, 0.254882169267001, 0.519908166118328, 853.592993303462094, 0.000000000000000, 0.000000000000000, 0.000000000000000, 1.000000000000000
134, 1.385996281484430, 1.201215053218131, -0.000005213189387, 0.000011025517580, -0.000019606243396, -0.000077298232655, -0.000002396827934, 0.012098247528076, 81.508582096099843, 0.947723588943481, -28.399133796691892, 0.617582998275757, 3.279944620132446, -0.047392738342285, -0.232979747452428, -0.957264957759190, 0.171359965929323, 176.145553937936540, 0.386532834025674, 0.070538340626319, 0.919574200769990, 907.581029408718564, -0.892363606102963, 0.280478418328364, 0.353580332251293, 689.476864414970350, 0.000000000000000, 0.000000000000000, 0.000000000000000, 1.000000000000000
135, 1.385992087021910, 1.386021568196394, -0.000004733769258, 0.000004554000346, -0.000019558334108, -0.000065673576268, -0.000002396827934, 0.009409748077393, 85.793378095626835, 0.991742334365845, -29.858795394897463, 0.650156869888306, 3.423290966033935, -0.047058986663818, -0.263412068773877, -0.947440674172941, 0.181577121210215, 185.463801223127433, 0.219499652294473, 0.124423113438256, 0.967646005254471, 955.194400757932954, -0.939379574329180, 0.294745751055132, 0.175188348836543, 513.514855476545222, 0.000000000000000, 0.000000000000000, 0.000000000000000, 1.000000000000000
136, 1.570806092189732, 0.092367364765835, -0.000010965576429, 0.000022110921770, -0.000020037601520, -0.000115348155634, -0.000002696424608, -0.305144687652588, 8.849195941925050, 0.105204801559448, -3.207645978927612, 0.014526185989380, 0.435712816238403, -0.038381443023682, -0.294886079454168, -0.955527530935702, -0.003055776181392, 2.328120601459583, 0.951301442896834, -0.293879473403173, 0.093061376814844, 94.374051817445405, -0.089820737508390, 0.024535540267008, 0.995655684650700, 1323.644179812094535, 0.000000000000000, 0.000000000000000, 0.000000000000000, 1.000000000000000
137, 1.570805912420820, 0.277194882054545, -0.000010216557473, -0.000041105885413, -0.000019941695678, -0.000113400695440, -0.000002606540152, -0.169375465393066, 24.499623369216920, 0.295805969238281, -8.658047037124634, 0.142620735168457, 1.076349163055420, -0.039382698059082, -0.294557650184607, -0.955627907331308, -0.003330682709014, 3.329924446381468, 0.917843369995074, -0.283878140870861, 0.277446840479019, 274.833823535061981, -0.266081451577914, 0.078667044340617, 0.960735217040003, 1289.005465767917940, 0.000000000000000, 0.000000000000000, 0.000000000000000, 1.000000000000000
138, 1.570792669844218, 0.461993307704442, -0.000009048114081, -0.000046858326996, -0.000019845789836, -0.000108397327354, -0.000002606540152, -0.079310733795166, 39.473221059799201, 0.472321138381958, -13.847857122421264, 0.270275096893311, 1.639555120468140, -0.042219587326050, -0.297246399937117, -0.954795466038259, -0.003193079580332, 4.320341390845457, 0.852241794959775, -0.266824320210184, 0.449987449900676, 445.260711683307306, -0.430497968227683, 0.131035873626868, 0.893029170394047, 1221.941510013675270, 0.000000000000000, 0.000000000000000, 0.000000000000000, 1.000000000000000
139, 1.570786887404788, 0.646752125452297, -0.000007999443910, 0.000060819924707, -0.000019749971260, -0.000102674883617, -0.000002516710237, -0.055786363601685, 53.124749145507813, 0.627707309722900, -18.581192817687988, 0.375039710998535, 2.180900342941284, -0.044055221557617, -0.295534993464320, -0.955331702945882, -0.000636383977278, 4.577148304954775, 0.758862251762230, -0.235161078898587, 0.607311575570243, 600.676357466562308, -0.580333654450957, 0.178998894738975, 0.794463495192714, 1124.620723790289276, 0.000000000000000, 0.000000000000000, 0.000000000000000, 1.000000000000000
140, 1.570800070094780, 0.831602712393950, -0.000006831000518, 0.000024088325268, -0.000019558334108, -0.000095274578514, -0.000002396827934, -0.084015607833862, 64.870131120681762, 0.766806545257568, -22.657768831253051, 0.487287511825562, 2.646317058563232, -0.046057731628418, -0.298260446740288, -0.954484374863959, -0.000532964203583, 5.679874516459282, 0.638827554485772, -0.200037769216514, 0.742889121280295, 734.926185610538710, -0.709182671488815, 0.221233968972757, 0.669414273400672, 1000.616535074534113, 0.000000000000000, 0.000000000000000, 0.000000000000000, 1.000000000000000
141, 1.570795336325522, 1.016442453586937, -0.000006052038257, -0.000042843633389, -0.000019462428266, -0.000086825657781, -0.000002456769086, -0.111572727203369, 74.496975528717044, 0.865848722457886, -25.963136425018309, 0.556837129592896, 3.008270753860474, -0.046224607467651, -0.298078413362148, -0.954540662716496, -0.001175886158524, 6.310747971975494, 0.497043420110342, -0.156265295632360, 0.853539100396663, 844.082497893963705, -0.814921528745264, 0.253837114310899, 0.521027467016661, 853.724269712619048, 0.000000000000000, 0.000000000000000, 0.000000000000000, 1.000000000000000
142, 1.570797223844564, 1.201172119754827, -0.000005213189387, 0.000083170501999, -0.000019366522424, -0.000077897426003, -0.000002366884629, -0.092081106185913, 81.499844472885130, 0.942881526947021, -28.437430105209351, 0.617582998275757, 3.265259546279907, -0.047726490020752, -0.297510091827451, -0.954718172581898, -0.000977856177086, 6.571869941681658, 0.337937005301726, -0.106266032117585, 0.935150314583536, 924.190443262212511, -0.892908912324501, 0.277886202176117, 0.354249817122904, 689.635917490782163, 0.000000000000000, 0.000000000000000, 0.000000000000000, 1.000000000000000
143, 1.570793988058676, 1.385947715407304, -0.000004913538171, 0.000032956615895, -0.000019270616582, -0.000064894614007, -0.000002456769086, -0.104179353713989, 85.825640089035033, 0.994383459091187, -29.867158956527710, 0.649716682434082, 3.405435251235962, -0.046558359146118, -0.300551722312698, -0.953765474133079, -0.000287343999268, 6.819930469063001, 0.168836399539884, -0.053500439510308, 0.984191024731791, 972.656718252247401, -0.938702792371089, 0.295751793441573, 0.177109977897389, 513.800725311829979, 0.000000000000000, 0.000000000000000, 0.000000000000000, 1.000000000000000
144, 1.755603978423808, -1.570846029577212, -0.000075740308133, -0.000099648809947, -0.000020421050357, -0.000187433307985, -0.000003355559108, -0.578699506759644, -86.502469825744626, -0.989541397094727, 30.016822690963743, -0.740835485458374, -3.361380029678345, -0.020358852386475, -0.294878536457803, -0.939830985081992, 0.172523529457049, 177.710908983881637, -0.060732584313355, -0.161752663432210, -0.984960724635864, -971.989906844876941, 0.953602748496000, -0.300921576747829, -0.009380975880754, 336.245418031207407, 0.000000000000000, 0.000000000000000, 0.000000000000000, 1.000000000000000
145, 1.755604697499459, -1.386032354058452, -0.000076219673720, -0.000081582634173, -0.000020325231781, -0.000184257463249, -0.000003295617956, -0.510142770767212, -85.191826343536377, -0.962689962387085, 29.508846368789673, -0.725869112014770, -3.221204324722290, -0.022194486618042, -0.324844201860206, -0.930164013284859, 0.171088143679246, 175.195077981534325, 0.112542989537399, -0.217630946822093, -0.969520936592555, -956.214478850262594, 0.939047560043575, -0.295688483670101, 0.175379590035686, 517.970007032676563, 0.000000000000000, 0.000000000000000, 0.000000000000000, 1.000000000000000
146, 1.755595110187723, -1.201229224582601, -0.000076159732568, -0.000082271657436, -0.000020373141069, -0.000181231389578, -0.000003295617956, -0.362275300979614, -80.713458383560180, -0.914709529876709, 27.994601526260375, -0.693295240402222, -3.059001008987427, -0.022861989974976, -0.353052826689528, -0.921724789094763, 0.160552529518375, 166.269628250062738, 0.281540589239782, -0.268313607924420, -0.921272329125920, -907.651491096184827, 0.892237971718897, -0.280055746184210, 0.354231817955635, 693.764070191737574, 0.000000000000000, 0.000000000000000, 0.000000000000000, 1.000000000000000
147, 1.755604907266219, -1.016395655201092, -0.000075680366982, -0.000066692194052, -0.000020325231781, -0.000174370445755, -0.000003295617956, -0.410668291091919, -73.571459592819224, -0.836356163024902, 25.519867658615112, -0.643113870620728, -2.796171562194824, -0.024363872528076, -0.382510480150233, -0.912377780871564, 0.145782432230765, 152.094133508147962, 0.436962653445527, -0.317655542920262, -0.841521595412665, -828.012559676147475, 0.814094203436606, -0.258189351104791, 0.520181590319193, 857.477978360693442, 0.000000000000000, 0.000000000000000, 0.000000000000000, 1.000000000000000
148, 1.755598226036766, -0.831549622259784, -0.000075081119092, -0.000009227882994, -0.000020229325939, -0.000158431499087, -0.000003265674651, -0.313882310867310, -63.872697824478152, -0.730270986557007, 22.149352321624754, -0.561239004135132, -2.473934316635132, -0.026032630920410, -0.408802958684910, -0.903636501903147, 0.127754504416510, 132.505572037156867, 0.575312107816956, -0.363837263463992, -0.732556089534614, -720.189826978512428, 0.708446271477008, -0.225972383585425, 0.668610770394141, 1003.699099109495933, 0.000000000000000, 0.000000000000000, 0.000000000000000, 1.000000000000000
149, 1.755597506961115, -0.646757578242665, -0.000074182329070, 0.000010426269690, -0.000020133420096, -0.000101386557923, -0.000003265674651, -0.237932201385498, -52.030529869079587, -0.595573625564575, 18.034479999542235, -0.470120201110840, -2.107474973678589, -0.027534513473511, -0.428937440029254, -0.897230903617446, 0.104830234832190, 108.461290319256193, 0.693825000343809, -0.401541661982754, -0.597805288191766, -587.355120877480317, 0.578463085632146, -0.183687232234441, 0.794757484566825, 1127.458941638141141, 0.000000000000000, 0.000000000000000, 0.000000000000000, 1.000000000000000
150, 1.755596518286637, -0.461965624164543, -0.000073343425657, 0.000017287213514, -0.000019989692233, -0.000074422039134, -0.000003205733500, -0.245325574874878, -38.387739406585695, -0.452512702941894, 13.290579805374145, -0.365355587005615, -1.474681791305542, -0.029537023544312, -0.446939144921510, -0.891375873122427, 0.075461603163860, 80.914050780307562, 0.786122830152856, -0.431617300619908, -0.442399595069941, -434.121820228465594, 0.426914858782513, -0.138403607687136, 0.893637591381368, 1223.965933906900773, 0.000000000000000, 0.000000000000000, 0.000000000000000, 1.000000000000000
151, 1.755596608171093, -0.277198417437107, -0.000072384749025, -0.000037780269610, -0.000019941782945, -0.000040896173195, -0.000003235731346, -0.233227327346802, -23.308618112564087, -0.283480720520019, 8.080961284637450, -0.240782537460327, -0.955697931289673, -0.031038906097412, -0.458594346822980, -0.887568417767838, 0.043743900638840, 49.903462348901456, 0.849480148731142, -0.452303950187514, -0.271670045379477, -265.832877483409220, 0.260911291387937, -0.087426771791408, 0.961395786136184, 1290.222103420066105, 0.000000000000000, 0.000000000000000, 0.000000000000000, 1.000000000000000
152, 1.755596787885464, -0.092356608901624, -0.000071186307787, -0.000096772616426, -0.000019558334108, 0.000021571615032, -0.000003055962434, -0.226506078720093, -7.508306840896607, -0.108286113739014, 2.594905042648315, -0.116649675369263, -0.366959970474243, -0.034042671203613, -0.464379668497023, -0.885569741363587, 0.010851574439955, 17.500363972266783, 0.881425250194446, -0.463330402559069, -0.091730400544803, -88.090182425492770, 0.086261531439303, -0.033032881280353, 0.995724749591002, 1323.775124303936764, 0.000000000000000, 0.000000000000000, 0.000000000000000, 1.000000000000000
153, 1.940404411475051, -1.570846059575059, -0.000077717711632, -0.000086166577823, -0.000020229325939, -0.000014021538862, -0.000003355559108, -0.573994632720947, -86.482306079864500, -0.972374086380005, 29.999215192794800, -0.739074735641480, -3.384575771331787, -0.020025100708008, -0.275760201890724, -0.894999100113849, 0.350617914329243, 353.372703233530558, -0.111710163036564, -0.332449575056690, -0.936481777462312, -923.193157368045604, 0.954713124727806, -0.297411988393251, -0.008304133455178, 336.133887113563105, 0.000000000000000, 0.000000000000000, 0.000000000000000, 1.000000000000000
154, 1.940386584954799, -1.386044847561555, -0.000077987365001, -0.000085747098846, -0.000020229325939, -0.000014261194385, -0.000003415500259, -0.505437896728516, -85.175695346832271, -0.956527338027954, 29.504444494247437, -0.728950424194336, -3.240228170394897, -0.019190721511841, -0.340232596579091, -0.874312832454572, 0.346148597036464, 347.696312550705784, 0.052581212320598, -0.385222550794048, -0.921324482726158, -907.926255995313340, 0.938870063606219, -0.295263708174557, 0.177037697395397, 517.941064811143292, 0.000000000000000, 0.000000000000000, 0.000000000000000, 1.000000000000000
155, 1.940392846705274, -1.201230333139383, -0.000077807596088, -0.000088113983475, -0.000020229325939, -0.000013931654406, -0.000003325615803, -0.485946275711060, -80.745720376968393, -0.908106718063354, 28.001644525527954, -0.690654115676880, -3.070849193572998, -0.021526983261108, -0.401058868584635, -0.854920603687103, 0.329032742019531, 330.039139786981650, 0.210942305165131, -0.435722841202188, -0.875013685348014, -861.984495407012218, 0.891434309313498, -0.281525073565343, 0.355089432583955, 693.632399020873322, 0.000000000000000, 0.000000000000000, 0.000000000000000, 1.000000000000000
156, 1.940390479820645, -1.016417346698426, -0.000077388117111, -0.000085657214390, -0.000020133420096, -0.000012463614340, -0.000003325615803, -0.407979791641235, -73.547263097763064, -0.830633726119995, 25.513264846801757, -0.636951246261597, -2.805015981674194, -0.022361362457275, -0.457816590958149, -0.837031714532457, 0.299636242651510, 301.514833260130160, 0.358931078241532, -0.482361376431573, -0.799059436837717, -786.303819885266194, 0.813371040863781, -0.258273907690835, 0.521269736787276, 857.379561358248111, 0.000000000000000, 0.000000000000000, 0.000000000000000, 1.000000000000000
157, 1.940387783341495, -0.831549142948739, -0.000076728982612, 0.000059681424621, -0.000020133420096, -0.000009527425127, -0.000003295617956, -0.382439046859741, -63.911681066513061, -0.722787799835205, 22.160357007980345, -0.559918441772461, -2.457079856872559, -0.025031375885010, -0.508246349711789, -0.820991680262789, 0.260112108414668, 262.332351032793781, 0.491088305001074, -0.524395661756066, -0.695587138051438, -683.733774615569700, 0.707472914460910, -0.225791609389499, 0.669701593572455, 1003.630631858254446, 0.000000000000000, 0.000000000000000, 0.000000000000000, 1.000000000000000
158, 1.940387034322539, -0.646757787954882, -0.000075800194743, 0.000060969750315, -0.000020037601520, -0.000004074689300, -0.000003235731346, -0.250702573776245, -52.104463603973386, -0.592492313385010, 18.055608997344969, -0.466598701477051, -1.995501285552979, -0.027033885955811, -0.550901140468163, -0.807123471366234, 0.212272549804720, 214.345933910491965, 0.602654362246447, -0.560682425613057, -0.567840591428604, -557.615443452512977, 0.577334957452090, -0.184897051297144, 0.795297068601045, 1127.265539213001375, 0.000000000000000, 0.000000000000000, 0.000000000000000, 1.000000000000000
159, 1.940394164974273, -0.461955737147050, -0.000075081173633, 0.000059022344663, -0.000019893786390, 0.000004374231433, -0.000003115903585, -0.233899452209473, -38.401854028701777, -0.449431390762329, 13.299823741912842, -0.356111650466919, -1.462332979202270, -0.028702644348145, -0.583941587727189, -0.796616984839554, 0.156248525073961, 158.834194782308316, 0.690365784390632, -0.588570682473191, -0.420689476307348, -412.169344035546089, 0.427091683207901, -0.137789445162468, 0.893648008410728, 1223.965779974411362, 0.000000000000000, 0.000000000000000, 0.000000000000000, 1.000000000000000
160, 1.940396322092143, -0.277169265748059, -0.000074062501308, 0.000046109308040, -0.000019702061972, 0.000022530346205, -0.000003115849044, -0.173408214569092, -23.363060226440432, -0.281719970703125, 8.061152849197388, -0.233739538192749, -0.894621374130249, -0.032207036972046, -0.607039374062540, -0.789014776482037, 0.094651364653452, 97.953855567455392, 0.750293825105860, -0.608305576796554, -0.258888974748307, -252.485077141904554, 0.261844179514799, -0.086139466745577, 0.961258351289085, 1290.254331921764333, 0.000000000000000, 0.000000000000000, 0.000000000000000, 1.000000000000000
161, 1.940397760243445, -0.092352773976929, -0.000072953944527, -0.000081732459781, -0.000019414431712, 0.000058752636752, -0.000002936134672, -0.176096714019775, -7.539224584579468, -0.111367425918579, 2.586101293563843, -0.106085176467896, -0.323071624755859, -0.033708919525146, -0.618935333756147, -0.784923633098581, 0.028529683340182, 34.157990782150470, 0.780631494982110, -0.618752630602503, -0.088088882184299, -83.773372984277046, 0.086795862056687, -0.032250152337732, 0.995703975086988, 1323.830423618424220, 0.000000000000000, 0.000000000000000, 0.000000000000000, 1.000000000000000
162, 2.125203735860429, -1.570846119461669, -0.000078376846131, 0.000064325363964, -0.000020133507363, 0.000022350577292, -0.000003355559108, -0.455700656890869, -86.487010953903194, -0.971493711471558, 29.956076822280885, -0.739074735641480, -3.390917053222656, -0.019858224868774, -0.253810930618912, -0.817397413158781, 0.517147445570114, 516.553210958582667, -0.160354458184677, -0.491698385700374, -0.855873323126702, -842.827017750001232, 0.953869204471274, -0.300156903070675, -0.006274894450204, 335.848880561230203, 0.000000000000000, 0.000000000000000, 0.000000000000000, 1.000000000000000
163, 2.125188965302611, -1.386037567193297, -0.000078316904980, 0.000076399442633, -0.000020229413205, 0.000021391846119, -0.000003295617956, -0.407979791641235, -85.194514842987061, -0.958728275299072, 29.459105186462402, -0.723227987289429, -3.244233190536499, -0.020525728225708, -0.344070175192915, -0.788637333045397, 0.509575187258721, 508.478616079395465, -0.010812168671164, -0.539347195936657, -0.842014073067601, -829.015516139312922, 0.938881681337613, -0.295221542510551, 0.177046404330469, 517.621940255635764, 0.000000000000000, 0.000000000000000, 0.000000000000000, 1.000000000000000
164, 2.125191272300630, -1.201224730523407, -0.000078137190609, 0.000074571810200, -0.000020229413205, 0.000021571615032, -0.000003355559108, -0.353537677764893, -80.747064626693728, -0.908987092971802, 27.963348217010498, -0.689333553314209, -3.076856723785400, -0.021026355743408, -0.431867096562503, -0.760542904485619, 0.484835334256130, 483.147113388790501, 0.133550287795014, -0.585545349947408, -0.799562983000612, -787.216894767651979, 0.891995028874344, -0.280555045564230, 0.354448493961972, 693.173844876598423, 0.000000000000000, 0.000000000000000, 0.000000000000000, 1.000000000000000
165, 2.125200110647952, -1.016416387967253, -0.000077717657090, 0.000007250424954, -0.000020133507363, 0.000022979768487, -0.000003235731346, -0.317242935180664, -73.631278705596927, -0.830193538665772, 25.525590095520020, -0.632109184265137, -2.805850360870361, -0.022528238296509, -0.514882828786868, -0.733850692321679, 0.443123948799233, 441.431847656817013, 0.268341847942634, -0.628898311766569, -0.729711974754349, -718.103586697194032, 0.814179541172072, -0.256807466472748, 0.520731792673238, 856.992313548014067, 0.000000000000000, 0.000000000000000, 0.000000000000000, 1.000000000000000
166, 2.125189444722739, -0.831549652257630, -0.000077088574979, -0.000068669652092, -0.000020037601520, 0.000026005787616, -0.000003235731346, -0.267505695343018, -63.984270551681519, -0.726309299468994, 22.208337440490723, -0.559478254318237, -2.462419883728027, -0.021860734939575, -0.589665140141948, -0.709838503201542, 0.385258772611309, 384.053036210947937, 0.388673994554188, -0.667549795834697, -0.635066765024234, -624.401566102172751, 0.707974256918052, -0.224736666909627, 0.669526610440304, 1003.304128139180193, 0.000000000000000, 0.000000000000000, 0.000000000000000, 1.000000000000000
167, 2.125201309034648, -0.646822622627738, -0.000076399388091, -0.000066033114094, -0.000019749971260, 0.000031278809071, -0.000003235731346, -0.160637842178345, -52.145463220596312, -0.589851188659668, 18.101828680038452, -0.469239826202393, -1.980649335861206, -0.026366382598877, -0.651148288439719, -0.690602257037130, 0.314760907733547, 314.016301276430795, 0.491179525637315, -0.699625600249416, -0.518909137586097, -509.118521210399081, 0.578574610622283, -0.183282683445183, 0.794769701166575, 1127.040585724452285, 0.000000000000000, 0.000000000000000, 0.000000000000000, 1.000000000000000
